!!!!SEGMENT: pl-stab--3b--001-008_rodowski-aleksander--modlitwa-in-b-racz-nam-tedy-dac.krn
!!!cenid: 18xx:3429
!!!COM: Rodowski, Aleksander
!!!COM-rismID: pe30009627
!!!CDT: <1790->1810
!!!CNT: Polish
!!!OPR: Modlitwa in B
!!!OTL: Racz nam tedy dać
!!!OMV: 008
!!!PDT: 1806
!!!AGN:
!!!SMS-siglum: PL-STAb
!!!SMS-shelfmark: 3b
!!!SMS-shelfwork: 001-008 M
!!!SMS-variant: Canto. PL-STAb 3b: 10-15
!!!SMS-altvar: Canto PL-STAb 3b: 16-18
!!!NIFC-rismSourceID: 301050648
!!!NIFC-islandoraID: pl-stab:961
!!!URL-pdf-islandora: https://repozytorium.nifc.pl/islandora/object/pl-stab%3A961/datastream/PDF/view
!!!URL-scan: https://polish.musicsources.pl/pl/lokalizacje/galeria/rekopisy/4501 @EN{Scan on Polish Music Herritage in Open Access Website} @PL{Skany w portalu Dziedzictwo Muzyki Polskiej w otwartym dostępie}
!!!ONB-nifc: UWAGA: części Modlitwy: 1. Przed oczy twoie (Adagio), 2. Umysł utrapieniem (Moderatto), 3. Życie w uciskach (Adagio), 4. Jeżeli sprawiedliwie (Moderato), 5. Wyznawamy (Adagio), 6. Kiedy nas karzesz (Adagio), 7. Oto nas masz (Andante), 8. Racz nam tedy dać (Allegro)
!!!AIN: 1 bass 2 organ 1 soprn 1 tenor 2 violn
!!!key: B-
**kern	**kern	**kern	**dynam	**kern	**dynam	**kern	**text	**kern	**text	**kern	**text
*part7	*part6	*part5	*part5	*part4	*part4	*part3	*part3	*part2	*part2	*part1	*part1
*group3	*group3	*group2	*	*group2	*	*group1	*group1	*group1	*group1	*group1	*group1
*staff7	*staff6	*staff5	*	*staff4	*	*staff3	*staff3	*staff2	*staff2	*staff1	*staff1
*I"Organo	*I"Organo	*I"Violino Secundo	*	*I"Violino Primo	*	*I"Baſso	*	*I"Tenor	*	*I"Canto.	*
*I'org	*I'org	*I'vl 2	*	*I'vl 1	*	*I'B	*	*I'T	*	*I'S	*
*Iorgan	*Iorgan	*Ivioln	*	*Ivioln	*	*Ibass	*	*Itenor	*	*Isoprn	*
*ICklav	*ICklav	*ICstr	*	*ICstr	*	*ICvox	*	*ICvox	*	*ICvox	*
*clefF4	*clefG2	*clefG2	*	*clefG2	*	*clefF4	*	*clefC4	*	*clefC1	*
*k[b-e-]	*k[b-e-]	*k[b-e-]	*	*k[b-e-]	*	*k[b-e-]	*	*k[b-e-]	*	*k[b-e-]	*
*B-:	*B-:	*B-:	*	*B-:	*	*B-:	*	*B-:	*	*B-:	*
*M6/8	*M6/8	*M6/8	*	*M6/8	*	*M6/8	*	*M6/8	*	*M6/8	*
=1	=1	=1	=1	=1	=1	=1	=1	=1	=1	=1	=1
*2\right	*2\right	*2\right	*2\right	*2\right	*2\right	*2\right	*2\right	*2\right	*2\right	*2\right	*2\right
*	*	*	*	*	*below	*	*	*	*	*	*
!	!LO:TX:a:B:t=Allegro	!LO:TX:a:B:t=Allegro	!	!LO:TX:a:B:t=Allegro	!	!	!	!LO:TX:a:B:t=Allegro	!	!LO:TX:a:B:t=Allegro	!
!	!	!	!	!	!	!LO:N:vis=0	!	!	!	!	!
4BB-/	4b-\	2.r	.	4b-\	p	1.r	.	2.r	.	4b-\	Racz
8r	8b-\	.	.	8b-\	.	.	.	.	.	8b-\	nam
4B-\	8b-\L	.	.	8b-\L	.	.	.	.	.	8b-\	te-
.	8a\	.	.	8a\	.	.	.	.	.	8a\	-dy
8r	8b-\J	.	.	8b-\J	.	.	.	.	.	8b-\	dac
=2	=2	=2	=2	=2	=2	=2	=2	=2	=2	=2	=2
*	*	*	*below	*	*	*	*	*	*	*	*ij
4BB-/	4dd 4b-\	4b-\	p	4dd\	.	.	.	4B-\	Racz	4dd\	Racz
8r	8dd 8b-\	8b-\	.	8dd\	.	.	.	8B-\	nam	8dd\	nam
4B-\	8ddL 8b-\	8b-\L	.	8dd\L	.	.	.	8B-\	te-	8dd\	te-
.	8cc 8a\	8a\	.	8cc\	.	.	.	8A\	-dy	8cc\	-dy
8r	8ddJ 8b-\	8b-\J	.	8dd\J	.	.	.	8B-\	dać	8dd\	dac
*	*	*	*	*	*	*	*	*	*	*	*Xij
=3	=3	=3	=3	=3	=3	=3||:	=3	=3	=3	=3	=3
!LO:TX:t=P:problem=mixed beam	!	!	!	!	!	!	!	!	!	!	!
8AA/L	8ee-L 8cc\	8cc\L	.	8ee-\L	.	8F\	O	8c\	O	8ee-\	O
8A\	8ee- 8cc\	8cc\	.	8aa\	.	8G\	co	8c\	co	8ee-\	co
8A\J	8ee-J 8cc\	8cc\J	.	8aa\J	.	8A\	rze-	8c\	rze-	8ee-\	rze-
!LO:TX:t=P:problem=mixed beam	!	!	!	!	!	!	!	!	!	!LO:LB:g=original	!
!	!LO:SIC:v:s=8ffL 8dd\	!	!	!	!	!	!	!LO:SIC:v:s=8d\	!	!LO:SIC:v:s=8ff\	!
8B-\L	8ee-L 8cc\	8dd\L	.	8bb-\L	.	8B-\	-brze-	8c\	-brze-	8ee-\	-brze-
8BB-/J	8ddJ 8b-\	8dd\	.	8ff\	.	8BB-/	-my	8B-\	-my	8dd\	-my
8r	8r	8b-\J	.	8dd\J	.	8r	.	8r	.	8r	.
=4	=4	=4	=4	=4	=4	=4:||	=4	=4	=4	=4	=4
*	*	*	*	*	*	*	*	*	*ij	*	*ij
!LO:TX:t=P:problem=mixed beam	!	!	!	!	!	!LO:TX:t=P:problem=t. 4 zapisany repetycją	!	!	!	!	!
8AA/L	8ee-L 8cc\	8a\L	.	8ee-\L	.	8F\yy	O	8c\	O	8ee-\	O
8A\	8ee- 8cc\	8cc\	.	8aa\	.	8G\yy	co	8c\	co	8ee-\	co
8A\J	8ee-J 8cc\	8cc\J	.	8aa\J	.	8A\yy	rze-	8c\	rze-	8ee-\	rze-
!LO:TX:t=P:problem=mixed beam	!LO:SIC:v:s=8ffL 8dd\	!	!	!	!	!	!	!LO:SIC:v:s=8d\	!	!LO:SIC:v:s=8ff\	!
8B-\L	8ee-L 8cc\	8dd\L	.	8bb-\L	.	8B-\yy	-brze-	8c\	-brze-	8ee-\	-brze-
8BB-/J	8ddJ 8b-\	8dd\J	.	8ff\J	.	8BB-/yy	-my	8B-\	-my	8dd\	-my
*	*	*	*	*	*	*	*	*	*Xij	*	*Xij
8r	8r	8r	.	8r	.	8ryy	.	8r	.	8r	.
!	!	!	!	!	!	!	!	!LO:LB:g=original	!	!	!
=5	=5	=5	=5	=5	=5	=5	=5	=5	=5	=5	=5
!LO:TX:t=P:problem=mixed beam	!	!LO:N:vis=00	!	!LO:N:vis=00	!	!LO:N:vis=00	!	!LO:N:vis=00	!	!	!
8EE-/L	4.gg 4.b-\	0.r	.	0.r	.	0.r	.	0.r	.	4.gg\	lu-
8E-\	.	.	.	.	.	.	.	.	.	.	.
8E-\J	.	.	.	.	.	.	.	.	.	.	.
*tremolo	*	*	*	*	*	*	*	*	*	*	*
8E-\L	4ee-\	.	.	.	.	.	.	.	.	4ee-\	-bos-
8E-\	.	.	.	.	.	.	.	.	.	.	.
8E-\J	8cc\	.	.	.	.	.	.	.	.	8cc\	-my
*Xtremolo	*	*	*	*	*	*	*	*	*	*	*
=6	=6	=6	=6	=6	=6	=6	=6	=6	=6	=6	=6
!	!LO:TX:t=P:problem=mixed beam	!	!	!	!	!	!	!	!	!	!
8F\L	8a/L	.	.	.	.	.	.	.	.	8a\L	nie
8G\	8ff 8dd\	.	.	.	.	.	.	.	.	8ff\	za-
8A\J	8ee-J 8cc\	.	.	.	.	.	.	.	.	8ee-\J	-słu-
!LO:TX:t=P:problem=mixed beam	!	!	!	!	!	!	!	!	!	!	!
8B-\L	8ee-L 8cc\	.	.	.	.	.	.	.	.	8ee-\	-zy-
8BB-/J	8ddJ 8b-\	.	.	.	.	.	.	.	.	8dd\	-li
8r	8r	.	.	.	.	.	.	.	.	8r	.
!LO:LB:g=original	!LO:LB:g=original	!	!	!	!	!	!	!	!	!LO:LB:g=original	!
=7	=7	=7	=7	=7	=7	=7	=7	=7	=7	=7	=7
*	*	*	*	*	*	*	*	*	*	*	*ij
!LO:TX:t=P:problem=mixed beam	!	!	!	!	!	!	!	!	!	!	!
8EE-/L	4.gg 4.b-\	.	.	.	.	.	.	.	.	4.gg\	lu-
8E-\	.	.	.	.	.	.	.	.	.	.	.
8E-\J	.	.	.	.	.	.	.	.	.	.	.
*tremolo	*	*	*	*	*	*	*	*	*	*	*
8E-\L	4ee-\	.	.	.	.	.	.	.	.	4ee-\	-bos-
8E-\	.	.	.	.	.	.	.	.	.	.	.
8E-\J	8cc\	.	.	.	.	.	.	.	.	8cc\	-my
*Xtremolo	*	*	*	*	*	*	*	*	*	*	*
=8	=8	=8	=8	=8	=8	=8	=8	=8	=8	=8	=8
!	!LO:TX:t=P:problem=mixed beam	!	!	!	!	!	!	!	!	!	!
8F\L	8a/L	.	.	.	.	.	.	.	.	8a\L	nie
8G\	8ff 8dd\	.	.	.	.	.	.	.	.	8ff\	za-
8A\J	8ee-J 8cc\	.	.	.	.	.	.	.	.	8ee-\J	-słu-
!LO:TX:t=P:problem=mixed beam	!	!	!	!	!	!	!	!	!	!	!
8B-\L	8ee-L 8cc\	.	.	.	.	.	.	.	.	8ee-\	-zy-
8BB-/J	8ddJ 8b-\	.	.	.	.	.	.	.	.	8dd\	-li
*	*	*	*	*	*	*	*	*	*	*	*Xij
8r	8r	.	.	.	.	.	.	.	.	8r	.
!	!	!	!	!	!	!LO:TX:t=[segno]:problem=znak segno na kresce taktowej	!	!LO:TX:t=[segno]:problem=znak segno na kresce taktowej	!	!	!
=9	=9	=9	=9	=9	=9	=9||	=9	=9	=9	=9	=9
!	!	!	!	!	!LO:DY:B:i:t=for	!	!	!	!	!	!
8F\L	8f/L	8f/L	f	8f/L	f	8F\	Kto-	8F/	Kto-	8f/	Kto-
8F\	8f/	8f/	.	8f/	.	8F\	-rys	8F/	-ris	8f/	-rys
8F\J	8f/J	8f/J	.	8f/J	.	8F\	nas	8F/	nas	8f/	nas
8F\L	8f/L	8f/L	.	8f/L	.	8F\	z ni-	8F/	z ni-	8f/	z ni-
8G\	8g/	8g/	.	8g/	.	8G\	-cze-	8G/	-cze-	8g/	-cze-
8A\J	8a/J	8a/J	.	8a/J	.	8A\	-go	8A/	-go	8a/	-go
=10	=10	=10	=10	=10	=10	=10	=10	=10	=10	=10	=10
4.B-\	4.b-/	4.b-/	.	4.b-/	.	4.B-\	stwo-	4.B-/	stwo-	4.b-\	stwo-
4G\	4g/	4.g/	.	4.g/	.	4G\	-rzył	8G/	-rzył	4g\	-rzył
.	.	.	.	.	.	.	.	8r	.	.	.
!	!	!	!	!	!	!	!	!LO:TX:t=P:problem=brak 8r	!	!	!
8r	8r	.	.	.	.	8r	.	8ryy	.	8r	.
!	!	!	!	!	!	!	!	!	!	!LO:LB:g=original	!
=11	=11	=11	=11	=11	=11	=11	=11	=11	=11	=11	=11
*	*	*	*	*	*	*	*ij	*	*ij	*	*ij
8G\L	8g/L	8g/L	.	8g/L	.	8G\	Kto-	8G/	Kto-	8g\	Kto-
8G\	8g/	8g/	.	8g/	.	8G\	-rys	8G/	-ris	8g\	-rys
8G\J	8g/J	8g/J	.	8g/J	.	8G\	nas	8G/	nas	8g\	nas
8G\L	8g/L	8g/L	.	8g/L	.	8G\	z ni-	8G/	z ni-	8g\	z ni-
8A\	8a/	8a/	.	8a/	.	8A\	-cze-	8A/	-cze-	8a\	-cze-
8B-\J	8b-/J	8b-/J	.	8b-/J	.	8B-\	-go	8B-/	-go	8b-\	-go
!	!	!	!	!	!	!LO:LB:g=original	!	!	!	!	!
=12	=12	=12	=12	=12	=12	=12	=12	=12	=12	=12	=12
4.c\	4.cc\	4.cc/	.	4.cc/	.	4.c\	stwo-	4.c/	stwo-	4.cc\	stwo-
4A\	4a/	4a/	.	4.a/	.	4A\	-rzył	8A/	-rzył	4a\	-rzył
*	*	*	*	*	*	*	*Xij	*	*Xij	*	*
.	.	.	.	.	.	.	.	8r	.	.	.
8r	8r	8r	.	.	.	8r	.	8r	.	8r	.
=13	=13	=13	=13	=13	=13	=13	=13	=13	=13	=13	=13
4F\	8f/L	4f/	.	8f/L	pp	2.r	.	2.r	.	8f/	Kto-
.	8g/	.	.	8g/	.	.	.	.	.	8g/	-rys
8r	8a/J	8r	.	8a/J	.	.	.	.	.	8a/	nas
!LO:N:vis=2	!	!LO:N:vis=2	!	!	!	!	!	!	!	!	!
4.r	8b-/L	4.r	.	8b-/L	.	.	.	.	.	8b-\	z ni-
.	8cc 8a/	.	.	8cc/	.	.	.	.	.	8cc\	-cze-
.	8ddJ 8b-/	.	.	8dd/J	.	.	.	.	.	8dd\	-go
!LO:LB:g=original	!LO:LB:g=original	!	!	!LO:LB:g=original	!	!	!	!	!	!	!
=14	=14	=14	=14	=14	=14	=14	=14	=14	=14	=14	=14
!	!	!	!LO:DY:B:i:t=pp.	!	!	!	!	!	!	!	!
8F\L	4.ee- 4.cc\	4cc\	pp	4ee-\	.	8F\L	Stwo-	4.c\	stwo-	4.ee-\	stwo-
8G\	.	.	.	.	.	8G\	.	.	.	.	.
8A\J	.	8cc\	.	8aa\	.	8A\J	.	.	.	.	.
!	!	!LO:LB:g=original	!	!	!	!	!	!	!	!	!
8B-\L	8dd 8b-\	8dd\L	.	8bb-\L	.	4.B-\	-rzył	8B-\	-rzył	8dd\	-rzył
*	*	*	*	*	*	*	*	*	*	*	*Xij
8c\	8r	8dd\	.	8ff\	.	.	.	8r	.	8r	.
8d\J	8r	8b-\J	.	8dd\J	.	.	.	8r	.	8r	.
!	!	!	!	!	!	!	!	!LO:LB:g=original	!	!LO:LB:g=original	!
=15	=15	=15||:	=15	=15	=15	=15||:	=15	=15	=15	=15	=15
8e-\L	8ggL 8ee-\	8e-/L	.	8gg\L	.	8c\	a-	8e-\	a-	8gg\	a-
8e-\	8gg 8ee-\	8e-/	.	8ee-\	.	8c\	-bys-	8e-\	-byś-	8gg\	-bys-
8e-\J	8ggJ 8ee-\	8e-/J	.	8cc\J	.	8c\	-my	8e-\	-my	8gg\	-my
8f\L	8aaL 8cc\	8f/L	.	8aa\L	.	8F\	cie-	8c\	cie-	8aa\	cie-
8f\	8aa 8cc\	8f/	.	8ee-\	.	8F\	-bie	8c\	-bie	8aa\	-bie
8f\J	8aaJ 8cc\	8f/J	.	8cc\J	.	8F\	pro-	8c\	pro-	8aa\	pro-
=16	=16	=16	=16	=16	=16	=16	=16	=16	=16	=16	=16
*tremolo	*	*	*	*	*	*	*	*	*	*	*
!	!LO:N:vis=4.	!	!	!	!	!	!	!	!	!	!
8g\L	4bb- 4dd\	8g/L	.	4bb-\	.	4.B-\	-si-	(4d\	-si-	4bb-\	-si-
8g\	.	8g/	.	.	.	.	.	.	.	.	.
8g\J	8gg 8ee-\	8g/J	.	8gg\	.	.	.	8e-\)	.	8gg\	.
8d\L	4ff 4dd\	8d/L	.	8ff\L	.	4B-\	-li	4d\	-li	4ff\	-li
8d\	.	8d/	.	8dd\	.	.	.	.	.	.	.
8d\J	8r	8d/J	.	8b-\J	.	8r	.	8r	.	8r	.
*Xtremolo	*	*	*	*	*	*	*	*	*	*	*
=17	=17	=17:||	=17	=17	=17	=17:||	=17	=17	=17	=17	=17
*	*	*	*	*	*	*	*	*	*ij	*	*ij
!	!	!LO:TX:t=P:problem=t. 17-18 zapisane repetycją	!	!	!	!LO:TX:t=P:problem=t. 17-18 zapisane repetycją	!	!	!	!	!
8e-\L	8ggL 8ee-\	8e-/Lyy	.	8gg\L	.	8c\yy	a-	8e-\	a-	8gg\	a-
8e-\	8gg 8ee-\	8e-/yy	.	8ee-\	.	8c\yy	-bys-	8e-\	-byś-	8gg\	-bys-
8e-\J	8ggJ 8ee-\	8e-/Jyy	.	8cc\J	.	8c\yy	-my	8e-\	-my	8gg\	-my
8f\L	8aaL 8cc\	8f/Lyy	.	8aa\L	.	8F\yy	cie-	8c\	cie-	8aa\	cie-
8f\	8aa 8cc\	8f/yy	.	8ee-\	.	8F\yy	-bie	8c\	-bie	8aa\	-bie
8f\J	8aaJ 8cc\	8f/Jyy	.	8cc\J	.	8F\yy	pro-	8c\	pro-	8aa\	pro-
!	!	!	!	!	!	!	!	!	!	!LO:LB:g=original	!
=18	=18	=18	=18	=18	=18	=18	=18	=18	=18	=18	=18
*tremolo	*	*	*	*	*	*	*	*	*	*	*
8g\L	4bb- 4dd\	8g/Lyy	.	4bb-\	.	4.B-\yy	-si-	4d\	-si-	4bb-\	-si-
8g\	.	8g/yy	.	.	.	.	.	.	.	.	.
8g\J	8gg 8ee-\	8g/Jyy	.	8gg\	.	.	.	8e-\	.	8gg\	.
8d\L	4ff 4dd\	8d/Lyy	.	8ff\L	.	4B-\yy	-li	4d\	-li	4ff\	-li
8d\	.	8d/yy	.	8dd\	.	.	.	.	.	.	.
8d\J	8r	8d/Jyy	.	8b-\J	.	8ryy	.	8r	.	8r	.
*Xtremolo	*	*	*	*	*	*	*	*	*	*	*
!	!	!	!	!	!	!	!	!LO:LB:g=original	!	!	!
=19	=19	=19	=19	=19	=19	=19	=19	=19	=19	=19	=19
*	*	*	*	*	*	*	*ij	*	*	*	*
8E-\L	8ggL 8ee-\	8e-/L	.	8gg\L	.	8c\	a-	8e-\	a-	8gg\	a-
8E-\	8gg 8ee-\	8e-/	.	8ee-\	.	8c\	-bys-	8e-\	-byś-	8gg\	-bys-
8E-\J	8ggJ 8ee-\	8e-/J	.	8cc\J	.	8c\	-my	8e-\	-my	8gg\	-my
!LO:LB:g=original	!LO:LB:g=original	!	!	!	!	!	!	!	!	!	!
!	!LO:TX:t=P:problem=mixed beam	!	!	!	!	!	!	!	!	!	!
8F\L	8ggL 8ee-\	8f/L	.	8ee-\L	.	8A\	cie-	8e-\	cie-	8gg\	cie-
8F\	8ff 8dd\	8f/	.	8cc\	.	8B-\	-bie	8d\	-bie	8ff\	-bie
8F\J	8aJ 8c/	8f/J	.	8a\J	.	8F\	pro-	8c\	pro-	8a\	pro-
=20	=20	=20	=20	=20	=20	=20	=20	=20	=20	=20	=20
8BB-\L	4cc 4e-/	8b-/L	.	8b-\L	.	4.F\	-si-	4e-\	-si-	(4cc\	-si-
8D\	.	8f/	.	8f\	.	.	.	.	.	.	.
8F\J	8b- 8d/	8d/J	.	8d\J	.	.	.	8d\	.	8b-\)	.
4B-\	4b- 4d/	4B-/	.	4B-/	.	4BB-/	-li	4d\	-li	4b-\	-li
*	*	*	*	*	*	*	*Xij	*	*Xij	*	*Xij
8r	8r	8r	.	8r	.	8r	.	8r	.	8r	.
!	!	!	!	!	!	!LO:LB:g=original	!	!	!	!	!
=21	=21	=21	=21	=21	=21	=21	=21	=21	=21	=21	=21
*	*	*	*	*	*	*clefC3	*	*	*	*	*
!	!	!LO:N:vis=00	!	!LO:N:vis=00	!	!	!	!LO:N:vis=00	!	!	!
4BB-/	4ff 4dd\	0.r	.	0.r	.	4dd\	Racz	0.r	.	4ff\	Racz
8r	8dd 8b-\	.	.	.	.	8b-\	nam	.	.	8dd\	nam
!	!	!	!	!	!	!	!	!	!	!LO:LB:g=original	!
4B-\	8ffL 8dd\	.	.	.	.	8dd\	te-	.	.	8ff\	te-
.	8ff 8dd\	.	.	.	.	8dd\	-dy	.	.	8ff\	-dy
8r	8ddJ 8b-\	.	.	.	.	8b-\	dac	.	.	8dd\	dac
=22	=22	=22	=22	=22	=22	=22	=22	=22	=22	=22	=22
4BB-/	8ffL 8dd\	.	.	.	.	8dd\	O	.	.	8ff\	O
.	8ff 8dd\	.	.	.	.	8dd\	co	.	.	8ff\	co
8r	8ddJ 8b-\	.	.	.	.	8b-\	rze-	.	.	8dd\	rze-
8F\L	8ffL 8dd\	.	.	.	.	8dd\	-brze-	.	.	8ff\	-brze-
8A\	8ee-J 8cc\	.	.	.	.	8cc\	-my	.	.	8ee-\	-my
8c\J	8r	.	.	.	.	8r	.	.	.	8r	.
=23	=23	=23	=23	=23	=23	=23	=23	=23	=23	=23	=23
*	*	*	*	*	*	*	*ij	*	*	*	*ij
4F\	4ee- 4cc\	.	.	.	.	4cc\	Racz	.	.	4ee-\	Racz
8r	8cc 8a\	.	.	.	.	8a\	nam	.	.	8cc\	nam
4FF/	8ee-L 8cc\	.	.	.	.	8cc\	te-	.	.	8ee-\	te-
.	8ee- 8cc\	.	.	.	.	8cc\	-dy	.	.	8ee-\	-dy
8r	8ccJ 8a\	.	.	.	.	8a\	dac	.	.	8cc\	dac
=24	=24	=24	=24	=24	=24	=24	=24	=24	=24	=24	=24
4F\	8ee-L 8cc\	.	.	.	.	8cc\	O	.	.	8ee-\	O
.	8ee- 8cc\	.	.	.	.	8cc\	co	.	.	8ee-\	co
8r	8ccJ 8a\	.	.	.	.	8a\	rze-	.	.	8cc\	rze-
8BB-/L	8ee-L 8cc\	.	.	.	.	8cc\	-brze-	.	.	8ee-\	-brze-
8D/	8ddJ 8b-\	.	.	.	.	8b-\	-my	.	.	8dd\	-my
*	*	*	*	*	*	*	*Xij	*	*	*	*Xij
8F/J	8r	.	.	.	.	8r	.	.	.	8r	.
!LO:LB:g=original	!LO:LB:g=original	!	!	!	!	!	!	!	!	!LO:LB:g=original	!
=25	=25	=25	=25	=25	=25	=25	=25	=25	=25	=25	=25
*tremolo	*	*	*	*	*	*	*	*	*	*	*
!	!	!LO:N:vis=00	!	!LO:N:vis=00	!	!LO:N:vis=00	!	!LO:N:vis=00	!	!	!
8E-\L	4.gg 4.b-\	0.r	.	0.r	.	0.r	.	0.r	.	4.gg\	lu-
8E-\	.	.	.	.	.	.	.	.	.	.	.
8E-\J	.	.	.	.	.	.	.	.	.	.	.
8E-\L	4ee-\	.	.	.	.	.	.	.	.	4ee-\	-bos-
8E-\	.	.	.	.	.	.	.	.	.	.	.
8E-\J	8cc\	.	.	.	.	.	.	.	.	8cc\	-my
*Xtremolo	*	*	*	*	*	*	*	*	*	*	*
=26	=26	=26	=26	=26	=26	=26	=26	=26	=26	=26	=26
!	!LO:TX:t=P:problem=mixed beam	!	!	!	!	!	!	!	!	!	!
8F\L	8a/L	.	.	.	.	.	.	.	.	8a\	nie
8G\	8ff 8dd\	.	.	.	.	.	.	.	.	8ff\	za-
8A\J	8ee-J 8cc\	.	.	.	.	.	.	.	.	8ee-\	-słu-
!LO:TX:t=P:problem=mixed beam	!	!	!	!	!	!	!	!	!	!	!
8B-\L	8ee-L 8cc\	.	.	.	.	.	.	.	.	8ee-\	-zi-
8BB-/J	8ddJ 8b-\	.	.	.	.	.	.	.	.	8dd\	-li
8r	8r	.	.	.	.	.	.	.	.	8r	.
=27	=27	=27	=27	=27	=27	=27	=27	=27	=27	=27	=27
*tremolo	*	*	*	*	*	*	*	*	*	*	*ij
8E-\L	4.gg 4.b-\	.	.	.	.	.	.	.	.	4.gg\	lu-
8E-\	.	.	.	.	.	.	.	.	.	.	.
8E-\J	.	.	.	.	.	.	.	.	.	.	.
8E-\L	4ee-\	.	.	.	.	.	.	.	.	4ee-\	-bos-
8E-\	.	.	.	.	.	.	.	.	.	.	.
8E-\J	8cc\	.	.	.	.	.	.	.	.	8cc\	-my
*Xtremolo	*	*	*	*	*	*	*	*	*	*	*
=28	=28	=28	=28	=28	=28	=28	=28	=28	=28	=28	=28
!	!LO:TX:t=P:problem=mixed beam	!	!	!	!	!	!	!	!	!	!
8F\L	8a/L	.	.	.	.	.	.	.	.	8a\	nie
8G\	8ff 8dd\	.	.	.	.	.	.	.	.	8ff\	za-
8A\J	8ee-J 8cc\	.	.	.	.	.	.	.	.	8ee-\	-słu-
!LO:TX:t=P:problem=mixed beam	!	!	!	!	!	!	!	!	!	!	!
8B-\L	8ee-L 8cc\	.	.	.	.	.	.	.	.	8ee-\	-zi-
8BB-/J	8ddJ 8b-\	.	.	.	.	.	.	.	.	8dd\	-li
*	*	*	*	*	*	*	*	*	*	*	*Xij
8r	8r	.	.	.	.	.	.	.	.	8r	.
!	!	!	!	!	!	!LO:LB:g=original	!	!	!	!LO:LB:g=original	!
=29	=29	=29	=29	=29	=29	=29	=29	=29	=29	=29	=29
*	*	*	*	*	*	*clefF4	*	*	*	*	*
!	!	!	!LO:DY:B:i:t=for	!	!	!	!	!	!	!	!
8F\L	8f/L	8f/L	f	8f/L	f	8F\	Kto-	8F/	Kto-	8f/	Kto-
8F\	8f/	8f/	.	8f/	.	8F\	-rys	8F/	-rys	8f/	-ryś
8F\J	8f/J	8f/J	.	8f/J	.	8F\	nas	8F/	nas	8f/	nas
8F\L	8f/L	8f/L	.	8f/L	.	8F\	z ni-	8F/	z ni-	8f/	z ni-
8G\	8g/	8g/	.	8g/	.	8G\	-cze-	8G/	-cze-	8g/	-cze-
8A\J	8a/J	8a/J	.	8a/J	.	8A\	-go	8A/	-go	8a/	-go
=30	=30	=30	=30	=30	=30	=30	=30	=30	=30	=30	=30
4.B-\	4.b-/	4.b-/	.	4.b-/	.	4.B-\	stwo-	4.B-/	stwo-	4.b-\	stwo-
8G\	8g/	4g/	.	4.g/	.	4G\	-rzył	8G/	-rzył	8g\	-rzył
8r	8r	.	.	.	.	.	.	8r	.	4r	.
8r	8r	8r	.	.	.	8r	.	8r	.	.	.
!LO:LB:g=original	!LO:LB:g=original	!	!	!	!	!	!	!	!	!	!
=31	=31	=31	=31	=31	=31	=31	=31	=31	=31	=31	=31
*	*	*	*	*	*	*	*ij	*	*	*	*ij
8G\L	8g/L	8g/L	.	8g/L	.	8G\	Kto-	8G/	Kto-	8g\	Kto-
8G\	8g/	8g/	.	8g/	.	8G\	-rys	8G/	-rys	8g\	-ryś
8G\J	8g/J	8g/J	.	8g/J	.	8G\	nas	8G/	nas	8g\	nas
!	!	!	!	!	!	!	!	!LO:LB:g=original	!	!	!
8G\L	8g/L	8g/L	.	8g/L	.	8G\	z ni-	8G/	z ni-	8g\	z ni-
8A\	8a/	8a/	.	8a/	.	8A\	-cze-	8A/	-cze-	8a\	-cze-
8B-\J	8b-/J	8b-/J	.	8b-/J	.	8B-\	-go	8B-/	-go	8b-\	-go
=32	=32	=32	=32	=32	=32	=32	=32	=32	=32	=32	=32
4.c\	4.cc/	4.cc/	.	4.cc/	.	4.c\	stwo-	4.c/	stwo-	4.cc\	stwo-
4A\	4a/	4a/	.	4.a/	.	4A\	-rzył	8A/	-rzył	4a\	-rzył
*	*	*	*	*	*	*	*Xij	*	*	*	*
.	.	.	.	.	.	.	.	8r	.	.	.
8r	8r	8r	.	.	.	8r	.	8r	.	8r	.
!	!	!LO:LB:g=original	!	!	!	!	!	!	!	!LO:LB:g=original	!
=33	=33	=33	=33	=33	=33	=33	=33	=33	=33	=33	=33
4F\	8f/L	4f/	.	8f/L	pp	2.r	.	2.r	.	8f\	Kto-
.	8g/	.	.	8g/	.	.	.	.	.	8g\	-ryś
8r	8a/J	8r	.	8a/J	.	.	.	.	.	8a\	nas
!LO:N:vis=2	!	!LO:N:vis=2	!	!LO:LB:g=original	!	!	!	!	!	!	!
4.r	8b-\L	4.r	.	8b-/L	.	.	.	.	.	8b-\	z ni-
.	8cc 8a\	.	.	8cc/	.	.	.	.	.	8cc\	-cze-
.	8ddJ 8b-\	.	.	8dd/J	.	.	.	.	.	8dd\	-go
=34	=34	=34	=34	=34	=34	=34	=34	=34	=34	=34	=34
*	*	*	*	*	*	*	*	*	*ij	*	*
8F\L	4.ee- 4.cc\	4cc\	p	4ee-\	.	8F\L	Stwo-	4.c\	stwo-	4.ee-\	stwo-
8G\	.	.	.	.	.	8G\	.	.	.	.	.
8A\J	.	8cc\	.	8aa\	.	8A\J	.	.	.	.	.
8B-\L	8dd 8b-\	8dd\L	.	8bb-\L	.	4.B-\	-rzył	8B-\	-rzył	8dd\	-rzył
*	*	*	*	*	*	*	*	*	*Xij	*	*Xij
8c\	8r	8dd\	.	8ff\	.	.	.	8r	.	4r	.
8d\J	8r	8b-\J	.	8dd\J	.	.	.	8r	.	.	.
=35	=35	=35	=35	=35	=35	=35	=35	=35	=35	=35	=35
8e-\L	8ggL 8ee-\	8e-/L	.	8gg\L	.	8c\	A-	8e-\	a-	8gg\	A-
8e-\	8gg 8ee-\	8e-/	.	8ee-\	.	8c\	-bys-	8e-\	-bys-	8gg\	-bys-
8e-\J	8ggJ 8ee-\	8e-/J	.	8cc\J	.	8c\	-my	8e-\	-my	8gg\	-my
!	!LO:TX:t=P:problem=mixed beam	!	!	!LO:TX:t=P:problem=8aa poprawione na 8ee, 8ee na 8cc, 8cc na 8a	!	!LO:LB:g=original	!	!	!	!	!
8f\L	8ggL 8ee-\	8f/L	.	8ee-\L	.	8A\	cie-	8e-\	cie-	8gg\	cie
8f\	8ff 8dd\	8f/	.	8cc\	.	8B-\	-bie	8d\	-bie	8ff\	pro-
8F\J	8aJ 8c/	8f/J	.	8a\J	.	8F\	chwa-	8c\	pro-	8a\	-si-
=36	=36	=36	=36	=36	=36	=36	=36	=36	=36	=36	=36
8B-\L	4.cc 4.e-/	8b-/L	.	8b-/L	.	4.F\	-li-	4.e-\	-si-	4.cc\	.
8F\	.	8f/	.	8f/	.	.	.	.	.	.	.
8D\J	.	8d/J	.	8d/J	.	.	.	.	.	.	.
4BB-/	4b- 4d/	4B-/	.	4B-/	.	4BB-/	-li	4d\	-li	4b-\	-li
8r	8r	8r	.	8r	.	8r	.	8r	.	8r	.
!LO:PB:g=original	!LO:PB:g=original	!	!	!	!	!	!	!	!	!LO:LB:g=original	!
=37	=37	=37	=37	=37	=37	=37	=37	=37	=37	=37	=37
!	!	!LO:N:vis=00	!	!LO:N:vis=00	!	!	!	!LO:TX:a:rj:t=Solo	!	!LO:N:vis=00	!
4BB-/	4ff 4dd\	0.r	.	0.r	.	4d\	Racz	4f\	Racz	0.r	.
8r	8dd 8b-\	.	.	.	.	8B-\	nam	8d\	nam	.	.
!	!	!	!	!	!	!	!	!LO:LB:g=original	!	!	!
4B-\	8ffL 8dd\	.	.	.	.	8d\L	te-	8f\	te-	.	.
.	8ff 8dd\	.	.	.	.	8d\	-dy	8f\	-dy	.	.
8r	8ddJ 8b-\	.	.	.	.	8B-\J	dac	8d\	dac	.	.
=38	=38	=38	=38	=38	=38	=38	=38	=38	=38	=38	=38
4BB-/	8ffL 8dd\	.	.	.	.	8d\	O	8f\	o	.	.
.	8ff 8dd\	.	.	.	.	8d\	co	8f\	co	.	.
8r	8ddJ 8b-\	.	.	.	.	8B-\	rze-	8d\	rze-	.	.
8F\L	8ffL 8dd\	.	.	.	.	4d\	-brze-	8f\	-brze-	.	.
8A\	8ee- 8cc\	.	.	.	.	.	.	8e-\	-my	.	.
8c\J	8cccJ 8ee-\	.	.	.	.	8c\	-my	8r	.	.	.
=39	=39	=39	=39	=39	=39	=39	=39	=39	=39	=39	=39
*	*	*	*	*	*	*	*ij	*	*	*	*
4F\	4ee- 4cc\	.	.	.	.	4c\	Racz	4e-\	Racz	.	.
8r	8cc 8a\	.	.	.	.	8A\	nam	8c\	nam	.	.
4FF/	8ee-L 8cc\	.	.	.	.	8c\	te-	8e-\	te-	.	.
.	8ee- 8cc\	.	.	.	.	8c\	-dy	8e-\	-dy	.	.
8r	8ccJ 8a\	.	.	.	.	8A\	dac	8c\	dac	.	.
=40	=40	=40	=40	=40	=40	=40	=40	=40	=40	=40	=40
4F\	8ee-L 8cc\	.	.	.	.	8c\	O	8e-\	o	.	.
.	8ee- 8cc\	.	.	.	.	8c\	co	8e-\	co	.	.
8r	8ccJ 8a\	.	.	.	.	8A\	rze-	8c\	rze-	.	.
8BB-/L	8ee-L 8cc\	.	.	.	.	8c\	-brze-	8e-\	-brze-	.	.
8D/	8dd 8b-\	.	.	.	.	8B-\	-my	8d\	-my	.	.
*	*	*	*	*	*	*	*Xij	*	*	*	*
8F/J	8bb-J 8dd\	.	.	.	.	8r	.	8r	.	.	.
!	!	!	!	!	!	!LO:LB:g=original	!	!	!	!	!
=41	=41	=41	=41	=41	=41	=41	=41	=41	=41	=41	=41
!	!	!LO:N:vis=00	!	!LO:N:vis=00	!	!LO:N:vis=00	!	!LO:N:vis=00	!	!	!
8E-\L	4.gg\	0.r	.	0.r	.	0.r	.	0.r	.	4.gg\	lu-
8E-\	.	.	.	.	.	.	.	.	.	.	.
8E-\J	.	.	.	.	.	.	.	.	.	.	.
*tremolo	*	*	*	*	*	*	*	*	*	*	*
8E-\L	4ee-\	.	.	.	.	.	.	.	.	4ee-\	-bos-
8E-\	.	.	.	.	.	.	.	.	.	.	.
8E-\J	8cc\	.	.	.	.	.	.	.	.	8cc\	-my
*Xtremolo	*	*	*	*	*	*	*	*	*	*	*
=42	=42	=42	=42	=42	=42	=42	=42	=42	=42	=42	=42
!	!LO:TX:t=P:problem=mixed beam	!	!	!	!	!	!	!	!	!	!
8F\L	8a/L	.	.	.	.	.	.	.	.	8a\L	nie
8G\	8ff 8dd\	.	.	.	.	.	.	.	.	8ff\	za-
8A\J	8ee-J 8cc\	.	.	.	.	.	.	.	.	8ee-\J	-słu-
!LO:TX:t=P:problem=mixed beam	!	!	!	!	!	!	!	!	!	!	!
8B-\L	8ee-L 8cc\	.	.	.	.	.	.	.	.	8ee-\L	-zy-
8BB-/J	8ddJ 8b-\	.	.	.	.	.	.	.	.	8dd\J	-li
8r	8r	.	.	.	.	.	.	.	.	8r	.
!LO:LB:g=original	!LO:LB:g=original	!	!	!	!	!	!	!	!	!	!
=43	=43	=43	=43	=43	=43	=43	=43	=43	=43	=43	=43
*	*	*	*	*	*	*	*	*	*	*	*ij
8E-\L	4.gg\	.	.	.	.	.	.	.	.	4.gg\	lu-
8E-\	.	.	.	.	.	.	.	.	.	.	.
8E-\J	.	.	.	.	.	.	.	.	.	.	.
*tremolo	*	*	*	*	*	*	*	*	*	*	*
8E-\L	4ee-\	.	.	.	.	.	.	.	.	4ee-\	-bos-
8E-\	.	.	.	.	.	.	.	.	.	.	.
8E-\J	8cc\	.	.	.	.	.	.	.	.	8cc\	-my
*Xtremolo	*	*	*	*	*	*	*	*	*	*	*
=44	=44	=44	=44	=44	=44	=44	=44	=44	=44	=44	=44
!	!LO:TX:t=P:problem=mixed beam	!	!	!	!	!	!	!	!	!	!
8F\L	8a/L	.	.	.	.	.	.	.	.	8a\L	nie
8G\	8ff 8dd\	.	.	.	.	.	.	.	.	8ff\	za-
8A\J	8ee-J 8cc\	.	.	.	.	.	.	.	.	8ee-\J	-słu-
!LO:TX:t=P:problem=mixed beam	!	!	!	!	!	!	!	!	!	!	!
8B-\L	8ee-L 8cc\	.	.	.	.	.	.	.	.	8ee-\L	-zy-
8BB-/J	8ddJ 8b-\	.	.	.	.	.	.	.	.	8dd\J	-li
*	*	*	*	*	*	*	*	*	*	*	*Xij
8r	8r	.	.	.	.	.	.	.	.	8r	.
!	!	!	!	!	!	!	!	!LO:LB:g=original	!	!LO:LB:g=original	!
=45	=45	=45	=45	=45	=45	=45	=45	=45	=45	=45	=45
8F\L	8f/L	8f/L	f	8f/L	f	8F\	Kto-	8F/	Kto-	8f\	Kto-
8F\	8f/	8f/	.	8f/	.	8F\	-rys	8F/	-rys	8f\	-rys
8F\J	8f/J	8f/J	.	8f/J	.	8F\	nas	8F/	nas	8f\	nas
8F\L	8f/L	8f/L	.	8f/L	.	8F\	z ni-	8F/	z ni-	8f\	z ni-
8G\	8g/	8g/	.	8g/	.	8G\	-cze-	8G/	-cze-	8g\	-cze-
8A\J	8a/J	8a/J	.	8a/J	.	8A\	-go	8A/	-go	8a\	-go
=46	=46	=46	=46	=46	=46	=46	=46	=46	=46	=46	=46
4.B-\	4.b-/	4.b-/	.	4.b-/	.	4.B-\	stwo-	4.B-/	stwo-	4.b-\	stwo-
8G\	4g/	4g/	.	4.g/	.	4G\	-rzył	8G/	-rzył	4g\	-rzył
8r	.	.	.	.	.	.	.	8r	.	.	.
8r	8r	8r	.	.	.	8r	.	8r	.	8r	.
=47	=47	=47	=47	=47	=47	=47	=47	=47	=47	=47	=47
*	*	*	*	*	*	*	*ij	*	*ij	*	*ij
8G\L	8g/L	8g/L	.	8g/L	.	8G\	Kto-	8G/	Kto-	8g\	Kto-
8G\	8g/	8g/	.	8g/	.	8G\	-rys	8G/	-rys	8g\	-rys
8G\J	8g/J	8g/J	.	8g/J	.	8G\	nas	8G/	nas	8g\	nas
8G\L	8g/L	8g/L	.	8g/L	.	8G\	z ni-	8G/	z ni-	8g\	z ni-
8A\	8a/	8a/	.	8a/	.	8A\	-cze-	8A/	-cze-	8a\	-cze-
8B-\J	8b-/J	8b-/J	.	8b-/J	.	8B-\	-go	8B-/	-go	8b-\	-go
=48	=48	=48	=48	=48	=48	=48	=48	=48	=48	=48	=48
4.c\	4.cc/	4.cc/	.	4.cc/	.	4.c\	stwo-	4.c/	stwo-	4.cc\	stwo-
4A\	4a/	4.a/	.	4.a/	.	4A\	-rzył	8A/	-rzył	4a\	-rzył
*	*	*	*	*	*	*	*Xij	*	*Xij	*	*
.	.	.	.	.	.	.	.	8r	.	.	.
8r	8r	.	.	.	.	8r	.	8r	.	8r	.
!	!	!	!	!	!	!	!	!	!	!LO:LB:g=original	!
=49	=49	=49	=49	=49	=49	=49	=49	=49	=49	=49	=49
4.F\	8f/L	4f/	.	8f/L	pp	2.r	.	2.r	.	8f\	Kto-
.	8g/	.	.	8g/	.	.	.	.	.	8g\	-rys
.	8a/J	8r	.	8a/J	.	.	.	.	.	8a\	nas
!LO:N:vis=2	!	!LO:N:vis=2	!	!	!	!	!	!	!	!	!
4.r	8b-\L	4.r	.	8b-\L	.	.	.	.	.	8b-\	z ni-
.	8cc 8a\	.	.	8cc\	.	.	.	.	.	8cc\	-cze-
.	8dd 8b-\J	.	.	8dd\J	.	.	.	.	.	8dd\	-go
!LO:LB:g=original	!LO:LB:g=original	!	!	!	!	!	!	!	!	!	!
=50	=50	=50	=50	=50	=50	=50	=50	=50	=50	=50	=50
!	!	!	!LO:DY:B:i:t=pp.	!	!	!	!	!	!	!	!
8F\L	4.ee- 4.cc\	4cc\	pp	4ee-\	.	8F\L	Stwo-	4.c\	stwo-	4.ee-\	stwo-
8G\	.	.	.	.	.	8G\	.	.	.	.	.
8A\J	.	8cc\	.	8aa\	.	8A\J	.	.	.	.	.
!	!	!LO:LB:g=original	!	!	!	!	!	!	!	!	!
8B-\L	4dd 4b-\	8dd\L	.	8bb-\L	.	4.B-\	-rzył	8B-\	-rzył	4dd\	-rzył
*	*	*	*	*	*	*	*	*	*	*	*Xij
8c\	.	8dd\	.	8ff\	.	.	.	8r	.	.	.
8d\J	8r	8b-\J	.	8dd\J	.	.	.	8r	.	8r	.
!	!	!	!	!	!	!	!	!LO:LB:g=original	!	!	!
=51	=51	=51||:	=51	=51	=51	=51||:	=51	=51	=51	=51	=51
!	!	!	!	!	!	!	!	!	!	!LO:TX:t=P:problem=8ff poprawione na 8gg	!
!	!	!	!	!	!	!	!	!	!	!LO:TX:b:t=g	!
8e-\L	8ggL 8ee-\	8e-/L	.	8gg\L	.	8c\	a-	8e-\	a-	8gg\	a-
!	!	!	!	!	!	!	!	!	!	!LO:TX:t=P:problem=8ff poprawione na 8gg	!
!	!	!	!	!	!	!	!	!	!	!LO:TX:b:t=g	!
8e-\	8gg 8ee-\	8e-/	.	8ee-\	.	8c\	-bys-	8e-\	-bys-	8gg\	-bys-
!	!	!	!	!	!	!	!	!	!	!LO:TX:t=P:problem=8ff poprawione na 8gg	!
!	!	!	!	!	!	!	!	!	!	!LO:TX:b:t=g	!
8e-\J	8ggJ 8ee-\	8e-/J	.	8cc\J	.	8c\	-my	8e-\	-my	8gg\	-my
!	!	!	!	!	!	!	!	!	!	!LO:TX:t=P:problem=8gg poprawione na 8aa	!
8f\L	8aaL 8cc\	8f/L	.	8aa\L	.	8F\	cie-	8c\	cie-	8aa\	cie-
!	!	!	!	!	!	!	!	!	!	!LO:TX:t=P:problem=8ff poprawione na 8gg	!
8f\	8aa 8cc\	8f/	.	8ee-\	.	8F\	-bie	8c\	-bie	8aa\	-bie
!	!	!	!	!	!	!	!	!	!	!LO:TX:t=P:problem=8ff poprawione na 8gg	!
8f\J	8aaJ 8cc\	8f/J	.	8cc\J	.	8F\	pro-	8c\	pro-	8aa\	pro-
!	!	!	!	!	!	!LO:LB:g=original	!	!	!	!	!
=52	=52	=52	=52	=52	=52	=52	=52	=52	=52	=52	=52
!	!	!	!	!LO:N:vis=4.	!	!	!	!	!	!	!
8g\L	4bb- 4dd\	8g/L	.	4bb-\	.	4.B-\	-si-	4d\	-si-	(4bb-\	-si-
8g\	.	8g/	.	.	.	.	.	.	.	.	.
8g\J	8gg 8ee-\	8g/J	.	8gg\	.	.	.	8e-\	.	8gg\)	.
!	!	!	!	!	!	!	!	!	!	!LO:LB:g=original	!
!	!	!	!	!	!	!	!	!	!	!LO:TX:b:t=f	!
8d\L	4ff 4dd\	8d/L	.	8ff\L	.	4B-\	-li	4d\	-li	4ff\	-li
8d\	.	8d/	.	8dd\	.	.	.	.	.	.	.
8d\J	8r	8d/J	.	8b-\J	.	8r	.	8r	.	8r	.
!	!	!	!	!LO:LB:g=original	!	!	!	!	!	!	!
=53	=53	=53:||	=53	=53	=53	=53:||	=53	=53	=53	=53	=53
*	*	*	*	*	*	*	*	*	*ij	*	*ij
!	!	!	!	!	!	!	!	!	!	!LO:TX:t=P:problem=8ff poprawione na 8gg	!
!	!	!LO:TX:t=P:problem=t. 53-54 zapisane repetycją	!	!	!	!LO:TX:t=P:problem=t. 53-54 zapisane repetycją	!	!	!	!LO:TX:b:t=g	!
8e-\L	8ggL 8ee-\	8e-/Lyy	.	8gg\L	.	8c\yy	a-	8e-\	a-	8gg\	a-
!	!	!	!	!	!	!	!	!	!	!LO:TX:t=P:problem=8ff poprawione na 8gg	!
!	!	!	!	!	!	!	!	!	!	!LO:TX:b:t=g	!
8e-\	8gg 8ee-\	8e-/yy	.	8ee-\	.	8c\yy	-bys-	8e-\	-bys-	8gg\	-bys-
!	!	!	!	!	!	!	!	!	!	!LO:TX:t=P:problem=8ff poprawione na 8gg	!
!	!	!	!	!	!	!	!	!	!	!LO:TX:b:t=g	!
8e-\J	8ggJ 8ee-\	8e-/Jyy	.	8cc\J	.	8c\yy	-my	8e-\	-my	8gg\	-my
!	!	!	!	!	!	!	!	!	!	!LO:SIC:v:s=8aa\	!
8f\L	8aaL 8cc\	8f/Lyy	.	8aa\L	.	8F\yy	cie-	8c\	cie-	8gg\	cie-
!	!	!	!	!	!	!	!	!	!	!LO:SIC:v:s=8aa\	!
8f\	8aa 8cc\	8f/yy	.	8ee-\	.	8F\yy	-bie	8c\	-bie	8gg\	-bie
!	!	!	!	!	!	!	!	!	!	!LO:SIC:v:s=8aa\	!
8f\J	8aaJ 8cc\	8f/Jyy	.	8cc\J	.	8F\yy	pro-	8c\	pro-	8gg\	pro-
=54	=54	=54	=54	=54	=54	=54	=54	=54	=54	=54	=54
8g\L	4bb- 4dd\	8g/Lyy	.	4bb-\	.	4.B-\yy	-si-	4d\	-si-	4bb-\	-si-
8g\	.	8g/yy	.	.	.	.	.	.	.	.	.
8g\J	8gg 8ee-\	8g/Jyy	.	8gg\	.	.	.	8e-\	.	8gg\	.
8d\L	4ff 4dd\	8d/Lyy	.	8ff\L	.	4B-\yy	-li	4d\	-li	4ff\	-li
*	*	*	*	*	*	*	*	*	*	*	*Xij
8d\	.	8d/yy	.	8dd\	.	.	.	.	.	.	.
8d\J	8r	8d/Jyy	.	8b-\J	.	8ryy	.	8r	.	8r	.
=55	=55	=55	=55	=55	=55	=55	=55	=55	=55	=55	=55
*	*	*	*	*	*	*	*ij	*	*	*	*
!	!	!	!	!	!	!	!	!	!	!LO:TX:t=P:problem=8ff poprawione na 8gg	!
!	!	!	!	!	!	!	!	!	!	!LO:TX:b:t=g	!
8e-\L	8ggL 8ee-\	8e-/L	.	8gg\L	.	8c\	a-	8e-\	a-	8gg\	a-
!	!	!	!	!	!	!	!	!	!	!LO:TX:t=P:problem=8ff poprawione na 8gg	!
!	!	!	!	!	!	!	!	!	!	!LO:TX:b:t=g	!
8e-\	8gg 8ee-\	8e-/	.	8ee-\	.	8c\	-bys-	8e-\	-bys-	8gg\	-bys-
!	!	!	!	!	!	!	!	!	!	!LO:TX:t=P:problem=8ff poprawione na 8gg	!
!	!	!	!	!	!	!	!	!	!	!LO:TX:b:t=g	!
8e-\J	8ggJ 8ee-\	8e-/J	.	8cc\J	.	8c\	-my	8e-\	-my	8gg\	-my
!LO:LB:g=original	!LO:LB:g=original	!	!	!	!	!	!	!	!	!	!
!	!LO:TX:t=P:problem=mixed beam	!	!	!	!	!	!	!LO:LB:g=original	!	!LO:TX:t=P:problem=8ff poprawione na 8gg	!
8f\L	8ggL 8ee-\	8f/L	.	8ee-\L	.	8A\	cie-	8e-\	cie-	8gg\	cie-
!	!	!	!	!	!	!	!	!	!	!LO:TX:t=P:problem=8ee- poprawione na 8ff	!
8f\	8ff 8dd\	8f/	.	8cc\	.	8B-\	-bie	8d\	-bie	8ff\	-bie
8f\J	8aJ 8c/	8f/J	.	8a\J	.	8F\	pro-	8c\	pro-	8a\	pro-
=56	=56	=56	=56	=56	=56	=56	=56	=56	=56	=56	=56
8B-\L	4.cc 4.e-\	8b-\L	.	8b-\L	.	4.F\	-si-	4.e-\	-si-	4.cc\	-si-
8F\	.	8f\	.	8f\	.	.	.	.	.	.	.
8D\J	.	8d\J	.	8d\J	.	.	.	.	.	.	.
4BB-/	4b- 4d\	4B-/	.	4B-/	.	4BB-/	-li	8d\	-li	4b-\	-li
*	*	*	*	*	*	*	*Xij	*	*Xij	*	*
.	.	.	.	.	.	.	.	8r	.	.	.
!	!	!	!	!	!	!LO:TX:b:t=finis	!	!	!	!	!
8ryy	8r	8r	.	8r	.	8r	.	8r	.	8r	.
!	!	!	!	!	!	!LO:TX:t=P:problem=dwie kreski taktowe	!	!	!	!LO:PB:g=original	!
=57	=57	=57	=57	=57	=57	=57||:;	=57	=57||;	=57	=57	=57
!LO:TX:t=P:problem=mixed beam	!	!LO:N:vis=00	!	!LO:N:vis=00	!	!	!	!	!	!	!
8C/L	4a 4f/	0.r	.	0.r	.	4F\	Racz	4c\	Racz	4a\	Racz
8c\	.	.	.	.	.	.	.	.	.	.	.
8c\J	8a 8f/	.	.	.	.	8F\	na(m)	8c\	nam	8a\	nam
8c\L	8aL 8f/	.	.	.	.	8F\	te-	8c\	te-	8a\	te-
!	!	!	!	!	!	!LO:SIC:v:s=8En\	!	!	!	!	!
8c\	8g 8en/	.	.	.	.	8E-\	-dy	8c\	-dy	8g\	-dy
8c\J	8aJ 8f/	.	.	.	.	8F\	dac	8c\	dac	8a\	dac
=58	=58	=58	=58	=58	=58	=58	=58	=58	=58	=58	=58
*	*	*	*	*	*	*	*ij	*	*	*	*ij
!LO:TX:t=P:problem=mixed beam	!	!	!	!	!	!	!	!	!	!	!
!LO:SIC:v:s=8BB-/L	!	!	!	!	!	!	!	!	!	!	!
8AA/L	4b- 4g/	.	.	.	.	4G\	Racz	4c\	O	4b-\	Racz
8c\	.	.	.	.	.	.	.	.	.	.	.
8c\J	8b- 8g/	.	.	.	.	8G\	na(m)	8c\	co	8b-\	nam
8c\L	8b-L 8g/	.	.	.	.	8G\	te-	8c\	rze-	8b-\	te-
8c\	8a 8f/	.	.	.	.	8F\	-dy	8c\	-brze-	8a\	-dy
8c\J	8b-J 8g/	.	.	.	.	8G\	dac	8c\	-my	8b-\	dac
*	*	*	*	*	*	*	*Xij	*	*	*	*Xij
=59	=59	=59	=59	=59	=59	=59	=59	=59	=59	=59	=59
*	*	*	*	*	*	*	*	*	*ij	*	*
!LO:TX:t=P:problem=mixed beam	!	!	!	!	!	!	!	!	!	!	!
8AA/L	4a 4f/	.	.	.	.	4F\	o	4c\	O	4a\	O
8c\	.	.	.	.	.	.	.	.	.	.	.
8c\J	8a 8f/	.	.	.	.	8F\	co	8c\	co	8a\	co
8c\L	4b- 4g/	.	.	.	.	4G\	rze-	4c\	rze-	4b-\	rze-
8c\	.	.	.	.	.	.	.	.	.	.	.
8c\J	8a 8f/	.	.	.	.	8F\	-brze-	8c\	-brze-	8a\	-brze-
!	!	!	!	!	!	!LO:LB:g=original	!	!	!	!	!
=60	=60	=60	=60	=60	=60	=60	=60	=60	=60	=60	=60
!LO:TX:t=P:problem=mixed beam	!	!	!	!	!	!LO:SIC:v:s=4.En\	!	!	!	!	!
8C/L	4.g 4.en/	.	.	.	.	4.E-\	-my	4c\	-my	4.g\	-my
*	*	*	*	*	*	*	*	*	*Xij	*	*
8c\	.	.	.	.	.	.	.	.	.	.	.
!	!	!	!	!	!	!	!	!LO:TX:t=P:problem=4r poprawione na 8r	!	!	!
8c\J	.	.	.	.	.	.	.	8r	.	.	.
*tremolo	*	*	*	*	*	*	*	*	*	*	*
!	!LO:N:vis=2	!	!	!	!	!LO:N:vis=2	!	!LO:N:vis=2	!	!LO:N:vis=2	!
8c\L	4.r	.	.	.	.	4.r	.	4.r	.	4.r	.
8c\	.	.	.	.	.	.	.	.	.	.	.
8c\J	.	.	.	.	.	.	.	.	.	.	.
*Xtremolo	*	*	*	*	*	*	*	*	*	*	*
!	!	!	!	!	!	!	!	!LO:LB:g=original	!	!LO:LB:g=original	!
=61	=61	=61	=61	=61	=61	=61:||	=61	=61	=61	=61	=61
!LO:TX:t=P:problem=mixed beam	!	!LO:N:vis=00	!	!LO:N:vis=00	!	!LO:TX:t=P:problem=t. 61-64 zapisane repetycją	!	!	!	!	!
8C/L	4a 4f/	0.r	.	0.r	.	4F\yy	Racz	4c\	Racz	4a\	Racz
8c\	.	.	.	.	.	.	.	.	.	.	.
8c\J	8a 8f/	.	.	.	.	8F\yy	na(m)	8c\	nam	8a\	nam
*tremolo	*	*	*	*	*	*	*	*	*	*	*
8c\L	8aL 8f/	.	.	.	.	8F\yy	te-	8c\	te-	8a\	te-
!	!	!	!	!	!	!LO:SIC:v:s=8En\yy	!	!	!	!	!
8c\	8g 8en/	.	.	.	.	8E-\yy	-dy	8c\	-dy	8g\	-dy
8c\J	8aJ 8f/	.	.	.	.	8F\yy	dac	8c\	dać	8a\	dac
*Xtremolo	*	*	*	*	*	*	*	*	*	*	*
!LO:LB:g=original	!LO:LB:g=original	!	!	!	!	!	!	!	!	!	!
=62	=62	=62	=62	=62	=62	=62	=62	=62	=62	=62	=62
*	*	*	*	*	*	*	*ij	*	*	*	*ij
!LO:TX:t=P:problem=mixed beam	!	!	!	!	!	!	!	!	!	!	!
!LO:SIC:v:s=8BB-/L	!	!	!	!	!	!	!	!	!	!	!
8AA/L	4b- 4g/	.	.	.	.	4G\yy	Racz	4c\	O	4b-\	Racz
8c\	.	.	.	.	.	.	.	.	.	.	.
8c\J	8b- 8g/	.	.	.	.	8G\yy	na(m)	8c\	co	8b-\	nam
8c\L	8b-L 8g/	.	.	.	.	8G\yy	te-	8c\	rze-	8b-\	te-
8c\	8a 8f/	.	.	.	.	8F\yy	-dy	8c\	-brze-	8a\	-dy
8c\J	8b-J 8g/	.	.	.	.	8G\yy	dac	8c\	-my	8b-\	dac
*	*	*	*	*	*	*	*Xij	*	*	*	*Xij
=63	=63	=63	=63	=63	=63	=63	=63	=63	=63	=63	=63
*	*	*	*	*	*	*	*	*	*ij	*	*
!LO:TX:t=P:problem=mixed beam	!	!	!	!	!	!	!	!	!	!	!
8AA/L	4a 4f/	.	.	.	.	4F\yy	O	4c\	O	4a\	O
8c\	.	.	.	.	.	.	.	.	.	.	.
8c\J	8a 8f/	.	.	.	.	8F\yy	co	8c\	co	8a\	co
8c\L	4b- 4g/	.	.	.	.	4G\yy	rze-	4c\	rze-	4b-\	rze-
8c\	.	.	.	.	.	.	.	.	.	.	.
8c\J	8a 8f/	.	.	.	.	8F\yy	-brze-	8c\	-brze-	8a\	-brze-
=64	=64	=64	=64	=64	=64	=64	=64	=64	=64	=64	=64
!LO:TX:t=P:problem=mixed beam	!	!	!	!	!	!LO:SIC:v:s=4.En\yy	!	!	!	!	!
8C/L	4.g 4.en/	.	.	.	.	4.E-\yy	-my	4c\	-my	4.g\	-my
*	*	*	*	*	*	*	*	*	*Xij	*	*
8c\	.	.	.	.	.	.	.	.	.	.	.
8c\J	.	.	.	.	.	.	.	8r	.	.	.
*tremolo	*	*	*	*	*	*	*	*	*	*	*
!	!LO:N:vis=2	!	!	!	!	!LO:N:vis=2	!	!LO:N:vis=2	!	!LO:N:vis=2	!
8c\L	4.r	.	.	.	.	4.ryy	.	4.r	.	4.r	.
8c\	.	.	.	.	.	.	.	.	.	.	.
8c\J	.	.	.	.	.	.	.	.	.	.	.
*Xtremolo	*	*	*	*	*	*	*	*	*	*	*
!	!	!	!	!	!	!	!	!	!	!LO:LB:g=original	!
=65	=65	=65	=65	=65	=65	=65	=65	=65	=65	=65	=65
*	*	*	*	*	*	*clefC3	*	*	*	*	*
8c\L	8cc\L	8cc\L	f	8cc\L	f	8c\	Kto-	8c\	Kto-	8cc\	Kto-
8c\	8cc\	8cc\	.	8cc\	.	8c\	-rys	8c\	-rys	8cc\	-ris
8c\J	8cc\J	8cc\J	.	8cc\J	.	8c\	nas	8c\	nas	8cc\	nas
8c\L	8cc\L	8cc\L	.	8cc\L	.	8c\	z ni-	8c\	z ni-	8cc\	z ni-
8d\	8dd\	8dd\	.	8dd\	.	8d\	-cze-	8d\	-cze-	8dd\	-cze-
!LO:SIC:v:s=8en\J	!	!	!	!	!	!LO:SIC:v:s=8en\	!	!	!	!	!
8e-\J	8een\J	8een\J	.	8een\J	.	8e-\	-go	8en\	-go	8een\	-go
=66	=66	=66	=66	=66	=66	=66	=66	=66	=66	=66	=66
4.f\	4.ff\	4.ff\	.	4.ff\	.	4.f\	stwo-	4.f\	stwo-	4.ff\	stwo-
8d\	8dd\	4dd\	.	4.dd\	.	4d\	-rzył	8d\	-rzył	8dd\	-rzył
8r	8r	.	.	.	.	.	.	8r	.	4r	.
8r	8r	8r	.	.	.	8r	.	8r	.	.	.
!	!	!	!	!	!	!	!	!LO:LB:g=original	!	!	!
=67	=67	=67	=67	=67	=67	=67	=67	=67	=67	=67	=67
*	*	*	*	*	*	*	*ij	*	*ij	*	*ij
8d\L	8dd\L	8dd\L	.	8dd\L	.	8d\	Kto-	8d\	Kto-	8dd\	Kto-
8d\	8dd\	8dd\	.	8dd\	.	8d\	-rys	8d\	-rys	8dd\	-ris
8d\J	8dd\J	8dd\J	.	8dd\J	.	8d\	nas	8d\	nas	8dd\	nas
8d\L	8dd\L	8dd\L	.	8dd\L	.	8d\	z ni-	8d\	z ni-	8dd\	z ni-
!LO:SIC:v:s=8en\	!	!	!	!	!	!LO:SIC:v:s=8en\	!	!LO:SIC:v:s=8en\	!	!	!
8e-\	8een\	8een\	.	8een\	.	8e-\	-cze-	8e-\	-cze-	8een\	-cze-
8f\J	8ff\J	8ff\J	.	8ff\J	.	8f\	-go	8f\	-go	8ff\	-go
!LO:LB:g=original	!LO:LB:g=original	!	!	!	!	!	!	!	!	!	!
=68	=68	=68	=68	=68	=68	=68	=68	=68	=68	=68	=68
4.g\	4.gg\	4.gg\	.	4.gg\	.	4.g\	stwo-	4.g\	stwo-	4.gg\	stwo-
!LO:SIC:v:s=8en\	!LO:SIC:v:s=8een\	!	!	!LO:SIC:v:s=4.een\	!	!LO:SIC:v:s=4en\	!	!LO:SIC:v:s=8en\	!	!LO:SIC:v:s=8een\	!
8e-\	8ee-\	4een\	.	4.ee-\	.	4e-\	-rzył	8e-\	-rzył	8ee-\	-rzył
*	*	*	*	*	*	*	*Xij	*	*Xij	*	*
8r	8r	.	.	.	.	.	.	8r	.	4r	.
8r	8r	8r	.	.	.	8r	.	8r	.	.	.
!	!	!LO:LB:g=original	!	!	!	!	!	!	!	!LO:LB:g=original	!
=69	=69	=69	=69	=69	=69	=69	=69	=69	=69	=69	=69
4c\	8cc\L	4cc\	.	8cc\L	pp	2.r	.	2.r	.	8cc\	Kto-
.	8dd\	.	.	8dd\	.	.	.	.	.	8dd\	-ris
!	!LO:SIC:v:s=8een\J	!	!	!	!	!	!	!	!	!LO:SIC:v:s=8een\	!
8r	8ee-\J	8r	.	8een\J	.	.	.	.	.	8ee-\	nas
!LO:N:vis=2	!	!LO:N:vis=2	!	!	!	!	!	!	!	!	!
4.r	8ff\L	4.r	.	8ff\L	.	.	.	.	.	8ff\	z ni-
!	!LO:SIC:v:n=2:s=8een\	!	!	!	!	!	!	!	!	!	!
.	8gg 8ee-\	.	.	8gg\	.	.	.	.	.	8gg\	-cze-
.	8aaJ 8ff\	.	.	8aa\J	.	.	.	.	.	8aa\	-go
=70	=70	=70	=70	=70	=70	=70	=70	=70	=70	=70	=70
8C\L	4.bb- 4.gg\	8cc\L	pp	4.bb-\	.	8c\L	Stwo-	4.g\	Stwo-	4.bb-\	stwo-
8D\	.	8dd\	.	.	.	8d\	.	.	.	.	.
!LO:SIC:v:s=8En\J	!	!	!	!	!	!LO:SIC:v:s=8en\J	!	!	!	!	!
8E-\J	.	8een\J	.	.	.	8e-\J	.	.	.	.	.
8F\L	4.aa 4.ff\	4.ff\	.	4.aa\	.	4.f\	-rzył	4.f\	-rzył	4.aa\	-rzył
*	*	*	*	*	*	*	*	*	*	*	*Xij
8G\	.	.	.	.	.	.	.	.	.	.	.
8A\J	.	.	.	.	.	.	.	.	.	.	.
!	!	!	!	!	!	!LO:LB:g=original	!	!	!	!	!
=71	=71	=71	=71	=71	=71	=71	=71	=71	=71	=71	=71
!	!	!	!	!	!	!	!	!	!	!LO:TX:t=P:problem=8ff poprawione na 8gg	!
!	!	!	!	!	!	!	!	!	!	!LO:TX:b:t=g	!
8B-\L	8ggL 8dd\	8b-\L	.	8gg\L	.	8B-/	Kto-	8d\	a-	8gg\	a-
!	!	!	!	!	!	!	!	!	!	!LO:TX:t=P:problem=8ff poprawione na 8gg	!
!	!	!	!	!	!	!	!	!	!	!LO:TX:b:t=g	!
8B-\	8gg 8dd\	8b-\	.	8aa\	.	8B-/	-rys	8d\	-bys-	8gg\	-bys-
!	!	!	!	!	!	!	!	!	!	!LO:TX:t=P:problem=8ff poprawione na 8gg	!
!	!	!	!	!	!	!	!	!	!	!LO:TX:b:t=g	!
8B-\J	8ggJ 8dd\	8b-\J	.	8bb-\J	.	8B-/	nas	8d\	-my	8gg\	-my
8c\L	8eenL 8b-\	8cc\L	.	8een\L	.	8c/	z ni-	8B-\	cie-	8een\	cie-
8c\	8ee 8b-\	8cc\	.	8gg\	.	8c/	-cze-	8B-\	-bie	8ee\	-bie
8c\J	8eeJ 8b-\	8cc\J	.	8ee\J	.	8c/	-go	8B-\	pro-	8ee\	pro-
=72	=72	=72	=72	=72	=72	=72	=72	=72	=72	=72	=72
*tremolo	*	*	*	*	*	*	*	*	*	*	*
8d\L	4ff 4a\	8dd\L	.	4ff\	.	4.d/	stwo-	(4A\	-si-	4ff\	-si-
8d\	.	8dd\	.	.	.	.	.	.	.	.	.
8d\J	8gg 8b-\	8dd\J	.	8gg\	.	.	.	8B-\)	.	8gg\	.
!	!	!	!	!LO:LB:g=original	!	!	!	!	!	!	!
8A\L	4aa 4cc\	8a/L	.	4aa\	.	4A/	-rzył	4c\	-li	4aa\	-li
8A\	.	8a/	.	.	.	.	.	.	.	.	.
8A\J	8r	8a/J	.	8r	.	8r	.	8r	.	8r	.
!	!	!	!	!	!	!	!	!LO:PB:g=original	!	!LO:LB:g=original	!
=73	=73	=73	=73	=73	=73	=73	=73	=73	=73	=73	=73
*	*	*	*	*	*	*	*ij	*	*	*	*ij
8B-\L	8ggL 8dd\	8b-\L	.	8gg\L	.	8B-/	Kto-	8d\	a-	8gg\	a-
8B-\	8gg 8dd\	8b-\	.	8aa\	.	8B-/	-rys	8d\	-bys-	8gg\	-bys-
8B-\J	8ggJ 8dd\	8b-\J	.	8bb-\J	.	8B-/	nas	8d\	-my	8gg\	-my
8c\L	8eenL 8b-\	8cc\L	.	8een\L	.	8c/	z ni-	8B-\	Cie-	8een\	cie-
8c\	8ee 8b-\	8cc\	.	8gg\	.	8c/	-cze-	8B-\	-bie	8ee\	-bie
!	!	!LO:N:vis=8	!	!	!	!	!	!	!	!	!
8c\J	8eeJ 8b-\	16cc\J	.	8ee\J	.	8c/	-go	8B-\	pro-	8ee\	pro-
!	!	!LO:TX:t=P:problem=zbędna 8r	!	!	!	!	!	!	!	!	!
!	!	!LO:N:vis=8	!	!	!	!	!	!	!	!	!
.	.	16r	.	.	.	.	.	.	.	.	.
*Xtremolo	*	*	*	*	*	*	*	*	*	*	*
!LO:LB:g=original	!LO:LB:g=original	!	!	!	!	!	!	!	!	!	!
=74	=74	=74	=74	=74	=74	=74	=74	=74	=74	=74	=74
8F\L	4ff 4a\	8a/L	.	8ff\L	.	4c/	stwo-	4A\	-si-	4ff\	-si-
8A\	.	8cc/	.	8cc\	.	.	.	.	.	.	.
8c\J	8aa 8cc\	8a/J	.	8a\J	.	8A/	.	8c\	.	8aa\	.
4f\	4ff 4a\	4f/	.	4f/	.	4F/	-rzył	4A\	-li	4ff\	-li
*	*	*	*	*	*	*	*Xij	*	*	*	*Xij
8r	8r	8r	.	8r	.	8r	.	8r	.	8r	.
=75	=75	=75	=75	=75	=75	=75||:	=75	=75	=75	=75	=75
*	*	*	*	*	*	*clefF4	*	*	*	*	*
!LO:TX:t=P:problem=mixed beam	!	!LO:N:vis=00	!	!LO:N:vis=00	!	!	!	!LO:TX:a:t=Solo	!	!	!
8C/L	4ff 4a\	0.r	.	0.r	.	4c\	Racz	4A\	Racz	4ff\	Racz
8c\	.	.	.	.	.	.	.	.	.	.	.
8c\J	8ff 8a\	.	.	.	.	8c\	na(m)	8A\	nam	8ff\	nam
*tremolo	*	*	*	*	*	*	*	*	*	*	*
8c\L	8ffL 8a\	.	.	.	.	8c\	te-	8A\	te-	8ff\	te-
!	!LO:SIC:v:n=1:s=8een	!	!	!	!	!	!	!	!	!LO:SIC:v:s=8een\	!
8c\	8ee- 8g\	.	.	.	.	8c\	-dy	8G\	-dy	8ee-\	-dy
8c\J	8ffJ 8a\	.	.	.	.	8c\	dac	8A\	dac	8ff\	dac
*Xtremolo	*	*	*	*	*	*	*	*	*	*	*
=76	=76	=76	=76	=76	=76	=76:||	=76	=76	=76	=76	=76
*	*	*	*	*	*	*	*	*	*	*	*ij
!LO:TX:t=P:problem=mixed beam	!	!	!	!	!	!LO:TX:t=P:problem=t. 76 zapisany repetycją	!	!	!	!	!
8C/L	4gg 4b-\	.	.	.	.	4c\yy	Racz	4B-\	O	4gg\	Racz
8c\	.	.	.	.	.	.	.	.	.	.	.
8c\J	8gg 8b-\	.	.	.	.	8c\yy	na(m)	8B-\	co	8gg\	nam
*tremolo	*	*	*	*	*	*	*	*	*	*	*
!	!	!	!	!	!	!	!	!	!	!LO:LB:g=original	!
8c\L	8ggL 8b-\	.	.	.	.	8c\yy	te-	8B-\	rze-	8gg\	te-
8c\	8ff 8a\	.	.	.	.	8c\yy	-dy	8A\	-brze-	8ff\	-dy
8c\J	8ggJ 8b-\	.	.	.	.	8c\yy	dac	8B-\	-my	8gg\	dac
*Xtremolo	*	*	*	*	*	*	*	*	*	*	*Xij
!	!	!	!	!	!	!	!	!LO:LB:g=original	!	!	!
=77	=77	=77	=77	=77	=77	=77	=77	=77	=77	=77	=77
*	*	*	*	*	*	*	*	*	*ij	*	*
!LO:TX:t=P:problem=mixed beam	!	!	!	!	!	!	!	!	!	!	!
8C/L	4ff 4a\	.	.	.	.	4c\	O	4A\	O	4ff\	O
8c\	.	.	.	.	.	.	.	.	.	.	.
8c\J	8ff 8a\	.	.	.	.	8c\	co	8A\	co	8ff\	co
*tremolo	*	*	*	*	*	*	*	*	*	*	*
!	!	!	!	!	!	!LO:LB:g=original	!	!	!	!	!
8c\L	4gg 4b-\	.	.	.	.	4c\	rze-	4B-\	rze-	4gg\	że-
8c\	.	.	.	.	.	.	.	.	.	.	.
8c\J	8ff 8a\	.	.	.	.	8c\	-brze-	8A\	-brze-	8ff\	-brze-
*Xtremolo	*	*	*	*	*	*	*	*	*	*	*
=78	=78	=78	=78	=78	=78	=78	=78	=78	=78	=78	=78
!LO:TX:t=P:problem=mixed beam	!LO:SIC:v:n=1:s=4een	!	!	!	!	!	!	!	!	!LO:SIC:v:s=4een\	!
8C/L	4ee- 4g\	.	.	.	.	4C/	-my	4G/	-my	4ee-\	-my
*	*	*	*	*	*	*	*	*	*Xij	*	*
8c\	.	.	.	.	.	.	.	.	.	.	.
8c\J	8r	.	.	.	.	8r	.	8r	.	8r	.
*tremolo	*	*	*	*	*	*	*	*	*	*	*
!	!LO:N:vis=2	!	!	!	!	!LO:N:vis=2	!	!LO:N:vis=2	!	!LO:N:vis=2	!
8c\L	4.r	.	.	.	.	4.r	.	4.r	.	4.r	.
8c\	.	.	.	.	.	.	.	.	.	.	.
8c\J	.	.	.	.	.	.	.	.	.	.	.
*Xtremolo	*	*	*	*	*	*	*	*	*	*	*
=79	=79	=79	=79	=79	=79	=79	=79	=79	=79	=79	=79
!LO:TX:t=P:problem=mixed beam	!	!LO:N:vis=00	!	!LO:N:vis=00	!	!	!	!	!	!	!
8C/L	4ff 4a\	0.r	.	0.r	.	4c\	Racz	4A\	Racz	4ff\	Racz
8c\	.	.	.	.	.	.	.	.	.	.	.
8c\J	8ff 8a\	.	.	.	.	8c\	na(m)	8A\	nam	8ff\	nam
*tremolo	*	*	*	*	*	*	*	*	*	*	*
8c\L	8ffL 8a\	.	.	.	.	8c\	te-	8A\	te-	8ff\	te-
!	!LO:SIC:v:n=1:s=8een	!	!	!	!	!	!	!	!	!LO:SIC:v:s=8een\	!
8c\	8ee- 8g\	.	.	.	.	8c\	-dy	8G\	-dy	8ee-\	-dy
8c\J	8ffJ 8a\	.	.	.	.	8c\	dac	8A\	dac	8ff\	dac
*Xtremolo	*	*	*	*	*	*	*	*	*	*	*
!LO:LB:g=original	!LO:LB:g=original	!	!	!	!	!	!	!	!	!	!
=80	=80	=80	=80	=80	=80	=80	=80	=80	=80	=80	=80
*	*	*	*	*	*	*	*ij	*	*	*	*ij
!LO:TX:t=P:problem=mixed beam	!	!	!	!	!	!	!	!	!	!	!
8C/L	4gg 4b-\	.	.	.	.	4c\	Racz	4B-\	O	4gg\	Racz
8c\	.	.	.	.	.	.	.	.	.	.	.
8c\J	8gg 8b-\	.	.	.	.	8c\	na(m)	8B-\	co	8gg\	nam
*tremolo	*	*	*	*	*	*	*	*	*	*	*
!	!	!	!	!	!	!	!	!	!	!LO:LB:g=original	!
8c\L	8ggL 8b-\	.	.	.	.	8c\	te-	8B-\	rze-	8gg\	te-
8c\	8ff 8a\	.	.	.	.	8c\	-dy	8A\	-brze-	8ff\	-dy
8c\J	8ggJ 8b-\	.	.	.	.	8c\	dac	8B-\	-my	8gg\	dac
*Xtremolo	*	*	*	*	*	*	*Xij	*	*	*	*Xij
=81	=81	=81	=81	=81	=81	=81	=81	=81	=81	=81	=81
*	*	*	*	*	*	*	*	*	*ij	*	*
!LO:TX:t=P:problem=mixed beam	!	!	!	!	!	!	!	!	!	!	!
8C/L	4ff 4a\	.	.	.	.	4c\	O	4A\	O	4ff\	O
8c\	.	.	.	.	.	.	.	.	.	.	.
8c\J	8ff 8a\	.	.	.	.	8c\	co	8A\	co	8ff\	co
*tremolo	*	*	*	*	*	*	*	*	*	*	*
8c\L	4gg 4b-\	.	.	.	.	4c\	rze-	4B-\	rze-	4gg\	ze-
8c\	.	.	.	.	.	.	.	.	.	.	.
8c\J	8ff 8a\	.	.	.	.	8c\	-brze-	8A\	-brze-	8ff\	-brze-
*Xtremolo	*	*	*	*	*	*	*	*	*	*	*
!	!	!	!	!	!	!	!	!LO:LB:g=original	!	!	!
=82	=82	=82	=82	=82	=82	=82	=82	=82	=82	=82	=82
!LO:TX:t=P:problem=mixed beam	!LO:SIC:v:n=1:s=4een	!	!	!	!	!	!	!	!	!LO:SIC:v:s=4een\	!
8C/L	4ee- 4g\	.	.	.	.	4C/	-my	4G/	-my	4ee-\	-my
*	*	*	*	*	*	*	*	*	*Xij	*	*
8c\	.	.	.	.	.	.	.	.	.	.	.
8c\J	8r	.	.	.	.	8r	.	8r	.	8r	.
*tremolo	*	*	*	*	*	*	*	*	*	*	*
!	!LO:N:vis=2	!	!	!	!	!LO:N:vis=2	!	!LO:N:vis=2	!	!LO:N:vis=2	!
8c\L	4.r	.	.	.	.	4.r	.	4.r	.	4.r	.
8c\	.	.	.	.	.	.	.	.	.	.	.
8c\J	.	.	.	.	.	.	.	.	.	.	.
*Xtremolo	*	*	*	*	*	*	*	*	*	*	*
=83	=83	=83	=83	=83	=83	=83	=83	=83	=83	=83	=83
*	*	*	*	*	*	*clefC3	*	*	*	*	*
8c\L	8cc\L	8cc\L	f	8cc\L	f	8c\	Kto-	8c\	Kto-	8cc\	Kto-
8c\	8cc\	8cc\	.	8cc\	.	8c\	-rys	8c\	-ris	8cc\	-rys
8c\J	8cc\J	8cc\J	.	8cc\J	.	8c\	nas	8c\	nas	8cc\	nas
8c\L	8cc\L	8cc\L	.	8cc\L	.	8c\	z ni-	8c\	z ni-	8cc\	z ni-
8d\	8dd\	8dd\	.	8dd\	.	8d\	-cze-	8d\	-cze-	8dd\	-cze-
!LO:SIC:v:s=8en\J	!LO:SIC:v:s=8een\J	!	!	!	!	!LO:SIC:v:s=8en\	!	!	!	!LO:SIC:v:s=8een\	!
8e-\J	8ee-\J	8een\J	.	8een\J	.	8e-\	-go	8en\	-go	8ee-\	-go
!	!	!	!	!	!	!LO:LB:g=original	!	!	!	!LO:LB:g=original	!
=84	=84	=84	=84	=84	=84	=84	=84	=84	=84	=84	=84
4.f\	4.ff\	4.ff\	.	4.ff\	.	4.f\	stwo-	4.f\	stwo-	4.ff\	stwo-
4d\	4dd\	4.dd\	.	4dd\	.	4d\	-rzył	8d\	-rzył	4dd\	-rzył
.	.	.	.	.	.	.	.	8r	.	.	.
8r	8r	.	.	8r	.	8r	.	8r	.	8r	.
=85	=85	=85	=85	=85	=85	=85	=85	=85	=85	=85	=85
*	*	*	*	*	*	*	*ij	*	*ij	*	*ij
8d\L	8dd\L	8dd\L	.	8dd\L	.	8d\	Kto-	8d\	Kto-	8dd\	Kto-
8d\	8dd\	8dd\	.	8dd\	.	8d\	-rys	8d\	-ris	8dd\	-rys
8d\J	8dd\J	8dd\J	.	8dd\J	.	8d\	nas	8d\	nas	8dd\	nas
8d\L	8dd\L	8dd\L	.	8dd\L	.	8d\	z ni-	8d\	z ni-	8dd\	z ni-
!LO:SIC:v:s=8en\	!LO:SIC:v:s=8een\	!	!	!	!	!LO:SIC:v:s=8en\	!	!LO:SIC:v:s=8en\	!	!LO:SIC:v:s=8een\	!
8e-\	8ee-\	8een\	.	8een\	.	8e-\	-cze-	8e-\	-cze-	8ee-\	-cze-
8f\J	8ff\J	8ff\J	.	8ff\J	.	8f\	-go	8f\	-go	8ff\	-go
!LO:LB:g=original	!LO:LB:g=original	!LO:LB:g=original	!	!	!	!	!	!	!	!	!
=86	=86	=86	=86	=86	=86	=86	=86	=86	=86	=86	=86
4.g\	4.gg\	4.gg\	.	4.gg\	.	4.g\	stwo-	4.g\	stwo-	4.gg\	stwo-
!LO:SIC:v:s=8en\	!LO:SIC:v:s=8een\	!	!	!LO:SIC:v:s=4een\	!	!LO:SIC:v:s=4en\	!	!LO:SIC:v:s=8en\	!	!LO:SIC:v:s=8een\	!
8e-\	8ee-\	4een\	.	4ee-\	.	4e-\	-rzył	8e-\	-rzył	8ee-\	-rzył
*	*	*	*	*	*	*	*Xij	*	*Xij	*	*
8r	8r	.	.	.	.	.	.	8r	.	4r	.
8r	8r	8r	.	8r	.	8r	.	8r	.	.	.
=87	=87	=87	=87	=87	=87	=87	=87	=87	=87	=87	=87
4c\	8cc\L	4cc\	.	8cc\L	pp	2.r	.	2.r	.	8cc\	Kto-
.	8dd\	.	.	8dd\	.	.	.	.	.	8dd\	-rys
!	!LO:SIC:v:s=8een\J	!	!	!	!	!	!	!	!	!LO:SIC:v:s=8een\	!
8r	8ee-\J	8r	.	8een\J	.	.	.	.	.	8ee-\	nas
!LO:N:vis=2	!	!LO:N:vis=2	!	!	!	!	!	!	!	!	!
4.r	8ff\L	4.r	.	8ff\L	.	.	.	.	.	8ff\	z ni-
!	!LO:SIC:v:n=2:s=8een\	!	!	!	!	!	!	!	!	!	!
.	8gg 8ee-\	.	.	8gg\	.	.	.	.	.	8gg\	-cze-
.	8aaJ 8ff\	.	.	8aa\J	.	.	.	.	.	8aa\	-go
=88	=88	=88	=88	=88	=88	=88	=88	=88	=88	=88	=88
8C/L	4.bb- 4.gg\	8cc\L	.	4.bb-\	.	8c\L	Stwo-	4.g\	stwo-	4.bb-\	stwo-
8D/	.	8dd\	.	.	.	8d\	.	.	.	.	.
!LO:SIC:v:s=8En/J	!	!	!	!	!	!LO:SIC:v:s=8en\J	!	!	!	!	!
8E-/J	.	8een\J	.	.	.	8e-\J	.	.	.	.	.
!	!	!	!	!	!	!	!	!LO:LB:g=original	!	!	!
8F\L	4aa 4ff\	4.ff\	.	4aa\	.	4.f\	-rzył	4.f\	-rzył	4aa\	-rzył
*	*	*	*	*	*	*	*	*	*	*	*Xij
8G\	.	.	.	.	.	.	.	.	.	.	.
8A\J	8r	.	.	8r	.	.	.	.	.	8r	.
!	!	!	!	!	!	!	!	!	!	!LO:LB:g=original	!
=89	=89	=89	=89	=89	=89	=89	=89	=89	=89	=89	=89
!	!	!	!	!	!	!	!	!	!	!LO:TX:t=P:problem=8ff poprawione na 8gg	!
!	!	!	!	!	!	!	!	!	!	!LO:TX:b:t=g	!
8B-\L	8ggL 8dd\	8b-\L	.	8gg\L	.	8B-/	a-	8d\	a-	8gg\	a-
!	!	!	!	!	!	!	!	!	!	!LO:TX:t=P:problem=8ff poprawione na 8gg	!
!	!	!	!	!	!	!	!	!	!	!LO:TX:b:t=g	!
8B-\	8gg 8dd\	8b-\	.	8aa\	.	8B-/	-bys-	8d\	-bys-	8gg\	-bys-
!	!	!	!	!	!	!	!	!	!	!LO:TX:t=P:problem=8ff poprawione na 8gg	!
!	!	!	!	!	!	!	!	!	!	!LO:TX:b:t=g	!
8B-\J	8ggJ 8dd\	8b-\J	.	8bb-\J	.	8B-/	-my	8d\	-my	8gg\	-my
8c\L	8eenL 8b-\	8cc\L	.	8een\L	.	8c/	cie	8B-\	cie-	8een\	cie-
8c\	8ee 8b-\	8cc\	.	8gg\	.	8c/	.	8B-\	-bie	8ee\	-bie
8c\J	8eeJ 8b-\	8cc\J	.	8ee\J	.	8c/	chwa-	8B-\	pro-	8ee\	pro-
=90	=90	=90	=90	=90	=90	=90	=90	=90	=90	=90	=90
8F\L	4ff 4a\	8a/L	.	8ff\L	.	4c/	-li-	(4A\	-si-	4ff\	-si-
8A\	.	8cc/	.	8cc\	.	.	.	.	.	.	.
8c\J	8aa 8cc\	8a/J	.	8a\J	.	8A/	.	8c\)	.	8aa\	.
4f\	4ff 4a\	4f/	.	4f/	.	4F/	-li	4A\	-li	4ff\	-li
!	!LO:TX:b:t=Verte Cito	!	!	!	!	!	!	!	!	!	!
8r	8r	8r	.	8r	.	8r	.	8r	.	8r	.
!LO:PB:g=original	!LO:PB:g=original	!	!	!LO:LB:g=original	!	!	!	!	!	!	!
=91	=91	=91	=91	=91	=91	=91||:	=91	=91	=91	=91	=91
*	*	*	*	*	*	*clefF4	*	*	*	*	*
!LO:TX:t=P:problem=mixed beam	!LO:TX:t=P:problem=t. 91-98 wykreślone ołówkiem	!	!	!	!	!	!	!	!	!	!
8FF/L	4cc 4a\	8aL 8f/	.	8cc\L	.	4F\	Racz	4A\	Racz	4cc\	Racz
8F\	.	8a 8f/	.	8aa\	.	.	.	.	.	.	.
8F\J	8cc 8a\	8aJ 8f/	.	8gg\J	.	8F\	na(m)	8A\	nam	8cc\	nam
8F\L	8ccL 8a\	8aL 8f/	.	8ff\L	.	8F\	te-	8A\	te-	8cc\	te-
8F\	8cc 8a\	8a 8f/	.	8een\	.	8F\	-dy	8A\	-dy	8cc\	-dy
8F\J	8ccJ 8a\	8aJ 8f/	.	8ff\J	.	8F\	dac	8A\	dac	8cc\	dac
!	!	!	!	!	!	!LO:LB:g=original	!	!	!	!	!
=92	=92	=92	=92	=92	=92	=92	=92	=92	=92	=92	=92
*	*	*	*	*	*	*	*ij	*	*ij	*	*ij
!LO:TX:t=P:problem=mixed beam	!	!	!	!	!	!	!	!	!	!	!
8FF/L	4dd 4b-\	8b-L 8f/	.	8een\L	.	4F\	Racz	4B-\	Racz	4dd\	Racz
8F\	.	8b- 8f/	.	8dd\	.	.	.	.	.	.	.
8F\J	8dd 8b-\	8b-J 8f/	.	8dd\J	.	8F\	na(m)	8B-\	nam	8dd\	nam
!	!	!	!	!	!	!	!	!	!	!LO:LB:g=original	!
8F\L	8ddL 8b-\	8b-L 8f/	.	4dd\	.	8F\	te-	8B-\	te-	8dd\	te-
8F\	8dd 8b-\	8b- 8f/	.	.	.	8F\	-dy	8B-\	-dy	8dd\	-dy
8F\J	8ddJ 8b-\	8b-J 8f/	.	8r	.	8F\	dac	8B-\	dac	8dd\	dac
*	*	*	*	*	*	*	*Xij	*	*Xij	*	*Xij
=93	=93	=93	=93	=93	=93	=93	=93	=93	=93	=93	=93
!LO:TX:t=P:problem=mixed beam	!	!	!	!	!	!	!	!	!	!LO:SIC:v:s=4een\	!
8FF/L	4een 4b- 4g\	8b-L 8g/	.	8een\L	.	4F\	O	4G/	o	4ee-\	O
8F\	.	8b- 8g/	.	8bb-\	.	.	.	.	.	.	.
!	!	!	!	!	!	!	!	!	!	!LO:SIC:v:s=8een\	!
8F\J	8ee 8b- 8g\	8b-J 8g/	.	8aa\J	.	8F\	co	8G/	co	8ee-\	co
!	!	!	!	!	!	!	!	!LO:LB:g=original	!	!LO:SIC:v:s=4een\	!
8F\L	4ee 4b- 4g\	8b-L 8g/	.	8gg\L	.	4F\	rze-	4G/	rze-	4ee-\	rze-
8F\	.	8b- 8g/	.	8ff\	.	.	.	.	.	.	.
!	!	!	!	!	!	!	!	!	!	!LO:SIC:v:s=8een\	!
8F\J	8ee 8b- 8g\	8b-J 8g/	.	8ee\J	.	8F\	-brze-	8G/	-brze-	8ee-\	-brze-
=94	=94	=94	=94	=94	=94	=94	=94	=94	=94	=94	=94
!LO:TX:t=P:problem=mixed beam	!	!	!	!	!	!	!	!	!	!	!
8FF/L	4ff 4cc 4a\	8aL 8f/	.	8ff\L	.	4F\	-my	4A/	-my	4ff\	-my
8F\	.	8a 8f/	.	8gg\	.	.	.	.	.	.	.
8F\J	8r	8aJ 8f/	.	8aa\J	.	8r	.	8r	.	8r	.
!	!LO:N:vis=2	!	!	!	!	!LO:N:vis=2	!	!LO:N:vis=2	!	!LO:N:vis=2	!
8F\L	4.r	8aL 8f/	.	4ff\	.	4.r	.	4.r	.	4.r	.
8F\	.	8a 8f/	.	.	.	.	.	.	.	.	.
8F\J	.	8aJ 8f/	.	8r	.	.	.	.	.	.	.
=95	=95	=95	=95	=95	=95	=95:||	=95	=95	=95	=95	=95
!LO:TX:t=P:problem=mixed beam	!	!	!	!	!	!LO:TX:t=P:problem=t. 95-98 zapisane repetycją	!	!	!	!	!
8FF/L	4cc 4a\	8aL 8f/	.	8cc\L	.	4F\yy	Racz	4A\	Racz	4cc\	Racz
8F\	.	8a 8f/	.	8aa\	.	.	.	.	.	.	.
8F\J	8cc 8a\	8aJ 8f/	.	8gg\J	.	8F\yy	na(m)	8A\	nam	8cc\	nam
!	!	!LO:LB:g=original	!	!	!	!	!	!	!	!	!
8F\L	8ccL 8a\	8aL 8f/	.	8ff\L	.	8F\yy	te-	8A\	te-	8cc\	te-
8F\	8cc 8a\	8a 8f/	.	8een\	.	8F\yy	-dy	8A\	-dy	8cc\	-dy
8F\J	8ccJ 8a\	8aJ 8f/	.	8ff\J	.	8F\yy	dac	8A\	dac	8cc\	dac
=96	=96	=96	=96	=96	=96	=96	=96	=96	=96	=96	=96
*	*	*	*	*	*	*	*ij	*	*ij	*	*ij
!LO:TX:t=P:problem=mixed beam	!	!	!	!	!	!	!	!	!	!	!
8FF/L	4dd 4b-\	8b-L 8f/	.	8een\L	.	4F\yy	Racz	4B-\	Racz	4dd\	Racz
8F\	.	8b- 8f/	.	8dd\	.	.	.	.	.	.	.
8F\J	8dd 8b-\	8b-J 8f/	.	8dd\J	.	8F\yy	na(m)	8B-\	nam	8dd\	nam
!	!	!	!	!	!	!	!	!	!	!LO:LB:g=original	!
8F\L	8ddL 8b-\	8b-L 8f/	.	4dd\	.	8F\yy	te-	8B-\	te-	8dd\	te-
8F\	8dd 8b-\	8b- 8f/	.	.	.	8F\yy	-dy	8B-\	-dy	8dd\	-dy
8F\J	8ddJ 8b-\	8b-J 8f/	.	8r	.	8F\yy	dac	8B-\	dac	8dd\	dac
*	*	*	*	*	*	*	*Xij	*	*Xij	*	*Xij
!LO:LB:g=original	!LO:LB:g=original	!	!	!	!	!	!	!	!	!	!
=97	=97	=97	=97	=97	=97	=97	=97	=97	=97	=97	=97
!LO:TX:t=P:problem=mixed beam	!	!	!	!	!	!	!	!	!	!LO:SIC:v:s=4een\	!
8FF/L	4een 4b- 4g\	8b-L 8g/	.	8een\L	.	4F\yy	O	4G/	O	4ee-\	O
8F\	.	8b- 8g/	.	8bb-\	.	.	.	.	.	.	.
!	!	!	!	!	!	!	!	!	!	!LO:SIC:v:s=8een\	!
8F\J	8ee 8b- 8g\	8b-J 8g/	.	8aa\J	.	8F\yy	co	8G/	co	8ee-\	co
!	!	!	!	!	!	!	!	!	!	!LO:SIC:v:s=4een\	!
8F\L	4ee 4b- 4g\	8b-L 8g/	.	8gg\L	.	4F\yy	rze-	4G/	rze-	4ee-\	rze-
8F\	.	8b- 8g/	.	8ff\	.	.	.	.	.	.	.
!	!	!	!	!	!	!	!	!	!	!LO:SIC:v:s=8een\	!
8F\J	8ee 8b- 8g\	8b-J 8g/	.	8ee\J	.	8F\yy	-brze-	8G/	-brze-	8ee-\	-brze-
=98	=98	=98	=98	=98	=98	=98	=98	=98	=98	=98	=98
!LO:TX:t=P:problem=mixed beam	!	!	!	!	!	!	!	!	!	!	!
8FF/L	4ff 4cc 4a\	4a 4f/	.	8gg\L	.	4F\yy	-my	4A/	-my	4ff\	-my
8F\	.	.	.	8ff\	.	.	.	.	.	.	.
8F\J	8r	8r	.	8ff\J	.	8ryy	.	8r	.	8r	.
!	!LO:N:vis=2	!LO:N:vis=2	!	!	!	!LO:N:vis=2	!	!LO:N:vis=2	!	!LO:N:vis=2	!
8F\L	4.r	4.r	.	8gg\L	.	4.ryy	.	4.r	.	4.r	.
8F\	.	.	.	8ee-X\	.	.	.	.	.	.	.
8F\J	.	.	.	8cc\J	.	.	.	.	.	.	.
=99	=99	=99	=99	=99	=99	=99	=99	=99	=99	=99	=99
!	!	!	!	!	!	!LO:N:vis=0	!	!	!	!	!
4BB-/	4b-\	2.r	.	4b-\	.	1.r	.	2.r	.	4b-\	Racz
8r	8b-\	.	.	8b-\	.	.	.	.	.	8b-\	nam
4B-\	8b-\L	.	.	8b-\L	.	.	.	.	.	8b-\	te-
.	8a\	.	.	8a\	.	.	.	.	.	8a\	-dy
8r	8b-\J	.	.	8b-\J	.	.	.	.	.	8b-\	dac
!	!	!	!	!	!	!	!	!LO:LB:g=original	!	!	!
=100	=100	=100	=100	=100	=100	=100	=100	=100	=100	=100	=100
*	*	*	*	*	*	*	*	*	*	*	*ij
4BB-/	4dd\	4b-\	.	4dd\	.	.	.	4B-\	Racz	4dd\	Racz
.	.	.	.	.	.	.	.	.	.	.	.
8r	8dd\	8b-\	.	8dd\	.	.	.	8B-\	nam	8dd\	nam
!	!	!	!	!	!	!	!	!	!	!LO:LB:g=original	!
4B-\	8dd\L	8b-\L	.	8dd\L	.	.	.	8B-\	te-	8dd\	te-
.	8cc\	8a\	.	8cc\	.	.	.	8A\	-dy	8cc\	-dy
8r	8dd\J	8b-\J	.	8dd\J	.	.	.	8B-\	dac	8dd\	dac
*	*	*	*	*	*	*	*	*	*	*	*Xij
!	!	!	!	!LO:LB:g=original	!	!	!	!	!	!	!
=101	=101	=101	=101	=101	=101	=101||:	=101	=101	=101	=101	=101
!LO:TX:t=P:problem=mixed beam	!	!	!	!	!	!	!	!	!	!	!
8AA/L	8ee-\L	8cc\L	.	8ee-\L	.	8F\	.	8c\	O	8ee-\	O
8A\	8ee-\	8cc\	.	8aa\	.	8G\	.	8c\	co	8ee-\	co
8A\J	8ee-\J	8cc\J	.	8aa\J	.	8A\	.	8c\	rze-	8ee-\	rze-
!LO:TX:t=P:problem=mixed beam	!LO:SIC:v:s=8ff\L	!	!	!	!	!	!	!LO:SIC:v:s=8d\	!	!LO:SIC:v:s=8ff\	!
8B-\L	8ee-\L	8dd\L	.	8bb-\L	.	8B-\	.	8c\	-brze-	8ee-\	-brze-
8BB-/J	8dd\J	8dd\	.	8ff\	.	8BB-/	.	8B-\	-my	8dd\	-my
8r	8r	8b-\J	.	8dd\J	.	8r	.	8r	.	8r	.
=102	=102	=102	=102	=102	=102	=102:||	=102	=102	=102	=102	=102
*	*	*	*	*	*	*	*	*	*ij	*	*ij
!LO:TX:t=P:problem=mixed beam	!	!	!	!	!	!LO:TX:t=P:problem=t. 102 zapisany repetycją	!	!	!	!	!
8AA/L	8ee-\L	8a\L	.	8ee-\L	.	8F\yy	.	8c\	O	8ee-\	O
8A\	8ee-\	8cc\	.	8aa\	.	8G\yy	.	8c\	co	8ee-\	co
8A\J	8ee-\J	8cc\J	.	8aa\J	.	8A\yy	.	8c\	rze-	8ee-\	rze-
!LO:TX:t=P:problem=mixed beam	!LO:SIC:v:s=8ff\L	!	!	!	!	!	!	!LO:SIC:v:s=8d\	!	!LO:SIC:v:s=8ff\	!
8B-\L	8ee-\L	8dd\L	.	8bb-\L	.	8B-\yy	.	8c\	-brze-	8ee-\	-brze-
8BB-/J	8dd\J	8dd\J	.	8ff\J	.	8BB-/yy	.	8B-\	-my	8dd\	-my
*	*	*	*	*	*	*	*	*	*Xij	*	*Xij
8r	8r	8r	.	8r	.	8ryy	.	8r	.	8r	.
!LO:LB:g=original	!LO:LB:g=original	!	!	!	!	!	!	!	!	!	!
=103	=103	=103	=103	=103	=103	=103	=103	=103	=103	=103	=103
!LO:TX:t=P:problem=mixed beam	!	!LO:N:vis=00	!	!LO:N:vis=00	!	!LO:N:vis=00	!	!LO:N:vis=00	!	!	!
8EE-/L	4.gg\	0.r	.	0.r	.	0.r	.	0.r	.	4.gg\	lu-
8E-\	.	.	.	.	.	.	.	.	.	.	.
8E-\J	.	.	.	.	.	.	.	.	.	.	.
*tremolo	*	*	*	*	*	*	*	*	*	*	*
8E-\L	4ee-\	.	.	.	.	.	.	.	.	4ee-\	-boś-
8E-\	.	.	.	.	.	.	.	.	.	.	.
8E-\J	8cc\	.	.	.	.	.	.	.	.	8cc\	-my
*Xtremolo	*	*	*	*	*	*	*	*	*	*	*
!	!	!	!	!	!	!	!	!	!	!LO:LB:g=original	!
=104	=104	=104	=104	=104	=104	=104	=104	=104	=104	=104	=104
!	!LO:TX:t=P:problem=mixed beam	!	!	!	!	!	!	!	!	!	!
8F\L	8a/L	.	.	.	.	.	.	.	.	8a\	nie
8G\	8ff\	.	.	.	.	.	.	.	.	8ff\	za-
8A\J	8ee-\J	.	.	.	.	.	.	.	.	8ee-\	-słu-
!LO:TX:t=P:problem=mixed beam	!	!	!	!	!	!	!	!	!	!	!
8B-\L	8ee-\L	.	.	.	.	.	.	.	.	8ee-\	-ży-
8BB-/J	8dd\J	.	.	.	.	.	.	.	.	8dd\	-li
8r	8r	.	.	.	.	.	.	.	.	8r	.
=105	=105	=105	=105	=105	=105	=105	=105	=105	=105	=105	=105
*	*	*	*	*	*	*	*	*	*	*	*ij
!LO:TX:t=P:problem=mixed beam	!	!	!	!	!	!	!	!	!	!	!
8EE-/L	4.gg\	.	.	.	.	.	.	.	.	4.gg\	lu-
8E-\	.	.	.	.	.	.	.	.	.	.	.
8E-\J	.	.	.	.	.	.	.	.	.	.	.
*tremolo	*	*	*	*	*	*	*	*	*	*	*
8E-\L	4ee-\	.	.	.	.	.	.	.	.	4ee-\	-boś-
8E-\	.	.	.	.	.	.	.	.	.	.	.
8E-\J	8cc\	.	.	.	.	.	.	.	.	8cc\	-my
*Xtremolo	*	*	*	*	*	*	*	*	*	*	*
=106	=106	=106	=106	=106	=106	=106	=106	=106	=106	=106	=106
!	!LO:TX:t=P:problem=mixed beam	!	!	!	!	!	!	!	!	!	!
8F\L	8a/L	.	.	.	.	.	.	.	.	8a\	nie
8G\	8ff\	.	.	.	.	.	.	.	.	8ff\	za-
8A\J	8ee-\J	.	.	.	.	.	.	.	.	8ee-\	-słu-
!LO:TX:t=P:problem=mixed beam	!	!	!	!	!	!	!	!	!	!	!
8B-\L	8ee-\L	.	.	.	.	.	.	.	.	8ee-\	-ży-
8BB-/J	8dd\J	.	.	.	.	.	.	.	.	8dd\	-li
*	*	*	*	*	*	*	*	*	*	*	*Xij
8r	8r	.	.	.	.	.	.	.	.	8r	.
=107	=107	=107	=107	=107	=107	=107	=107	=107	=107	=107	=107
8F\L	8f/L	8f/L	.	8f/L	f	8F\	Kto-	8F/	Kto-	8f/	Kto-
8F\	8f/	8f/	.	8f/	.	8F\	-rys	8F/	-rys	8f/	-ryś
8F\J	8f/J	8f/J	.	8f/J	.	8F\	nas	8F/	nas	8f/	nas
!	!	!	!	!	!	!	!	!	!	!LO:LB:g=original	!
8F\L	8f/L	8f/L	.	8f/L	.	8F\	z ni-	8F/	z ni-	8f/	z ni-
8G\	8g/	8g/	.	8g/	.	8G\	-cze-	8G/	-cze-	8g/	-cze-
8A\J	8a/J	8a/J	.	8a/J	.	8A\	-go	8A/	-go	8a/	-go
!	!	!	!	!	!	!	!	!LO:LB:g=original	!	!	!
=108	=108	=108	=108	=108	=108	=108	=108	=108	=108	=108	=108
4.B-\	4.b-/	4.b-/	.	4.b-/	.	4.B-\	stwo-	4.B-/	stwo-	4.b-\	stwo-
8G\	8g/	4g/	.	4.g/	.	4G\	-rzył	8G/	-rzył	8g\	-rzył
8r	8r	.	.	.	.	.	.	8r	.	8r	.
8r	8r	8r	.	.	.	8r	.	8r	.	8r	.
=109	=109	=109	=109	=109	=109	=109	=109	=109	=109	=109	=109
*	*	*	*	*	*	*	*ij	*	*ij	*	*ij
8G\L	8g/L	8g/L	.	8g/L	.	8G\	Kto-	8G/	Kto-	8g\	Kto-
8G\	8g/	8g/	.	8g/	.	8G\	-rys	8G/	-rys	8g\	-ryś
!	!	!	!	!	!	!LO:LB:g=original	!	!	!	!	!
8G\J	8g/J	8g/J	.	8g/J	.	8G\	nas	8G/	nas	8g\	nas
!LO:LB:g=original	!LO:LB:g=original	!	!	!	!	!	!	!	!	!	!
8G\L	8g/L	8g/L	.	8g/L	.	8G\	z ni-	8G/	z ni-	8g\	z ni-
8A\	8a/	8a/	.	8a/	.	8A\	-cze-	8A/	-cze-	8a\	-cze-
8B-\J	8b-/J	8b-/J	.	8b-/J	.	8B-\	-go	8B-/	-go	8b-\	-go
!	!	!LO:LB:g=original	!	!	!	!	!	!	!	!	!
=110	=110	=110	=110	=110	=110	=110	=110	=110	=110	=110	=110
4.c\	4.cc/	4.cc/	.	4.cc/	.	4.c\	stwo-	4.c/	stwo-	4.cc\	stwo-
8A\	8a/	4a/	.	4.a/	.	4A\	-rzył	8A/	-rzył	8a\	-rzył
*	*	*	*	*	*	*	*Xij	*	*Xij	*	*Xij
8r	8r	.	.	.	.	.	.	8r	.	8r	.
8r	8r	8r	.	.	.	8r	.	8r	.	8r	.
!	!	!	!	!	!	!	!	!	!	!LO:PB:g=original	!
=111	=111	=111	=111	=111	=111	=111	=111	=111	=111	=111	=111
!	!	!	!	!	!LO:DY:rj	!	!	!	!	!	!
4F\	8f/L	4f/	.	8f/L	pp	2.r	.	2.r	.	8f\	Kto-
.	8g/	.	.	8g/	.	.	.	.	.	8g\	-rys
8r	8a/J	8r	.	8a/J	.	.	.	.	.	8a\	nas
!LO:N:vis=2	!	!LO:N:vis=2	!	!	!	!	!	!	!	!	!
4.r	8b-/L	4.r	.	8b-/L	.	.	.	.	.	8b-\	z ni-
.	8cc 8a/	.	.	8cc/	.	.	.	.	.	8cc\	-cze-
.	8ddJ 8b-/	.	.	8dd/J	.	.	.	.	.	8dd\	-go
=112	=112	=112	=112	=112	=112	=112	=112	=112	=112	=112	=112
8F\L	4.ee- 4.cc\	4cc\	.	4ee-\	.	8F\L	Stwo-	4.c\	stwo-	4.ee-\	stwo-
8G\	.	.	.	.	.	8G\	.	.	.	.	.
8A\J	.	8cc\	.	8aa\	.	8A\J	.	.	.	.	.
8B-\L	8dd 8b-\	8dd\L	.	8bb-\L	.	4.B-\	rzył	8B-\	-rzył	8dd\	-rzył
8c\	8r	8dd\	.	8ff\	.	.	.	8r	.	8r	.
8d\J	8r	8b-\J	.	8dd\J	.	.	.	8r	.	8r	.
=113	=113	=113	=113	=113	=113	=113	=113	=113	=113	=113	=113
8e-\L	8cc\L	8e-/L	.	8gg\L	.	8F\	Kto-	8c\	a-	8cc\	a-
8e-\	8gg 8ee-\	8e-/	.	8ee-\	.	8c\	-rys	8e-\	-bys-	8gg\	-bys-
8e-\J	8ggJ 8ee-\	8e-/J	.	8cc\J	.	8c\	nas	8e-\	-my	8gg\	-my
!	!LO:TX:t=P:problem=mixed beam	!	!	!	!	!	!	!	!	!	!
8f\L	8ggL 8ee-\	8f/L	.	8ee-\L	.	8A\	z ni-	8e-\	cie-	8gg\	cie-
8f\	8ff 8dd\	8f/	.	8cc\	.	8B-\	-cze-	8d\	-bie	8ff\	-bie
8f\J	8aJ 8c/	8f/J	.	8a\J	.	8F\	-go	8c\	pro-	8a\	pro-
!	!	!	!	!	!	!	!	!LO:LB:g=original	!	!LO:LB:g=original	!
=114	=114	=114	=114	=114	=114	=114	=114	=114	=114	=114	=114
!LO:TX:t=P:problem=mixed beam	!	!	!	!	!	!	!	!	!	!	!
8B-\L	8ccL 8e-/	8b-/L	.	8b-/L	.	4.F\	stwo-	8e-\	-si-	8cc\	-si-
8BB-/J	8b-J 8d/	8f/	.	8f/	.	.	.	8d\	-li	8b-\	-li
8r	8r	8d/J	.	8d/J	.	.	.	8r	.	8r	.
!LO:N:vis=2	!LO:N:vis=2	!	!	!	!	!	!	!LO:N:vis=2	!	!LO:N:vis=2	!
4.r	4.r	4B-/	.	4B-/	.	4BB-/	-rzył	4.r	.	4.r	.
.	.	8r	.	8r	.	8r	.	.	.	.	.
!	!	!	!	!LO:LB:g=original	!	!	!	!	!	!	!
=115	=115	=115	=115	=115	=115	=115||:	=115	=115	=115	=115	=115
*clefG2	*	*	*	*	*	*clefC3	*	*	*	*	*
!	!	!LO:TX:t=P:problem=usunięta repetycja t. 115-130	!	!LO:TX:t=P:problem=usunięta repetycja t. 115-130	!	!	!	!	!	!	!
4.dd 4.b-\	4ff\	4d/	.	4b-\	.	4b-\	Racz	4d\	Racz	4ff\	Racz
.	8ff\	8d/	.	8b-\	.	8b-\	na(m)	8d\	nam	8ff\	nam
8ddL 8b-\	8ff\L	8d/L	.	8b-\L	.	8b-\	te-	8d\	te-	8ff\	te-
8cc 8a\	8ff\	8c/	.	8a\	.	8a\	-dy	8c\	-dy	8ff\	-dy
8ddJ 8b-\	8ff\J	8d/J	.	8b-\J	.	8b-\	dac	8d\	dac	8ff\	dac
!LO:LB:g=original	!LO:LB:g=original	!	!	!	!	!	!	!	!	!	!
=116	=116	=116	=116	=116	=116	=116	=116	=116	=116	=116	=116
*	*	*	*	*	*	*	*ij	*	*ij	*	*ij
4ee- 4cc\	4ff\	4e-/	.	4cc\	.	4cc\	Racz	4e-\	Racz	4ff\	Racz
8ee- 8cc\	8ff\	8e-/	.	8cc\	.	8cc\	na(m)	8e-\	nam	8ff\	nam
8ee-L 8cc\	8ff\L	8e-/L	.	8cc\L	.	8cc\	te-	8e-\	te-	8ff\	te-
8dd 8b-\	8ff\	8d/	.	8b-\	.	8b-\	-dy	8d\	-dy	8ff\	-dy
8ee-J 8cc\	8ff\J	8e-/J	.	8cc\J	.	8cc\	dac	8e-\	dac	8ff\	dac
*	*	*	*	*	*	*	*Xij	*	*Xij	*	*Xij
!	!	!	!	!	!	!LO:LB:g=original	!	!	!	!	!
=117	=117	=117	=117	=117	=117	=117	=117	=117	=117	=117	=117
4dd 4b-\	4ff\	4d/	.	4b-\	.	4b-\	O	4d\	O	4ff\	O
8dd 8b-\	8ff\	8d/	.	8b-\	.	8b-\	co	8d\	co	8ff\	co
!	!	!	!	!	!	!	!	!	!	!LO:LB:g=original	!
4ee- 4cc\	4ff\	4e-/	.	4cc\	.	4cc\	rze-	4e-\	rze-	4ff\	rze-
8dd 8b-\	8ff\	8d/	.	8b-\	.	8b-\	-brze-	8d\	-brze-	8ff\	-brze-
=118	=118	=118	=118	=118	=118	=118	=118	=118	=118	=118	=118
4cc 4a\	4ff\	4c/	.	8a/L	.	4.a\	-my	4c\	-my	4ff\	-my
.	.	.	.	8b-/	.	.	.	.	.	.	.
8r	8r	8r	.	8cc/J	.	.	.	8r	.	8r	.
!LO:N:vis=2	!LO:N:vis=2	!LO:N:vis=2	!	!	!	!	!	!LO:N:vis=2	!	!LO:N:vis=2	!
4.r	4.r	4.r	.	8cc/L	.	8r	.	4.r	.	4.r	.
.	.	.	.	8b-/	.	8r	.	.	.	.	.
.	.	.	.	8a/J	.	8r	.	.	.	.	.
=119	=119	=119	=119	=119	=119	=119:||	=119	=119	=119	=119	=119
!	!	!	!	!	!	!LO:TX:t=P:problem=t. 119-122 zapisane repetycją	!	!	!	!	!
4.dd 4.b-\	4ff\	4d/	.	4b-\	.	4b-\yy	Racz	4d\	Racz	4ff\	Racz
.	8ff\	8d/	.	8b-\	.	8b-\yy	na(m)	8d\	nam	8ff\	nam
!	!	!	!	!	!	!	!	!LO:LB:g=original	!	!	!
8ddL 8b-\	8ff\L	8d/L	.	8b-\L	.	8b-\yy	te-	8d\	te-	8ff\	te-
8cc 8a\	8ff\	8c/	.	8a\	.	8a\yy	-dy	8c\	-dy	8ff\	-dy
8ddJ 8b-\	8ff\J	8d/J	.	8b-\J	.	8b-\yy	dac	8d\	dac	8ff\	dac
!	!	!LO:LB:g=original	!	!	!	!	!	!	!	!	!
=120	=120	=120	=120	=120	=120	=120	=120	=120	=120	=120	=120
*	*	*	*	*	*	*	*ij	*	*ij	*	*ij
4ee- 4cc\	4ff\	4e-/	.	4cc\	.	4cc\yy	Racz	4e-\	Racz	4ff\	Racz
8ee- 8cc\	8ff\	8e-/	.	8cc\	.	8cc\yy	na(m)	8e-\	nam	8ff\	nam
8ee-L 8cc\	8ff\L	8e-/L	.	8cc\L	.	8cc\yy	te-	8e-\	te-	8ff\	te-
8dd 8b-\	8ff\	8d/	.	8b-\	.	8b-\yy	-dy	8d\	-dy	8ff\	-dy
8ee-J 8cc\	8ff\J	8e-/J	.	8cc\J	.	8cc\yy	dac	8e-\	dac	8ff\	dac
*	*	*	*	*	*	*	*Xij	*	*Xij	*	*Xij
=121	=121	=121	=121	=121	=121	=121	=121	=121	=121	=121	=121
4dd 4b-\	4ff\	4d/	.	4b-\	.	4b-\yy	O	4d\	O	4ff\	O
8dd 8b-\	8ff\	8d/	.	8b-\	.	8b-\yy	co	8d\	co	8ff\	co
!	!	!	!	!	!	!	!	!	!	!LO:LB:g=original	!
4ee- 4cc\	4ff\	4e-/	.	4cc\	.	4cc\yy	rze-	4e-\	rze-	4ff\	rze-
8dd 8b-\	8ff\	8d/	.	8b-\	.	8b-\yy	-brze-	8d\	-brze-	8ff\	-brze-
!LO:LB:g=original	!LO:LB:g=original	!	!	!	!	!	!	!	!	!	!
=122	=122	=122	=122	=122	=122	=122	=122	=122	=122	=122	=122
4cc 4a\	4ff\	4c/	.	8a\L	.	4.a\yy	-my	4c\	-my	4ff\	-my
.	.	.	.	8b-\	.	.	.	.	.	.	.
8r	8r	8r	.	8cc\J	.	.	.	8r	.	8r	.
!LO:N:vis=2	!LO:N:vis=2	!LO:N:vis=2	!	!	!	!	!	!LO:N:vis=2	!	!LO:N:vis=2	!
4.r	4.r	4.r	.	8dd\L	.	8ryy	.	4.r	.	4.r	.
.	.	.	.	8ee-\	.	8ryy	.	.	.	.	.
.	.	.	.	8ff\J	.	8ryy	.	.	.	.	.
*clefF4	*	*	*	*	*	*	*	*	*	*	*
=123	=123	=123	=123	=123	=123	=123||:	=123	=123	=123	=123	=123
*	*	*	*	*	*	*clefF4	*	*	*	*	*
4.e-\	4.gg 4.ee- 4.b-\	8e-/L	.	8gg\L	.	4.A\	lu-	4.e-\	lu-	4.gg\	lu-
.	.	8e-/	.	8aa\	.	.	.	.	.	.	.
.	.	8e-/J	.	8bb-\J	.	.	.	.	.	.	.
4.d\	4.ff 4.dd 4.b-\	8d/L	.	8ff\L	.	4.B-\	-bos-	4.d\	-bos-	4.ff\	-bos-
.	.	8d/	.	8aa\	.	.	.	.	.	.	.
.	.	8d/J	.	8bb-\J	.	.	.	.	.	.	.
=124	=124	=124	=124	=124	=124	=124	=124	=124	=124	=124	=124
!	!LO:SIC:v:n=3:s=4.f#\	!	!	!	!	!	!	!	!	!	!
4.c\	4.ee- 4.cc 4.f\	8c/L	.	8ee-\L	.	4.F#X\	-my	4.c\	-my	4.ee-\	-my
.	.	8c/	.	8aa\	.	.	.	.	.	.	.
.	.	8c/J	.	8bb-\J	.	.	.	.	.	.	.
4.B-\	4.dd 4.b- 4.f\	8B-/L	.	8dd\L	.	4.G\	nie	4.B-\	nie	4.dd\	nie
.	.	8B-/	.	8ff\	.	.	.	.	.	.	.
.	.	8B-/J	.	8bb-\J	.	.	.	.	.	.	.
=125	=125	=125	=125	=125	=125	=125	=125	=125	=125	=125	=125
*tremolo	*	*	*	*	*	*	*	*	*	*	*
8E-\L	8cc\L	8c/L	.	8ee-\L	.	4E-\	za-	8e-\L	za-	8cc\L	za-
8E-\	8dd\	8d/	.	8ff\	.	.	.	8f\J	.	8dd\J	.
8E-\J	8ee-\J	8e-/J	.	8gg\J	.	8E-\	-słu-	8g\	-słu-	8ee-\	.
!	!	!	!	!	!	!	!	!LO:LB:g=original	!	!	!
8F\L	4.dd 4.f\	8f/L	.	8ff\L	.	4.F\	-zy-	(4.f\	-rzy-	4.dd\	-słu-
8F\	.	8f/	.	8dd\	.	.	.	.	.	.	.
8F\J	.	8f/J	.	8b-\J	.	.	.	.	.	.	.
=126	=126	=126	=126	=126	=126	=126	=126	=126	=126	=126	=126
8FF/L	4.cc 4.e-/	8f/L	.	8ee-\L	.	4.F\	.	4.e-\)	.	4.cc\	-zi-
8FF/	.	8f/	.	8cc\	.	.	.	.	.	.	.
8FF/J	.	8f/J	.	8a\J	.	.	.	.	.	.	.
*Xtremolo	*	*	*	*	*	*	*	*	*	*	*
4BB-/	4b- 4d/	4d/	.	4b-\	.	4BB-/	-li	4d\	-li	4.b-\	-li.
8r	8r	8r	.	8r	.	8r	.	8r	.	.	.
!	!	!	!	!LO:LB:g=original	!	!	!	!	!	!LO:LB:g=original	!
=127	=127	=127	=127	=127	=127	=127:||	=127	=127	=127	=127	=127
!	!	!	!	!	!	!LO:TX:t=P:problem=t. 127-130 zapisane repetycją	!	!	!	!	!
4.e-\	4.gg 4.ee- 4.b-\	8e-/L	.	8gg\L	.	4.A\yy	lu-	4.e-\	lu-	4.gg\	lu-
.	.	8e-/	.	8aa\	.	.	.	.	.	.	.
.	.	8e-/J	.	8bb-\J	.	.	.	.	.	.	.
4.d\	4.ff 4.dd 4.b-\	8d/L	.	8ff\L	.	4.B-\yy	-bos-	4.d\	-bos-	4.ff\	-bos-
.	.	8d/	.	8aa\	.	.	.	.	.	.	.
.	.	8d/J	.	8bb-\J	.	.	.	.	.	.	.
=128	=128	=128	=128	=128	=128	=128	=128	=128	=128	=128	=128
!	!LO:SIC:v:n=3:s=4.f#\	!	!	!	!	!	!	!	!	!	!
4.c\	4.ee- 4.cc 4.f\	8c/L	.	8ee-\L	.	4.F#X\yy	-my	4.c\	-my	4.ee-\	-my
.	.	8c/	.	8aa\	.	.	.	.	.	.	.
.	.	8c/J	.	8bb-\J	.	.	.	.	.	.	.
4.B-\	4.dd 4.b- 4.f\	8B-/L	.	8dd\L	.	4.G\yy	nie	4.B-\	nie	4.dd\	nie
.	.	8B-/	.	8ff\	.	.	.	.	.	.	.
.	.	8B-/J	.	8bb-\J	.	.	.	.	.	.	.
!	!	!LO:LB:g=original	!	!	!	!	!	!	!	!	!
=129	=129	=129	=129	=129	=129	=129	=129	=129	=129	=129	=129
*tremolo	*	*	*	*	*	*	*	*	*	*	*
8E-\L	8cc\L	8c/L	.	8ee-\L	.	4E-\yy	za-	8e-\L	za-	8cc\L	za-
8E-\	8dd\	8d/	.	8ff\	.	.	.	8f\J	.	8dd\J	.
8E-\J	8ee-\J	8e-/J	.	8gg\J	.	8E-\yy	-słu-	8g\	-słu-	8ee-\	.
8F\L	4.dd 4.f\	8f/L	.	8ff\L	.	4.F\yy	-zy-	(4.f\	-zi-	4.dd\	-słu-
8F\	.	8f/	.	8dd\	.	.	.	.	.	.	.
8F\J	.	8f/J	.	8b-\J	.	.	.	.	.	.	.
!LO:LB:g=original	!LO:LB:g=original	!	!	!	!	!	!	!	!	!	!
=130	=130	=130	=130	=130	=130	=130	=130	=130	=130	=130	=130
8FF/L	4.cc 4.e-/	8f/L	.	8ee-\L	.	4.F\yy	.	4.e-\)	.	4.cc\	-zi-
8FF/	.	8f/	.	8cc\	.	.	.	.	.	.	.
8FF/J	.	8f/J	.	8a\J	.	.	.	.	.	.	.
4BB-/	4b- 4d/	4d/	.	4b-\	.	4BB-/yy	-li	4d\	-li	4.b-\	-li
*Xtremolo	*	*	*	*	*	*	*	*	*	*	*
8r	8r	8r	.	8r	.	8ryy	.	8r	.	.	.
=	=	=	=	=	=	=||:	=	=	=	=	=
*	*	*	*	*	*	*clefC3	*	*	*	*	*
!!LO:TX:t=P:problem:potwórzone takty w T, B
2.ryy	2.ryy	2.ryy	.	2.ryy	.	4dd\	Racz	4B-\	Racz	2.ryy	.
.	.	.	.	.	.	8dd\	na(m)	8B-\	nam	.	.
.	.	.	.	.	.	8dd\	te-	8B-\	te-	.	.
.	.	.	.	.	.	8cc\	-dy	8A\	-dy	.	.
.	.	.	.	.	.	8dd\	dac	8B-\	dac	.	.
!	!	!	!	!	!	!LO:LB:g=original	!	!	!	!	!
=	=	=	=	=	=	=	=	=	=	=	=
*	*	*	*	*	*	*	*ij	*	*ij	*	*
2.ryy	2.ryy	2.ryy	.	2.ryy	.	4ee-\	Racz	4c\	Racz	2.ryy	.
.	.	.	.	.	.	8ee-\	na(m)	8c\	nam	.	.
.	.	.	.	.	.	8ee-\	te-	8c\	te-	.	.
.	.	.	.	.	.	8dd\	-dy	8B-\	-dy	.	.
.	.	.	.	.	.	8ee-\	dac	8c\	dac	.	.
*	*	*	*	*	*	*	*Xij	*	*Xij	*	*
!	!	!	!	!	!	!	!	!LO:LB:g=original	!	!	!
=	=	=	=	=	=	=	=	=	=	=	=
2.ryy	2.ryy	2.ryy	.	2.ryy	.	4dd\	O	4B-\	O	2.ryy	.
.	.	.	.	.	.	8dd\	co	8B-\	co	.	.
!	!	!	!	!	!	!LO:TX:t=P:problem=poprawiony tekst	!	!	!	!	!
.	.	.	.	.	.	4ee-\	rze-	4c\	rze-	.	.
.	.	.	.	.	.	8dd\	-brze-	8B-\	-brze-	.	.
=	=	=	=	=	=	=	=	=	=	=	=
2.ryy	2.ryy	2.ryy	.	2.ryy	.	4.cc	-my	4A\	-my	2.ryy	.
.	.	.	.	.	.	.	.	8r	.	.	.
!	!	!	!	!	!	!LO:N:vis=2	!	!LO:N:vis=2	!	!	!
.	.	.	.	.	.	4.r	.	4.r	.	.	.
=	=	=	=	=	=	=:||	=	=	=	=	=
2.ryy	2.ryy	2.ryy	.	2.ryy	.	4dd\yy	Racz	4B-\	Racz	2.ryy	.
.	.	.	.	.	.	8dd\yy	na(m)	8B-\	nam	.	.
.	.	.	.	.	.	8dd\yy	te-	8B-\	te-	.	.
.	.	.	.	.	.	8cc\yy	-dy	8A\	-dy	.	.
.	.	.	.	.	.	8dd\yy	dac	8B-\	dać	.	.
=	=	=	=	=	=	=	=	=	=	=	=
*	*	*	*	*	*	*	*ij	*	*ij	*	*
2.ryy	2.ryy	2.ryy	.	2.ryy	.	4ee-\yy	Racz	4c\	Racz	2.ryy	.
.	.	.	.	.	.	8ee-\yy	na(m)	8c\	nam	.	.
.	.	.	.	.	.	8ee-\yy	te-	8c\	te-	.	.
.	.	.	.	.	.	8dd\yy	-dy	8B-\	-dy	.	.
.	.	.	.	.	.	8ee-\yy	dac	8c\	dać	.	.
*	*	*	*	*	*	*	*Xij	*	*Xij	*	*
=	=	=	=	=	=	=	=	=	=	=	=
2.ryy	2.ryy	2.ryy	.	2.ryy	.	4dd\yy	O	4B-\	O	2.ryy	.
.	.	.	.	.	.	8dd\yy	co	8B-\	co	.	.
.	.	.	.	.	.	4ee-\yy	rze-	4c\	rze-	.	.
.	.	.	.	.	.	8dd\yy	-brze-	8B-\	-brze-	.	.
=	=	=	=	=	=	=	=	=	=	=	=
2.ryy	2.ryy	2.ryy	.	2.ryy	.	4.ccyy	-my	4A\	-my	2.ryy	.
.	.	.	.	.	.	.	.	8r	.	.	.
!	!	!	!	!	!	!LO:N:vis=2	!	!LO:N:vis=2	!	!	!
.	.	.	.	.	.	4.ryy	.	4.r	.	.	.
!	!	!	!	!	!	!	!	!LO:LB:g=original	!	!	!
=	=	=	=	=	=	=	=	=	=	=	=
*	*	*	*	*	*	*clefF4	*	*	*	*	*
2.ryy	2.ryy	2.ryy	.	2.ryy	.	4.A\	lu-	4.e-\	lu-	2.ryy	.
.	.	.	.	.	.	4.B-\	-bos-	4.d\	-bos-	.	.
=	=	=	=	=	=	=	=	=	=	=	=
2.ryy	2.ryy	2.ryy	.	2.ryy	.	4.F#\	-my	4.c\	-my	2.ryy	.
.	.	.	.	.	.	4.G\	nie	4.B-\	nie	.	.
=	=	=	=	=	=	=	=	=	=	=	=
2.ryy	2.ryy	2.ryy	.	2.ryy	.	4E-\	za-	8e-\L	za-	2.ryy	.
.	.	.	.	.	.	.	.	8f\J	.	.	.
.	.	.	.	.	.	8E-\	-słu-	8g\	-słu-	.	.
.	.	.	.	.	.	4.F\	-zy-	4.f\	-zi-	.	.
=	=	=	=	=	=	=	=	=	=	=	=
2.ryy	2.ryy	2.ryy	.	2.ryy	.	4.F\	.	4.e-\	.	2.ryy	.
.	.	.	.	.	.	4BB-/	-li	4d\	-li	.	.
.	.	.	.	.	.	8r	.	8r	.	.	.
=	=	=	=	=	=	=	=	=	=	=	=
2.ryy	2.ryy	2.ryy	.	2.ryy	.	4.A\	lu-	4.e-\	lu-	2.ryy	.
.	.	.	.	.	.	4.B-\	-bos-	4.d\	-bos-	.	.
!	!	!	!	!	!	!LO:LB:g=original	!	!	!	!	!
=	=	=	=	=	=	=	=	=	=	=	=
2.ryy	2.ryy	2.ryy	.	2.ryy	.	4.F#\	-my	4.c\	-my	2.ryy	.
.	.	.	.	.	.	4.G\	nie	4.B-\	nie	.	.
=	=	=	=	=	=	=	=	=	=	=	=
2.ryy	2.ryy	2.ryy	.	2.ryy	.	4E-\	za-	8e-\L	za-	2.ryy	.
.	.	.	.	.	.	.	.	8f\J	.	.	.
.	.	.	.	.	.	8E-\	-słu-	8g\	-słu-	.	.
.	.	.	.	.	.	4.F\	-zi-	4.f\	-zi-	.	.
=	=	=	=	=	=	=	=	=	=	=	=
2.ryy	2.ryy	2.ryy	.	2.ryy	.	4.F\	.	4.e-\	.	2.ryy	.
.	.	.	.	.	.	4BB-/	-li	4d\	-li	.	.
.	.	.	.	.	.	8r	.	8r	.	.	.
!	!	!	!	!	!	!LO:TX:t=[segno]:problem=znak segno na kresce taktowej	!	!	!	!	!
=131	=131	=131	=131	=131	=131	=131||:	=131	=131	=131	=131	=131
*	*	*	*	*	*	*	*	*	*	*	*
!	!	!	!	!	!	!LO:TX:t=P:problem=powtórka t. 9-56	!	!LO:TX:t=P:problem=na początku systemu znak segno na podwójnej kresce taktowej (powtórka t. 9-56)	!	!	!
8F\L	8f/L	8f/L	.	8f/L	f	8F\yy	Kto-	8F/yy	Kto-	8f/	Kto-
8F\	8f/	8f/	.	8f/	.	8F\yy	-rys	8F/yy	-ris	8f/	-rys
8F\J	8f/J	8f/J	.	8f/J	.	8F\yy	nas	8F/yy	nas	8f/	nas
8F\L	8f/L	8f/L	.	8f/L	.	8F\yy	z ni-	8F/yy	z ni-	8f/	z ni-
8G\	8g/	8g/	.	8g/	.	8G\yy	-cze-	8G/yy	-cze-	8g/	-cze-
8A\J	8a/J	8a/J	.	8a/J	.	8A\yy	-go	8A/yy	-go	8a/	-go
!	!	!	!	!	!	!	!	!	!	!LO:LB:g=original	!
=132	=132	=132	=132	=132	=132	=132	=132	=132	=132	=132	=132
*	*	*	*	*	*	*	*	*	*	*	*
4.B-\	4.b-/	4.b-/	.	4.b-/	.	4.B-\yy	stwo-	4.B-/yy	stwo-	4.b-\	stwo-
.	.	.	.	.	.	.	.	.	.	.	.
!	!	!	!	!	!	!	!	!LO:N:vis=8	!	!	!
8G\	8g/	4g/	.	4.g/	.	4G\yy	-rzył	4G/yy	-rzył	4g\	-rzył
8r	8r	.	.	.	.	.	.	.	.	.	.
8r	8r	8r	.	.	.	8ryy	.	8ryy	.	8r	.
*	*	*	*	*	*	*	*	*	*	*	*
=133	=133	=133	=133	=133	=133	=133	=133	=133	=133	=133	=133
*	*	*	*	*	*	*	*ij	*	*ij	*	*ij
8G\L	8g/L	8g/L	.	8g/L	.	8G\yy	Kto-	8G/yy	Kto-	8g\	Kto-
8G\	8g/	8g/	.	8g/	.	8G\yy	-rys	8G/yy	-ris	8g\	-rys
8G\J	8g/J	8g/J	.	8g/J	.	8G\yy	nas	8G/yy	nas	8g\	nas
8G\L	8g/L	8g/L	.	8g/L	.	8G\yy	z ni-	8G/yy	z ni-	8g\	z ni-
8A\	8a/	8a/	.	8a/	.	8A\yy	-cze-	8A/yy	-cze-	8a\	-cze-
8B-\J	8b-/J	8b-/J	.	8b-/J	.	8B-\yy	-go	8B-/yy	-go	8b-\	-go
=134	=134	=134	=134	=134	=134	=134	=134	=134	=134	=134	=134
4.c\	4.cc\	4.cc/	.	4.cc/	.	4.c\yy	stwo-	4.c/yy	stwo-	4.cc\	stwo-
.	.	.	.	.	.	.	.	.	.	.	.
4A\	4a/	4a/	.	4.a/	.	4A\yy	-rzył	8A/yy	-rzył	4a\	-rzył
.	.	.	.	.	.	.	.	8ryy	.	.	.
*	*	*	*	*	*	*	*Xij	*	*Xij	*	*
8r	8r	8r	.	.	.	8ryy	.	8ryy	.	8r	.
=135	=135	=135	=135	=135	=135	=135	=135	=135	=135	=135	=135
4F\	8f/L	4f/	.	8f/L	pp	2.ryy	.	2.ryy	.	8f/	Kto-
.	8g/	.	.	8g/	.	.	.	.	.	8g/	-rys
8r	8a/J	8r	.	8a/J	.	.	.	.	.	8a/	nas
!LO:N:vis=2	!	!LO:N:vis=2	!	!	!	!	!	!	!	!	!
4.r	8b-/L	4.r	.	8b-\L	.	.	.	.	.	8b-\	z ni-
.	8cc 8a/	.	.	8cc\	.	.	.	.	.	8cc\	-cze-
.	8ddJ 8b-/	.	.	8dd\J	.	.	.	.	.	8dd\	-go
!	!	!	!	!	!	!	!	!	!	!LO:LB:g=original	!
=136	=136	=136	=136	=136	=136	=136	=136	=136	=136	=136	=136
*	*	*	*	*	*	*	*	*	*	*	*
8F\L	4.ee- 4.cc\	4cc\	.	4ee-\	.	8F\Lyy	stwo-	4.c\yy	stwo-	4.ee-\	stwo-
8G\	.	.	.	.	.	8G\yy	.	.	.	.	.
8A\J	.	8cc\	.	8aa\	.	8A\Jyy	.	.	.	.	.
8B-\L	8dd 8b-\	8dd\L	.	8bb-\L	.	4.B-\yy	-rzył	8B-\yy	-rzył	8dd\	-rzył
*	*	*	*	*	*	*	*	*	*	*	*Xij
8c\	8r	8dd\	.	8ff\	.	.	-dy	8ryy	.	8r	.
8d\J	8r	8b-\J	.	8dd\J	.	.	dac	8ryy	.	8r	.
*	*	*	*	*	*	*	*	*	*	*	*
!LO:LB:g=original	!LO:LB:g=original	!	!	!	!	!	!	!	!	!	!
=137	=137	=137||:	=137	=137	=137	=137||:	=137	=137	=137	=137	=137
8e-\L	8ggL 8ee-\	8e-/L	.	8gg\L	.	8c\yy	a-	8e-\yy	a-	8gg\	a-
8e-\	8gg 8ee-\	8e-/	.	8ee-\	.	8c\yy	-bys-	8e-\yy	-byś-	8gg\	-bys-
8e-\J	8ggJ 8ee-\	8e-/J	.	8cc\J	.	8c\yy	-my	8e-\yy	-my	8gg\	-my
8f\L	8aaL 8cc\	8f/L	.	8aa\L	.	8F\yy	cie-	8e-\yy	cie-	8aa\	cie-
8f\	8aa 8cc\	8f/	.	8ee-\	.	8F\yy	-bie	8d\yy	-bie	8aa\	-bie
8f\J	8aaJ 8cc\	8f/J	.	8cc\J	.	8F\yy	pro-	8c\yy	pro-	8aa\	pro-
!	!	!	!	!LO:LB:g=original	!	!	!	!	!	!	!
=138	=138	=138	=138	=138	=138	=138	=138	=138	=138	=138	=138
*tremolo	*	*	*	*	*	*	*	*	*	*	*
!	!	!	!	!	!	!	!	!	!	!LO:N:vis=4.	!
8g\L	4bb- 4dd\	8g/L	.	4bb-\	.	4.B-\yy	-si-	(y4d\yy	-si-	4bb-\	-si-
8g\	.	8g/	.	.	.	.	.	.	.	.	.
8g\J	8gg 8ee-\	8g/J	.	8gg\	.	.	.	8e-\)yy	.	8gg\	.
8d\L	4ff 4dd\	8d/L	.	8ff\L	.	4B-\yy	-li	4d\yy	-li	4ff\	-li
8d\	.	8d/	.	8dd\	.	.	.	.	.	.	.
8d\J	8r	8d/J	.	8b-\J	.	8ryy	.	8ryy	.	8r	.
*Xtremolo	*	*	*	*	*	*	*	*	*	*	*
=139	=139	=139:||	=139	=139	=139	=139:||	=139	=139	=139	=139	=139
*	*	*	*	*	*	*	*	*	*ij	*	*ij
!	!	!LO:TX:t=P:problem=t. 139-140 zapisane repetycją	!	!	!	!LO:TX:t=P:problem=t. 139-140 zapisane repetycją	!	!	!	!	!
8e-\L	8ggL 8ee-\	8e-/Lyy	.	8gg\L	.	8c\yy	a-	8e-\yy	a-	8gg\	a-
8e-\	8gg 8ee-\	8e-/yy	.	8ee-\	.	8c\yy	-bys-	8e-\yy	-bys-	8gg\	-bys-
8e-\J	8ggJ 8ee-\	8e-/Jyy	.	8cc\J	.	8c\yy	-my	8e-\yy	-my	8gg\	-my
!	!	!	!	!	!	!	!	!	!	!LO:LB:g=original	!
8f\L	8aaL 8cc\	8f/Lyy	.	8aa\L	.	8F\yy	cie-	8c\yy	cie-	8aa\	cie-
8f\	8aa 8cc\	8f/yy	.	8ee-\	.	8F\yy	-bie	8c\yy	-bie	8aa\	-bie
8f\J	8aaJ 8cc\	8f/Jyy	.	8cc\J	.	8F\yy	pro-	8c\yy	pro-	8aa\	pro-
=140	=140	=140	=140	=140	=140	=140	=140	=140	=140	=140	=140
*tremolo	*	*	*	*	*	*	*	*	*	*	*
8g\L	4bb- 4dd\	8g/Lyy	.	4bb-\	.	4.B-\yy	-si-	4d\yy	-si-	4bb-\	-si-
8g\	.	8g/yy	.	.	.	.	.	.	.	.	.
8g\J	8gg 8ee-\	8g/Jyy	.	8gg\	.	.	.	8e-\yy	.	8gg\	.
8d\L	4ff 4dd\	8d/Lyy	.	8ff\L	.	4B-\yy	-li	4d\yy	-li	4ff\	-li
8d\	.	8d/yy	.	8dd\	.	.	.	.	.	.	.
8d\J	8r	8d/Jyy	.	8b-\J	.	8ryy	.	8ryy	.	8r	.
*Xtremolo	*	*	*	*	*	*	*	*	*	*	*
!	!	!LO:LB:g=original	!	!	!	!	!	!	!	!	!
=141	=141	=141	=141	=141	=141	=141	=141	=141	=141	=141	=141
*	*	*	*	*	*	*	*ij	*	*	*	*
8E-\L	8ggL 8ee-\	8e-/L	.	8gg\L	.	8c\yy	a-	8e-\yy	a-	8gg\	a-
8E-\	8gg 8ee-\	8e-/	.	8ee-\	.	8c\yy	-bys-	8e-\yy	-byś-	8gg\	-bys-
8E-\J	8ggJ 8ee-\	8e-/J	.	8cc\J	.	8c\yy	-my	8e-\yy	-my	8gg\	-my
!	!LO:TX:t=P:problem=mixed beam	!	!	!	!	!	!	!	!	!	!
8F\L	8ggL 8ee-\	8f/L	.	8ee-\L	.	8A\yy	cie-	8e-\yy	cie-	8gg\	cie-
8F\	8ff 8dd\	8f/	.	8cc\	.	8B-\yy	-bie	8d\yy	-bie	8ff\	-bie
8F\J	8aJ 8c/	8f/J	.	8a\J	.	8F\yy	pro-	8c\yy	pro-	8a\	pro-
=142	=142	=142	=142	=142	=142	=142	=142	=142	=142	=142	=142
8BB-\L	4cc 4e-/	8b-/L	.	8b-/L	.	4.F\yy	-si-	4e-\yy	-si-	(4cc\	-si-
8D\	.	8f/	.	8f/	.	.	.	.	.	.	.
8F\J	8b- 8d/	8d/J	.	8d/J	.	.	.	8d\yy	.	8b-\)	.
4B-\	4b- 4d/	4B-/	.	4B-/	.	4BB-/yy	-li	4d\yy	-li	4b-\	-li
*	*	*	*	*	*	*	*Xij	*	*Xij	*	*Xij
8r	8r	8r	.	8r	.	8ryy	.	8ryy	.	8r	.
!LO:LB:g=original	!LO:LB:g=original	!	!	!	!	!	!	!	!	!LO:LB:g=original	!
=143	=143	=143	=143	=143	=143	=143	=143	=143	=143	=143	=143
*	*	*	*	*	*	*clefC3	*	*	*	*	*
!	!	!LO:N:vis=00	!	!LO:N:vis=00	!	!	!	!LO:N:vis=00	!	!	!
4BB-/	4ff 4dd\	0.r	.	0.r	.	4dd\yy	Racz	0.ryy	lu-	4ff\	Racz
8r	8dd 8b-\	.	.	.	.	8b-\yy	nam	.	.	8dd\	nam
4B-\	8ffL 8dd\	.	.	.	.	8dd\yy	te-	.	-bos-	8ff\	te-
.	8ff 8dd\	.	.	.	.	8dd\yy	-dy	.	.	8ff\	-dy
8r	8ddJ 8b-\	.	.	.	.	8b-\yy	dac	.	.	8dd\	dac
!	!	!	!	!	!	!LO:LB:g=original	!	!	!	!	!
=144	=144	=144	=144	=144	=144	=144	=144	=144	=144	=144	=144
4BB-/	8ffL 8dd\	.	.	.	.	8dd\yy	O	.	-my	8ff\	O
.	8ff 8dd\	.	.	.	.	8dd\yy	co	.	.	8ff\	co
8r	8ddJ 8b-\	.	.	.	.	8b-\yy	rze-	.	.	8dd\	rze-
8F\L	8ffL 8dd\	.	.	.	.	8dd\yy	-brze-	.	nie	8ff\	-brze-
8A\	8ee-J 8cc\	.	.	.	.	8cc\yy	-my	.	.	8ee-\	-my
8c\J	8r	.	.	.	.	8ryy	.	.	.	8r	.
=145	=145	=145	=145	=145	=145	=145	=145	=145	=145	=145	=145
*	*	*	*	*	*	*	*ij	*	*	*	*ij
4F\	4ee- 4cc\	.	.	.	.	4cc\yy	Racz	.	za-	4ee-\	Racz
.	.	.	.	.	.	.	.	.	.	.	.
8r	8cc 8a\	.	.	.	.	8a\yy	nam	.	-słu-	8cc\	nam
4FF/	8ee-L 8cc\	.	.	.	.	8cc\yy	te-	.	-zi-	8ee-\	te-
.	8ee- 8cc\	.	.	.	.	8cc\yy	-dy	.	.	8ee-\	-dy
8r	8ccJ 8a\	.	.	.	.	8a\yy	dac	.	.	8cc\	dac
!	!	!	!	!	!	!	!	!	!	!LO:LB:g=original	!
=146	=146	=146	=146	=146	=146	=146	=146	=146	=146	=146	=146
4F\	8ee-L 8cc\	.	.	.	.	8cc\yy	O	.	.	8ee-\	O
.	8ee- 8cc\	.	.	.	.	8cc\yy	co	.	.	8ee-\	co
8r	8ccJ 8a\	.	.	.	.	8a\yy	rze-	.	.	8cc\	rze-
8BB-/L	8ee-L 8cc\	.	.	.	.	8cc\yy	-brze-	.	-li	8ee-\	-brze-
8D/	8ddJ 8b-\	.	.	.	.	8b-\yy	-my	.	.	8dd\	-my
*	*	*	*	*	*	*	*Xij	*	*	*	*Xij
8F/J	8r	.	.	.	.	8ryy	.	.	.	8r	.
=147	=147	=147	=147	=147	=147	=147||	=147	=147	=147	=147	=147
*tremolo	*	*	*	*	*	*	*	*	*	*	*
!	!	!LO:N:vis=00	!	!LO:N:vis=00	!	!LO:N:vis=00	!	!LO:N:vis=00	!	!	!
8E-\L	4.gg 4.b-\	0.r	.	0.r	.	0.ryy	.	0.ryy	.	4.gg\	lu-
8E-\	.	.	.	.	.	.	.	.	.	.	.
8E-\J	.	.	.	.	.	.	.	.	.	.	.
8E-\L	4ee-\	.	.	.	.	.	.	.	.	4ee-\	-bos-
8E-\	.	.	.	.	.	.	.	.	.	.	.
8E-\J	8cc\	.	.	.	.	.	.	.	.	8cc\	-my
*Xtremolo	*	*	*	*	*	*	*	*	*	*	*
!LO:PB:g=original	!LO:PB:g=original	!	!	!	!	!	!	!	!	!	!
=148	=148	=148	=148	=148	=148	=148	=148	=148	=148	=148	=148
!	!LO:TX:t=P:problem=mixed beam	!	!	!	!	!	!	!	!	!	!
8F\L	8a/L	.	.	.	.	.	.	.	.	8a\	nie
8G\	8ff 8dd\	.	.	.	.	.	.	.	.	8ff\	za-
8A\J	8ee-J 8cc\	.	.	.	.	.	.	.	.	8ee-\	-słu-
!LO:TX:t=P:problem=mixed beam	!	!	!	!	!	!	!	!	!	!	!
8B-\L	8ee-L 8cc\	.	.	.	.	.	.	.	.	8ee-\	-zi-
8BB-/J	8ddJ 8b-\	.	.	.	.	.	.	.	.	8dd\	-li
8r	8r	.	.	.	.	.	.	.	.	8r	.
=149	=149	=149	=149	=149	=149	=149	=149	=149	=149	=149	=149
*tremolo	*	*	*	*	*	*	*	*	*	*	*
8E-\L	4.gg 4.b-\	.	.	.	.	.	.	.	.	4.gg\	lu-
8E-\	.	.	.	.	.	.	.	.	.	.	.
8E-\J	.	.	.	.	.	.	.	.	.	.	.
!	!	!	!	!	!	!	!	!	!	!LO:LB:g=original	!
8E-\L	4ee-\	.	.	.	.	.	.	.	.	4ee-\	-bos-
8E-\	.	.	.	.	.	.	.	.	.	.	.
8E-\J	8cc\	.	.	.	.	.	.	.	.	8cc\	-my
*Xtremolo	*	*	*	*	*	*	*	*	*	*	*
=150	=150	=150	=150	=150	=150	=150	=150	=150	=150	=150	=150
!	!LO:TX:t=P:problem=mixed beam	!	!	!	!	!	!	!	!	!	!
8F\L	8a/L	.	.	.	.	.	.	.	.	8a\	nie
8G\	8ff 8dd\	.	.	.	.	.	.	.	.	8ff\	za-
8A\J	8ee-J 8cc\	.	.	.	.	.	.	.	.	8ee-\	-słu-
!LO:TX:t=P:problem=mixed beam	!	!	!	!	!	!	!	!	!	!	!
8B-\L	8ee-L 8cc\	.	.	.	.	.	.	.	.	8ee-\	-zi-
8BB-/J	8ddJ 8b-\	.	.	.	.	.	.	.	.	8dd\	-li
8r	8r	.	.	.	.	.	.	.	.	8r	.
=151	=151	=151	=151	=151	=151	=151	=151	=151	=151	=151	=151
*	*	*	*	*	*	*clefF4	*	*	*	*	*
8F\L	8f/L	8f/L	.	8f/L	f	8F\yy	Kto-	8F/yy	Kto-	8f/	Kto-
8F\	8f/	8f/	.	8f/	.	8F\yy	-rys	8F/yy	-rys	8f/	-rys
8F\J	8f/J	8f/J	.	8f/J	.	8F\yy	nas	8F/yy	nas	8f/	nas
8F\L	8f/L	8f/L	.	8f/L	.	8F\yy	z ni-	8F/yy	z ni-	8f/	z ni-
8G\	8g/	8g/	.	8g/	.	8G\yy	-cze-	8G/yy	-cze-	8g/	-cze-
8A\J	8a/J	8a/J	.	8a/J	.	8A\yy	-go	8A/yy	-go	8a/	-go
=152	=152	=152	=152	=152	=152	=152	=152	=152	=152	=152	=152
4.B-\	4.b-/	4.b-/	.	4.b-/	.	4.B-\yy	stwo-	4.B-/yy	stwo-	4.b-\	stwo-
8G\	8g/	4g/	.	4.g/	.	4G\yy	-rzył	8G/yy	-rzył	8g\	-rzył
8r	8r	.	.	.	.	.	.	8ryy	.	8r	.
8r	8r	8r	.	.	.	8ryy	.	8ryy	.	8r	.
!	!	!	!	!	!	!	!	!	!	!LO:LB:g=original	!
=153	=153	=153	=153	=153	=153	=153	=153	=153	=153	=153	=153
*	*	*	*	*	*	*	*ij	*	*	*	*ij
8G\L	8g/L	8g/L	.	8g/L	.	8G\yy	Kto-	8G/yy	Kto-	8g\	Kto-
8G\	8g/	8g/	.	8g/	.	8G\yy	-rys	8G/yy	-rys	8g\	-rys
8G\J	8g/J	8g/J	.	8g/J	.	8G\yy	nas	8G/yy	nas	8g\	nas
8G\L	8g/L	8g/L	.	8g/L	.	8G\yy	z ni-	8G/yy	z ni-	8g\	z ni-
8A\	8a/	8a/	.	8a/	.	8A\yy	-cze-	8A/yy	-cze-	8a\	-cze-
8B-\J	8b-/J	8b-/J	.	8b-/J	.	8B-\yy	-go	8B-/yy	-go	8b-\	-go
!LO:LB:g=original	!LO:LB:g=original	!	!	!	!	!	!	!	!	!	!
=154	=154	=154	=154	=154	=154	=154	=154	=154	=154	=154	=154
4.c\	4.cc/	4.cc/	.	4.cc/	.	4.c\yy	stwo-	4.c/yy	stwo-	4.cc\	stwo-
4A\	4a/	4a/	.	4.a/	.	4A\yy	-rzył	8A/yy	-rzył	4a\	-rzył
*	*	*	*	*	*	*	*Xij	*	*	*	*
.	.	.	.	.	.	.	.	8ryy	.	.	.
8r	8r	8r	.	.	.	8ryy	.	8ryy	.	8r	.
=155	=155	=155	=155	=155	=155	=155	=155	=155	=155	=155	=155
4F\	8f/L	4f/	.	8f/L	pp	2.ryy	.	2.ryy	.	8f\	Kto-
.	8g/	.	.	8g/	.	.	.	.	.	8g\	-rys
8r	8a/J	8r	.	8a/J	.	.	.	.	.	8a\	nas
!LO:N:vis=2	!	!LO:N:vis=2	!	!	!	!	!	!	!	!	!
4.r	8b-\L	4.r	.	8b-/L	.	.	.	.	.	8b-\	z ni-
.	8cc 8a\	.	.	8cc/	.	.	.	.	.	8cc\	-cze-
.	8ddJ 8b-\	.	.	8dd/J	.	.	.	.	.	8dd\	-go
=156	=156	=156	=156	=156	=156	=156	=156	=156	=156	=156	=156
*	*	*	*	*	*	*	*	*	*ij	*	*
8F\L	4.ee- 4.cc\	4cc\	.	4ee-\	.	8F\Lyy	Stwo-	4.c\yy	stwo-	4.ee-\	stwo-
8G\	.	.	.	.	.	8G\yy	.	.	.	.	.
8A\J	.	8cc\	.	8aa\	.	8A\Jyy	.	.	.	.	.
8B-\L	8dd 8b-\	8dd\L	.	8bb-\L	.	4.B-\yy	-rzył	8B-\yy	-rzył	8cc\	-rzył
*	*	*	*	*	*	*	*	*	*Xij	*	*Xij
8c\	8r	8dd\	.	8ff\	.	.	.	8ryy	.	8r	.
8d\J	8r	8b-\J	.	8dd\J	.	.	.	8ryy	.	8r	.
!	!	!	!	!LO:LB:g=original	!	!	!	!	!	!	!
=157	=157	=157	=157	=157	=157	=157	=157	=157	=157	=157	=157
8e-\L	8ggL 8ee-\	8e-/L	.	8gg\L	.	8c\yy	a-	8e-\yy	a-	8gg\	a-
8e-\	8gg 8ee-\	8e-/	.	8ee-\	.	8c\yy	-bys-	8e-\yy	-bys-	8gg\	-bys-
!	!	!	!	!	!	!	!	!	!	!LO:LB:g=original	!
8e-\J	8ggJ 8ee-\	8e-/J	.	8cc\J	.	8c\yy	-my	8e-\yy	-my	8gg\	-my
!	!LO:TX:t=P:problem=mixed beam	!	!	!	!	!	!	!	!	!	!
8f\L	8ggL 8ee-\	8f/L	.	8ee-\L	.	8A\yy	cie-	8e-\yy	cie-	8gg\	cie
8f\	8ff 8dd\	8f/	.	8cc\	.	8B-\yy	-bie	8d\yy	-bie	8ff\	pro-
8F\J	8aJ 8c/	8f/J	.	8a\J	.	8F\yy	chwa-	8c\yy	pro-	8a\	-si-
=158	=158	=158	=158	=158	=158	=158	=158	=158	=158	=158	=158
8B-\L	4.cc 4.e-/	8b-/L	.	8b-/L	.	4.F\yy	-li-	4.e-\yy	-si-	4.cc\	.
8F\	.	8f/	.	8f/	.	.	.	.	.	.	.
8D\J	.	8d/J	.	8d/J	.	.	.	.	.	.	.
4BB-/	4b- 4d/	4B-/	.	4B-/	.	4BB-/yy	-li	4d\yy	-li	4b-\	-li
8r	8r	8r	.	8r	.	8ryy	.	8ryy	.	8r	.
!	!	!LO:LB:g=original	!	!	!	!	!	!	!	!	!
=159	=159	=159	=159	=159	=159	=159	=159	=159	=159	=159	=159
!	!	!LO:N:vis=00	!	!LO:N:vis=00	!	!	!	!LO:TX:a:rj:t=Solo	!	!LO:N:vis=00	!
4BB-/	4ff 4dd\	0.r	.	0.r	.	4d\yy	Racz	4f\yy	Racz	0.r	.
8r	8dd 8b-\	.	.	.	.	8B-\yy	nam	8d\yy	nam	.	.
4B-\	8ffL 8dd\	.	.	.	.	8d\Lyy	te-	8f\yy	te-	.	.
.	8ff 8dd\	.	.	.	.	8d\yy	-dy	8f\yy	-dy	.	.
8r	8ddJ 8b-\	.	.	.	.	8B-\Jyy	dac	8d\yy	dac	.	.
!LO:LB:g=original	!LO:LB:g=original	!	!	!	!	!	!	!	!	!	!
=160	=160	=160	=160	=160	=160	=160	=160	=160	=160	=160	=160
4BB-/	8ffL 8dd\	.	.	.	.	8d\yy	O	8f\yy	o	.	.
.	8ff 8dd\	.	.	.	.	8d\yy	co	8f\yy	co	.	.
8r	8ddJ 8b-\	.	.	.	.	8B-\yy	rze-	8d\yy	rze-	.	.
8F\L	8ffL 8dd\	.	.	.	.	4d\yy	-brze-	8f\yy	-brze-	.	.
8A\	8ee- 8cc\	.	.	.	.	.	.	8e-\yy	-my	.	.
8c\J	8cccJ 8ee-\	.	.	.	.	8c\yy	-my	8ryy	.	.	.
=161	=161	=161	=161	=161	=161	=161	=161	=161	=161	=161	=161
*	*	*	*	*	*	*	*ij	*	*	*	*
4F\	4ee- 4cc\	.	.	.	.	4c\yy	Racz	4e-\yy	Racz	.	.
8r	8cc 8a\	.	.	.	.	8A\yy	nam	8c\yy	nam	.	.
4FF/	8ee-L 8cc\	.	.	.	.	8c\yy	te-	8e-\yy	te-	.	.
.	8ee- 8cc\	.	.	.	.	8c\yy	-dy	8e-\yy	-dy	.	.
8r	8ccJ 8a\	.	.	.	.	8A\yy	dac	8c\yy	dac	.	.
=162	=162	=162	=162	=162	=162	=162	=162	=162	=162	=162	=162
4F\	8ee-L 8cc\	.	.	.	.	8c\yy	O	8e-\yy	o	.	.
.	8ee- 8cc\	.	.	.	.	8c\yy	co	8e-\yy	co	.	.
8r	8ccJ 8a\	.	.	.	.	8A\yy	rze-	8c\yy	rze-	.	.
8BB-/L	8ee-L 8cc\	.	.	.	.	8c\yy	-brze-	8e-\yy	-brze-	.	.
8D/	8dd 8b-\	.	.	.	.	8B-\yy	-my	8d\yy	-my	.	.
*	*	*	*	*	*	*	*Xij	*	*	*	*
8F/J	8bb-J 8dd\	.	.	.	.	8ryy	.	8ryy	.	.	.
=163	=163	=163	=163	=163	=163	=163	=163	=163	=163	=163	=163
*tremolo	*	*	*	*	*	*	*	*	*	*	*
!	!	!LO:N:vis=00	!	!LO:N:vis=00	!	!LO:N:vis=00	!	!LO:N:vis=00	!	!	!
8E-\L	4.gg\	0.r	.	0.r	.	0.ryy	.	0.ryy	.	4.gg\	lu-
8E-\	.	.	.	.	.	.	.	.	.	.	.
8E-\J	.	.	.	.	.	.	.	.	.	.	.
8E-\L	4ee-\	.	.	.	.	.	.	.	.	4ee-\	-bos-
8E-\	.	.	.	.	.	.	.	.	.	.	.
8E-\J	8cc\	.	.	.	.	.	.	.	.	8cc\	-my
*Xtremolo	*	*	*	*	*	*	*	*	*	*	*
=164	=164	=164	=164	=164	=164	=164	=164	=164	=164	=164	=164
!	!LO:TX:t=P:problem=mixed beam	!	!	!	!	!	!	!	!	!	!
8F\L	8a/L	.	.	.	.	.	.	.	.	8a\L	nie
8G\	8ff 8dd\	.	.	.	.	.	.	.	.	8ff\	za-
8A\J	8ee-J 8cc\	.	.	.	.	.	.	.	.	8ee-\J	-słu-
!LO:TX:t=P:problem=mixed beam	!	!	!	!	!	!	!	!	!	!	!
8B-\L	8ee-L 8cc\	.	.	.	.	.	.	.	.	8ee-\L	-zy-
8BB-/J	8ddJ 8b-\	.	.	.	.	.	.	.	.	8dd\J	-li
8r	8r	.	.	.	.	.	.	.	.	8r	.
!	!	!	!	!	!	!	!	!	!	!LO:LB:g=original	!
=165	=165	=165	=165	=165	=165	=165	=165	=165	=165	=165	=165
*tremolo	*	*	*	*	*	*	*	*	*	*	*ij
8E-\L	4.gg\	.	.	.	.	.	.	.	.	4.gg\	lu-
8E-\	.	.	.	.	.	.	.	.	.	.	.
8E-\J	.	.	.	.	.	.	.	.	.	.	.
8E-\L	4ee-\	.	.	.	.	.	.	.	.	4ee-\	-bos-
8E-\	.	.	.	.	.	.	.	.	.	.	.
8E-\J	8cc\	.	.	.	.	.	.	.	.	8cc\	-my
*Xtremolo	*	*	*	*	*	*	*	*	*	*	*
!LO:LB:g=original	!LO:LB:g=original	!	!	!	!	!	!	!	!	!	!
=166	=166	=166	=166	=166	=166	=166	=166	=166	=166	=166	=166
!	!LO:TX:t=P:problem=mixed beam	!	!	!	!	!	!	!	!	!	!
8F\L	8a/L	.	.	.	.	.	.	.	.	8a\L	nie
8G\	8ff 8dd\	.	.	.	.	.	.	.	.	8ff\	za-
8A\J	8ee-J 8cc\	.	.	.	.	.	.	.	.	8ee-\J	-słu-
!LO:TX:t=P:problem=mixed beam	!	!	!	!	!	!	!	!	!	!	!
8B-\L	8ee-L 8cc\	.	.	.	.	.	.	.	.	8ee-\L	-zy-
8BB-/J	8ddJ 8b-\	.	.	.	.	.	.	.	.	8dd\J	-li
*	*	*	*	*	*	*	*	*	*	*	*Xij
8r	8r	.	.	.	.	.	.	.	.	8r	.
=167	=167	=167	=167	=167	=167	=167	=167	=167	=167	=167	=167
!	!	!	!	!	!LO:DY:B:i:t=for	!	!	!	!	!	!
8F\L	8f/L	8f/L	.	8f/L	f	8F\yy	Kto-	8F/yy	Kto-	8f\	Kto-
8F\	8f/	8f/	.	8f/	.	8F\yy	-rys	8F/yy	-rys	8f\	-rys
8F\J	8f/J	8f/J	.	8f/J	.	8F\yy	nas	8F/yy	nas	8f\	nas
8F\L	8f/L	8f/L	.	8f/L	.	8F\yy	z ni-	8F/yy	z ni-	8f\	z ni-
8G\	8g/	8g/	.	8g/	.	8G\yy	-cze-	8G/yy	-cze-	8g\	-cze-
8A\J	8a/J	8a/J	.	8a/J	.	8A\yy	-go	8A/yy	-go	8a\	-go
=168	=168	=168	=168	=168	=168	=168	=168	=168	=168	=168	=168
4.B-\	4.b-/	4.b-/	.	4.b-/	.	4.B-\yy	stwo-	4.B-/yy	stwo-	4.b-\	stwo-
8G\	4g/	4g/	.	4.g/	.	4G\yy	-rzył	8G/yy	-rzył	4g\	-rzył
8r	.	.	.	.	.	.	.	8ryy	.	.	.
!	!	!	!	!	!	!	!	!	!	!LO:TX:b:t=V.Cito	!
8r	8r	8r	.	.	.	8ryy	.	8ryy	.	8r	.
!	!	!	!	!	!	!	!	!	!	!LO:PB:g=original	!
=169	=169	=169	=169	=169	=169	=169	=169	=169	=169	=169	=169
*	*	*	*	*	*	*	*ij	*	*ij	*	*
8G\L	8g/L	8g/L	.	8g/L	.	8G\yy	Kto-	8G/yy	Kto-	8g\	Kto-
8G\	8g/	8g/	.	8g/	.	8G\yy	-rys	8G/yy	-rys	8g\	-rys
8G\J	8g/J	8g/J	.	8g/J	.	8G\yy	nas	8G/yy	nas	8g\	nas
8G\L	8g/L	8g/L	.	8g/L	.	8G\yy	z ni-	8G/yy	z ni-	8g\	z ni-
8A\	8a/	8a/	.	8a/	.	8A\yy	-cze-	8A/yy	-cze-	8a\	-cze-
8B-\J	8b-/J	8b-/J	.	8b-/J	.	8B-\yy	-go	8B-/yy	-go	8b-\	-go
=170	=170	=170	=170	=170	=170	=170	=170	=170	=170	=170	=170
4.c\	4.cc\	4.cc/	.	4.cc/	.	4.c\yy	stwo-	4.c/yy	stwo-	4.cc\	stwo-
4A\	4a/	4a/	.	4.a/	.	4A\yy	-rzył	8A/yy	-rzył	4a\	-rzył
*	*	*	*	*	*	*	*Xij	*	*Xij	*	*
.	.	.	.	.	.	.	.	8ryy	.	.	.
8r	8r	8r	.	.	.	8ryy	.	8ryy	.	8r	.
=171	=171	=171	=171	=171	=171	=171	=171	=171	=171	=171	=171
*	*	*	*	*	*	*	*	*	*	*	*ij
4.F\	8f/L	4f/	.	8f/L	pp	2.ryy	.	2.ryy	.	8f\	Kto-
.	8g/	.	.	8g/	.	.	.	.	.	8g\	-rys
.	8a/J	8r	.	8a/J	.	.	.	.	.	8a\	nas
!LO:N:vis=2	!	!LO:N:vis=2	!	!	!	!	!	!	!	!	!
4.r	8b-\L	4.r	.	8b-\L	.	.	.	.	.	8b-\	z ni-
.	8cc 8a\	.	.	8cc\	.	.	.	.	.	8cc\	-cze-
.	8dd 8b-\J	.	.	8dd\J	.	.	.	.	.	8dd\	-go
=172	=172	=172	=172	=172	=172	=172	=172	=172	=172	=172	=172
8F\L	4.ee- 4.cc\	4cc\	.	4ee-\	.	8F\Lyy	Stwo-	4.c\yy	stwo-	4.ee-\	stwo-
8G\	.	.	.	.	.	8G\yy	.	.	.	.	.
8A\J	.	8cc\	.	8aa\	.	8A\Jyy	.	.	.	.	.
8B-\L	4dd 4b-\	8dd\L	.	8bb-\L	.	4.B-\yy	-rzył	8B-\yy	-rzył	4dd\	-rzył
*	*	*	*	*	*	*	*	*	*	*	*Xij
8c\	.	8dd\	.	8ff\	.	.	.	8ryy	.	.	.
8d\J	8r	8b-\J	.	8dd\J	.	.	.	8ryy	.	8r	.
!LO:LB:g=original	!LO:LB:g=original	!	!	!	!	!	!	!	!	!LO:LB:g=original	!
=173	=173	=173||:	=173	=173	=173	=173||:	=173	=173	=173	=173	=173
!	!	!	!	!	!	!	!	!	!	!LO:SIC:v:s=8gg\	!
8e-\L	8ggL 8ee-\	8e-/L	.	8gg\L	.	8c\yy	a-	8e-\yy	a-	8ff\	a-
!	!	!	!	!	!	!	!	!	!	!LO:SIC:v:s=8gg\	!
8e-\	8gg 8ee-\	8e-/	.	8ee-\	.	8c\yy	-bys-	8e-\yy	-bys-	8ff\	-bys-
!	!	!	!	!	!	!	!	!	!	!LO:SIC:v:s=8gg\	!
8e-\J	8ggJ 8ee-\	8e-/J	.	8cc\J	.	8c\yy	-my	8e-\yy	-my	8ff\	-my
8f\L	8aaL 8cc\	8f/L	.	8aa\L	.	8F\yy	cie-	8c\yy	cie-	8gg\	cie-
8f\	8aa 8cc\	8f/	.	8ee-\	.	8F\yy	-bie	8c\yy	-bie	8gg\	-bie
8f\J	8aaJ 8cc\	8f/J	.	8cc\J	.	8F\yy	pro-	8c\yy	pro-	8gg\	pro-
=174	=174	=174	=174	=174	=174	=174	=174	=174	=174	=174	=174
*tremolo	*	*	*	*	*	*	*	*	*	*	*
8g\L	4bb- 4dd\	8g/L	.	4bb-\	.	4.B-\yy	-si-	4d\yy	-si-	4bb-\	-si-
8g\	.	8g/	.	.	.	.	.	.	.	.	.
8g\J	8gg 8ee-\	8g/J	.	8gg\	.	.	.	8e-\yy	.	8gg\	.
8d\L	4ff 4dd\	8d/L	.	8ff\L	.	4B-\yy	-li	4d\yy	-li	4ff\	-li
8d\	.	8d/	.	8dd\	.	.	.	.	.	.	.
8d\J	8r	8d/J	.	8b-\J	.	8ryy	.	8ryy	.	8r	.
*Xtremolo	*	*	*	*	*	*	*	*	*	*	*
=175	=175	=175:||	=175	=175	=175	=175:||	=175	=175	=175	=175	=175
*	*	*	*	*	*	*	*	*	*ij	*	*ij
!	!	!LO:TX:t=P:problem=t. 175-176 zapisane repetycją	!	!	!	!LO:TX:t=P:problem=t. 175-176 zapisane repetycją	!	!	!	!LO:SIC:v:s=8gg\	!
8e-\L	8ggL 8ee-\	8e-/Lyy	.	8gg\L	.	8c\yy	a-	8e-\yy	a-	8ff\	a-
!	!	!	!	!	!	!	!	!	!	!LO:SIC:v:s=8gg\	!
8e-\	8gg 8ee-\	8e-/yy	.	8ee-\	.	8c\yy	-bys-	8e-\yy	-bys-	8ff\	-bys-
!	!	!	!	!	!	!	!	!	!	!LO:SIC:v:s=8gg\	!
8e-\J	8ggJ 8ee-\	8e-/Jyy	.	8cc\J	.	8c\yy	-my	8e-\yy	-my	8ff\	-my
8f\L	8aaL 8cc\	8f/Lyy	.	8aa\L	.	8F\yy	cie-	8c\yy	cie-	8gg\	cie-
8f\	8aa 8cc\	8f/yy	.	8ee-\	.	8F\yy	-bie	8c\yy	-bie	8gg\	-bie
8f\J	8aaJ 8cc\	8f/Jyy	.	8cc\J	.	8F\yy	pro-	8c\yy	pro-	8gg\	pro-
!	!	!	!	!LO:LB:g=original	!	!	!	!	!	!LO:LB:g=original	!
=176	=176	=176	=176	=176	=176	=176	=176	=176	=176	=176	=176
*tremolo	*	*	*	*	*	*	*	*	*	*	*
8g\L	4bb- 4dd\	8g/Lyy	.	4bb-\	.	4.B-\yy	-si-	4d\yy	-si-	4bb-\	-si-
8g\	.	8g/yy	.	.	.	.	.	.	.	.	.
8g\J	8gg 8ee-\	8g/Jyy	.	8gg\	.	.	.	8e-\yy	.	8gg\	.
8d\L	4ff 4dd\	8d/Lyy	.	8ff\L	.	4B-\yy	-li	4d\yy	-li	4ff\	-li
*	*	*	*	*	*	*	*	*	*	*	*Xij
8d\	.	8d/yy	.	8dd\	.	.	.	.	.	.	.
8d\J	8r	8d/Jyy	.	8b-\J	.	8ryy	.	8ryy	.	8r	.
*Xtremolo	*	*	*	*	*	*	*	*	*	*	*
=177	=177	=177	=177	=177	=177	=177	=177	=177	=177	=177	=177
*	*	*	*	*	*	*	*ij	*	*	*	*
!	!	!	!	!	!	!	!	!	!	!LO:SIC:v:s=8gg\	!
8e-\L	8ggL 8ee-\	8e-/L	.	8gg\L	.	8c\yy	a-	8e-\yy	a-	8ff\	a-
!	!	!	!	!	!	!	!	!	!	!LO:SIC:v:s=8gg\	!
8e-\	8gg 8ee-\	8e-/	.	8ee-\	.	8c\yy	-bys-	8e-\yy	-bys-	8ff\	-bys-
!	!	!	!	!	!	!	!	!	!	!LO:SIC:v:s=8gg\	!
8e-\J	8ggJ 8ee-\	8e-/J	.	8cc\J	.	8c\yy	-my	8e-\yy	-my	8ff\	-my
!	!LO:TX:t=P:problem=mixed beam	!	!	!	!	!	!	!	!	!LO:SIC:v:s=8gg\	!
8f\L	8ggL 8ee-\	8f/L	.	8ee-\L	.	8A\yy	cie-	8e-\yy	cie-	8ff\	cie-
!	!	!	!	!	!	!	!	!	!	!LO:SIC:v:s=8ff\	!
8f\	8ff 8dd\	8f/	.	8cc\	.	8B-\yy	-bie	8d\yy	-bie	8ee-\	-bie
8f\J	8aJ 8c/	8f/J	.	8a\J	.	8F\yy	pro-	8c\yy	pro-	8a\	pro-
!	!	!LO:LB:g=original	!	!	!	!	!	!	!	!	!
=178	=178	=178	=178	=178	=178	=178	=178	=178	=178	=178	=178
8B-\L	4.cc 4.e-/	8b-/L	.	8b-/L	.	4.F\yy	-si-	4.e-\yy	-si-	4.cc\	-si-
8F\	.	8f/	.	8f/	.	.	.	.	.	.	.
8D\J	.	8d/J	.	8d/J	.	.	.	.	.	.	.
4BB-/	4b- 4d/	4B-/	.	4B-/	.	4BB-/yy	-li	8d\yy	-li	4b-\	-li
*	*	*	*	*	*	*	*Xij	*	*Xij	*	*
.	.	.	.	.	.	.	.	8ryy	.	.	.
8ryy	8r	8r	.	8r	.	8ryy	.	8ryy	.	8r	.
!LO:LB:g=original	!LO:LB:g=original	!	!	!	!	!	!	!	!	!	!
=179	=179	=179	=179	=179	=179	=179	=179	=179	=179	=179	=179
!LO:TX:t=P:problem=niekompletne źródło	!	!	!	!	!	!	!	!	!	!	!
!LO:TX:t=P:problem=mixed beam	!	!	!	!	!	!	!	!	!	!	!
8DD/yy	4.ff 4.dd 4.b-/	8dL 8B-/	.	8B-/L	.	4.B-\	A-	4.d\	a-	4.ff\	a-
8D\L	.	8d 8B-/	.	8d/	.	.	.	.	.	.	.
8D\J	.	8dJ 8B-/	.	8f/J	.	.	.	.	.	.	.
*tremolo	*	*	*	*	*	*	*	*	*	*	*
8D\L	4.ff 4.dd 4.b-/	8dL 8B-/	.	8b-\L	.	4.B-\	-men	4.d\	-men	4ff\	-men
8D\	.	8d 8B-/	.	8dd\	.	.	.	.	.	.	.
8D\J	.	8dJ 8B-/	.	8ff\J	.	.	.	.	.	8r	.
*Xtremolo	*	*	*	*	*	*	*	*	*	*	*
=180	=180	=180	=180	=180	=180	=180	=180	=180	=180	=180	=180
*	*	*	*	*	*	*	*ij	*	*ij	*	*ij
!LO:TX:t=P:problem=mixed beam	!	!	!	!	!	!	!	!	!	!	!
8EE-/L	4.gg 4.ee- 4.b-/	8e-L 8B-/	.	8B-/L	.	4.B-\	A-	4.e-\	a-	4.gg\	a-
8E-\	.	8e- 8B-/	.	8e-/	.	.	.	.	.	.	.
8E-\J	.	8e-J 8B-/	.	8g/J	.	.	.	.	.	.	.
*tremolo	*	*	*	*	*	*	*	*	*	*	*
8E-\L	4gg 4ee- 4b-/	8e-L 8B-/	.	8b-\L	.	4.B-\	-men	4.e-\	-men	4gg\	-men
*	*	*	*	*	*	*	*	*	*	*	*Xij
8E-\	.	8e- 8B-/	.	8ee-\	.	.	.	.	.	.	.
8E-\J	8r	8e-J 8B-/	.	8gg\J	.	.	.	.	.	8r	.
*Xtremolo	*	*	*	*	*	*	*	*	*	*	*
!	!	!	!	!	!	!	!	!	!	!LO:LB:g=original	!
=181	=181	=181	=181	=181	=181	=181	=181	=181	=181	=181	=181
!LO:TX:t=P:problem=mixed beam	!	!	!	!	!	!	!	!	!	!	!
8FF/L	2.ff 2.dd\	8dL 8B-/	.	8ff\L	.	2.B-\	A-	2.d\	a-	2.ff\	a-
8F\	.	8d 8B-/	.	8bb-\	.	.	.	.	.	.	.
8F\J	.	8dJ 8B-/	.	8ff\J	.	.	.	.	.	.	.
*tremolo	*	*	*	*	*	*	*	*	*	*	*
8F\L	.	8dL 8B-/	.	8dd\L	.	.	.	.	.	.	.
8F\	.	8d 8B-/	.	8b-\	.	.	.	.	.	.	.
8F\J	.	8dJ 8B-/	.	8gg\J	.	.	.	.	.	.	.
*Xtremolo	*	*	*	*	*	*	*	*	*	*	*
=182	=182	=182	=182	=182	=182	=182	=182	=182	=182	=182	=182
!LO:TX:t=P:problem=mixed beam	!	!	!	!	!	!	!	!	!	!	!
8FF/L	2.ee- 2.cc\	8e-L 8A/	.	8ee-\L	.	2.F\	.	2.c\	.	2.ee-\	.
8F\	.	8e- 8A/	.	8cc\	.	.	.	.	.	.	.
8F\J	.	8e-J 8A/	.	8a\J	.	.	.	.	.	.	.
*tremolo	*	*	*	*	*	*	*	*	*	*	*
8F\L	.	8e-L 8A/	.	8ff\L	.	.	.	.	.	.	.
8F\	.	8e- 8A/	.	8ee-\	.	.	.	.	.	.	.
8F\J	.	8e-J 8A/	.	8cc\J	.	.	.	.	.	.	.
*Xtremolo	*	*	*	*	*	*	*	*	*	*	*
=183	=183	=183	=183	=183	=183	=183	=183	=183	=183	=183	=183
4BB-/	4dd 4b-\	8B-/L	.	8dd\L	.	4B-\	-men	4B-\	-men	4dd\	-men
.	.	8g/	.	8b-\	.	.	.	.	.	.	.
8r	8r	8f/J	.	8a\J	.	8r	.	8r	.	8r	.
!LO:N:vis=2	!LO:N:vis=2	!	!	!	!	!	!	!LO:N:vis=2	!	!LO:N:vis=2	!
4.r	4.r	8e-/L	.	8g/L	.	4.r	.	4.r	.	4.r	.
.	.	8d/	.	8f/	.	.	.	.	.	.	.
.	.	8c/J	.	8e-/J	.	.	.	.	.	.	.
=184	=184	=184	=184	=184	=184	=184	=184	=184	=184	=184	=184
!LO:TX:t=P:problem=mixed beam	!	!	!	!	!	!	!	!	!	!	!
8DD/L	4.ff 4.dd 4.b-/	8dL 8B-/	.	8d/L	.	4.B-\	A-	4.d\	a-	4.ff\	a-
8D\	.	8d 8B-/	.	8f/	.	.	.	.	.	.	.
8D\J	.	8dJ 8B-/	.	8b-/J	.	.	.	.	.	.	.
*tremolo	*	*	*	*	*	*	*	*	*	*	*
8D\L	4ff 4dd 4b-/	8dL 8B-/	.	8dd\L	.	4.B-\	-men	4d\	-men	4.ff\	-men
8D\	.	8d 8B-/	.	8ff\	.	.	.	.	.	.	.
8D\J	8r	8dJ 8B-/	.	8bb-\J	.	.	.	8r	.	.	.
*Xtremolo	*	*	*	*	*	*	*	*	*	*	*
=185	=185	=185	=185	=185	=185	=185	=185	=185	=185	=185	=185
*	*	*	*	*	*	*	*	*	*	*	*ij
!LO:TX:t=P:problem=mixed beam	!	!	!	!	!	!	!	!	!	!	!
8EE-/L	4.gg 4.ee- 4.b-/	8e-L 8B-/	.	8e-/L	.	4.B-\	A-	4.e-\	a-	4.gg\	a-
8E-\	.	8e- 8B-/	.	8g/	.	.	.	.	.	.	.
8E-\J	.	8e-J 8B-/	.	8b-/J	.	.	.	.	.	.	.
*tremolo	*	*	*	*	*	*	*	*	*	*	*
!	!	!LO:LB:g=original	!	!	!	!	!	!	!	!	!
8E-\L	4gg 4ee- 4b-/	8e-L 8B-/	.	8ee-\L	.	4.B-\	-men	8e-\	-men	4gg\	-men
*	*	*	*	*	*	*	*	*	*Xij	*	*Xij
8E-\	.	8e- 8B-/	.	8gg\	.	.	.	8r	.	.	.
8E-\J	8r	8e-J 8B-/	.	8bb-\J	.	.	.	8r	.	8r	.
!	!	!	!	!LO:LB:g=original	!	!	!	!	!	!	!
=186	=186	=186	=186	=186	=186	=186	=186	=186	=186	=186	=186
*	*^	*	*	*	*	*	*	*	*	*	*
8F\L	4.ff 4.dd 4.b-/	4.ryy	8dL 8B-/	.	8ff\L	.	4.B-\	A-	4.d\	a-	4.ff\	a-
8F\	.	.	8d 8B-/	.	8bb-\	.	.	.	.	.	.	.
8F\J	.	.	8dJ 8B-/	.	8ff\J	.	.	.	.	.	.	.
8FF/L	4.ee-X/	4.cc\	8c/L	.	8ee-\L	.	4.F\	.	4.c\	.	4.ee-X\	.
8FF/	.	.	8e-/	.	8cc\	.	.	.	.	.	.	.
8FF/J	.	.	8f/J	.	8a\J	.	.	.	.	.	.	.
*Xtremolo	*	*	*	*	*	*	*	*	*	*	*	*
*	*v	*v	*	*	*	*	*	*	*	*	*	*
!	!	!	!	!	!	!LO:LB:g=original	!	!	!	!	!
=187	=187	=187||:	=187	=187	=187	=187||:	=187	=187	=187	=187	=187
8BB-/	8dd 8b-\	8d/L	.	8b-\L	.	8B-\	-men	8B-\	-men	8dd\	-men
8r	8r	8B-/	.	8dd\	.	8r	.	8r	.	8r	.
8r	8r	8d/J	.	8ff\J	.	8r	.	8r	.	8r	.
*	*	*	*	*	*	*	*	*	*ij	*	*
4.F 4.FF/	4.ee- 4.cc\	8d/L	.	8ff\L	.	4.F\	A-	4.c\	a-	4.ee-\	a-
.	.	8e-/	.	8gg\	.	.	.	.	.	.	.
.	.	8c/J	.	8aa\J	.	.	.	.	.	.	.
!LO:LB:g=original	!LO:LB:g=original	!	!	!	!	!	!	!	!	!	!
=188	=188	=188:||	=188	=188	=188	=188:||	=188	=188	=188	=188	=188
!	!LO:TX:t=P:problem=niekompletne źródło	!LO:TX:t=P:problem=t. 188 zapisany repetycją	!	!	!	!LO:TX:t=P:problem=t. 188 zapisany repetycją	!	!	!	!	!
8BB-/	8ddyy 8b-\yy	8d/Lyy	.	8bb-\L	.	8B-\yy	-men	8B-\	-men	8dd\	-men
*	*	*	*	*	*	*	*	*	*Xij	*	*
8r	8r	8B-/yy	.	8dd\	.	8ryy	.	8r	.	8r	.
8r	8r	8d/Jyy	.	8ff\J	.	8ryy	.	8r	.	8r	.
!	!	!	!	!	!	!	!	!	!	!LO:LB:g=original	!
4.F 4.FF/	4.ee- 4.cc\	8d/Lyy	.	8ff\L	.	4.F\yy	A-	4.c\	a-	4.ee-\	a-
.	.	8e-/yy	.	8gg\	.	.	.	.	.	.	.
.	.	8c/Jyy	.	8aa\J	.	.	.	.	.	.	.
!	!	!	!	!	!	!	!	!LO:LB:g=original	!	!	!
=189	=189	=189	=189	=189	=189	=189	=189	=189	=189	=189	=189
8B-\	8dd 8b-\	8d/L	.	8bb-\L	.	8B-\	-men	8B-\	-men	8dd\	-men
8r	8r	8d/	.	8ff\	.	8r	.	8r	.	8r	.
*	*	*	*	*	*	*	*	*	*ij	*	*ij
8F\L	8ee-L 8cc\	8c/J	.	8aa\J	.	8F\	A-	8c\	a-	8ee-\	a-
8B-\J	8ddJ 8b-\	8d/L	.	8bb-\L	.	8B-\	-men	8B-\	-men	8dd\	-men
8r	8r	8d/	.	8ff\	.	8r	.	8r	.	8r	.
8F\	8ee- 8cc\	8c/J	.	8aa\J	.	8F\	A-	8c\	a-	8ee-\	a-
=190	=190	=190	=190	=190	=190	=190	=190	=190	=190	=190	=190
8B-\	8dd 8b-\	8d/L	.	8bb-\L	.	8B-\	-men	8B-\	-men	8dd\	-men
8r	8r	8d/	.	8ff\	.	8r	.	8r	.	8r	.
8F\L	8ee-L 8cc\	8c/J	.	8aa\J	.	8F\	A-	8c\	a-	8ee-\	a-
8B-\J	8ddJ 8b-\	8d/L	.	8bb-\L	.	8B-\	-men	8B-\	-men	8dd\	-men
*	*	*	*	*	*	*	*	*	*Xij	*	*
8r	8r	8d/	.	8ff\	.	8r	.	8r	.	8r	.
8F\	8ee- 8cc\	8c/J	.	8aa\J	.	8F\	A-	8c\	a-	8ee-\	a-
=191	=191	=191	=191	=191	=191	=191	=191	=191	=191	=191	=191
*tremolo	*	*	*	*	*	*	*	*	*	*	*
8B-\L	4.dd 4.b-\	8d/L	.	8bb-\L	.	4.B-\	-men	4.B-\	.	4.dd\	-men
*	*	*	*	*	*	*	*	*	*	*	*Xij
8B-\	.	8d/	.	8ff\	.	.	.	.	.	.	.
8B-\J	.	8d/J	.	8dd\J	.	.	.	.	.	.	.
8E-\L	4.gg 4.ee-\	8e-/L	.	8gg\L	.	4.E-\	A-	4.c\	.	4.gg\	a-
8E-\	.	8e-/	.	8ee-\	.	.	.	.	.	.	.
8E-\J	.	8e-/J	.	8cc\J	.	.	.	.	.	.	.
=192	=192	=192	=192	=192	=192	=192	=192	=192	=192	=192	=192
8F\L	4.ff 4.dd\	8f/L	.	8ff\L	.	2.F\	.	4.d\	.	4.ff\	.
8F\	.	8f/	.	8dd\	.	.	.	.	.	.	.
8F\J	.	8f/J	.	8b-\J	.	.	.	.	.	.	.
8FF/L	4.a 4.c/	8f/L	.	8ee-\L	.	.	.	4.c\	.	4.a\	.
8FF/	.	8f/	.	8cc\	.	.	.	.	.	.	.
8FF/J	.	8f/J	.	8a\J	.	.	.	.	.	.	.
*Xtremolo	*	*	*	*	*	*	*	*	*	*	*
=193	=193	=193	=193	=193	=193	=193	=193	=193	=193	=193	=193
8BB-/	8b- 8d/	8d/L	.	8b-\L	.	8BB-/	-men	8B-\	-men	8b-\	-men
8r	8r	8d/	.	8ff\	.	8r	.	8r	.	8r	.
*	*	*	*	*	*	*	*	*	*ij	*	*
8FF/L	8ee-L 8cc\	8c/J	.	8aa\J	.	8F\	A-	8c\	a-	8ee-\	a-
!	!	!	!	!	!	!	!	!	!	!LO:LB:g=original	!
8BB-/J	8ddJ 8b-\	8d/L	.	8bb-\L	.	8B-\	-men	8B-\	-men	8dd\	-men
8r	8r	8d/	.	8ff\	.	8r	.	8r	.	8r	.
*	*	*	*	*	*	*	*	*	*	*	*ij
8FF/	8ee- 8cc\	8c/J	.	8aa\J	.	8F\	A-	8c\	a-	8ee-\	a-
!LO:LB:g=original	!LO:LB:g=original	!	!	!	!	!	!	!	!	!	!
=194	=194	=194	=194	=194	=194	=194	=194	=194	=194	=194	=194
!	!LO:TX:t=P:problem=niekompletne źródło	!	!	!	!	!	!	!	!	!	!
8BB-/	8ddyy 8b-\	8d/L	.	8bb-\L	.	8B-\	-men	8B-\	-men	8dd\	-men
8r	8r	8d/	.	8ff\	.	8r	.	8r	.	8r	.
8FF/L	8ee-L 8cc\	8c/J	.	8aa\J	.	8F\	A-	8c\	a-	8ee-\	a-
8BB-/J	8ddJ 8b-\	8d/L	.	8bb-\L	.	8B-\	-men	8B-\	-men	8dd\	-men
*	*	*	*	*	*	*	*	*	*Xij	*	*Xij
!	!	!	!	!	!	!	!	!	!	!LO:TX:t=P:problem=brak 8r	!
8r	8r	8d/	.	8ff\	.	8r	.	8r	.	8ryy	.
8FF/	8ee- 8cc\	8c/J	.	8aa\J	.	8F\	A-	8c\	a-	8ee-\	a-
!	!	!LO:LB:g=original	!	!LO:LB:g=original	!	!	!	!	!	!	!
=195	=195	=195	=195	=195	=195	=195	=195	=195	=195	=195	=195
*tremolo	*	*	*	*	*	*	*	*	*	*	*
8BB-/L	4.dd 4.b-\	8d/L	.	8bb-\L	.	4.B-\	.	4.B-\	.	4.dd\	.
8BB-/	.	8d/	.	8ff\	.	.	.	.	.	.	.
8BB-/J	.	8d/J	.	8dd\J	.	.	.	.	.	.	.
8E-\L	4.gg 4.ee-\	8e-/L	.	8gg\L	.	4.E-\	.	4.c\	.	4.gg\	.
8E-\	.	8e-/	.	8ee-\	.	.	.	.	.	.	.
8E-\J	.	8e-/J	.	8cc\J	.	.	.	.	.	.	.
!	!	!	!	!	!	!LO:LB:g=original	!	!LO:LB:g=original	!	!	!
=196	=196	=196	=196	=196	=196	=196	=196	=196	=196	=196	=196
8F\L	4.ff 4.dd\	8f/L	.	8ff\L	.	2.F\	.	4.d\	.	4.ff\	.
8F\	.	8f/	.	8dd\	.	.	.	.	.	.	.
8F\J	.	8f/J	.	8b-\J	.	.	.	.	.	.	.
8FF/L	4.a 4.c/	8f/L	.	8ee-\L	.	.	.	4.c\	.	4.a\	.
8FF/	.	8f/	.	8cc\	.	.	.	.	.	.	.
8FF/J	.	8f/J	.	8a\J	.	.	.	.	.	.	.
*Xtremolo	*	*	*	*	*	*	*	*	*	*	*
=197	=197	=197	=197	=197||:	=197	=197	=197	=197	=197	=197	=197
!	!LO:TX:t=P:problem=mixed beam	!	!	!	!	!	!	!	!	!	!
4BB-/	8b-L 8d/	4d 4B-/	.	4b- 4d/	.	4BB-/	-men	4d\	-men	4b-\	-men
.	8bb- 8dd\	.	.	.	.	.	.	.	.	.	.
8r	8ggJ 8ee-\	8r	.	8r	.	8r	.	8r	.	8r	.
!LO:N:vis=2	!	!LO:N:vis=2	!	!LO:N:vis=2	!	!	!	!LO:N:vis=2	!	!LO:N:vis=2	!
4.r	8ffL 8dd\	4.r	.	4.r	.	4.r	.	4.r	.	4.r	.
.	8ff 8dd\	.	.	.	.	.	.	.	.	.	.
.	8ffJ 8dd\	.	.	.	.	.	.	.	.	.	.
=198	=198	=198	=198	=198	=198	=198	=198	=198	=198	=198	=198
*	*	*	*	*	*	*	*ij	*	*	*	*
!LO:TX:t=P:problem=mixed beam	!	!	!	!	!	!	!	!	!	!	!
8FF/L	2.ee- 2.cc 2.a\	8c/L	.	8ee-\L	.	2.F\	A-	2.c\	a-	2.ee-\	a-
8F\	.	8e-/	.	8cc\	.	.	.	.	.	.	.
8F\J	.	8f/J	.	8a\J	.	.	.	.	.	.	.
*tremolo	*	*	*	*	*	*	*	*	*	*	*
8F\L	.	8c/L	.	8ee-\L	.	.	.	.	.	.	.
8F\	.	8e-/	.	8cc\	.	.	.	.	.	.	.
8F\J	.	8f/J	.	8a\J	.	.	.	.	.	.	.
*Xtremolo	*	*	*	*	*	*	*	*	*	*	*
=199	=199	=199	=199	=199:||	=199	=199	=199	=199	=199	=199	=199
!	!	!	!	!LO:TX:t=P:problem=t. 199-200 zapisane repetycją	!	!	!	!	!	!	!
4B- 4BB-\	8ddL 8b-\	4d 4B-/	.	4b-yy 4d/yy	.	4B-\	-men	8B-\	-men	8dd\	-men
.	8bb- 8dd\	.	.	.	.	.	.	8r	.	8r	.
8r	8ggJ 8ee-\	8r	.	8ryy	.	8r	.	8r	.	8r	.
!LO:N:vis=2	!	!LO:N:vis=2	!	!LO:N:vis=2	!	!	!	!LO:N:vis=2	!	!LO:N:vis=2	!
4.r	8ffL 8dd\	4.r	.	4.ryy	.	4.r	.	4.r	.	4.r	.
.	8ff 8dd\	.	.	.	.	.	.	.	.	.	.
.	8ffJ 8dd\	.	.	.	.	.	.	.	.	.	.
!	!	!	!	!	!	!	!	!	!	!LO:LB:g=original	!
=200	=200	=200	=200	=200	=200	=200	=200	=200	=200	=200	=200
*	*	*	*	*	*	*	*	*	*ij	*	*
!LO:TX:t=P:problem=mixed beam	!	!	!	!	!	!	!	!	!	!	!
8FF/L	2.ee- 2.cc 2.a\	8c/L	.	8ee-\Lyy	.	2.F\	A-	2.c\	a-	2.ee-\	a-
8F\	.	8e-/	.	8cc\yy	.	.	.	.	.	.	.
8F\J	.	8f/J	.	8a\Jyy	.	.	.	.	.	.	.
*tremolo	*	*	*	*	*	*	*	*	*	*	*
8F\L	.	8c/L	.	8ee-\Lyy	.	.	.	.	.	.	.
8F\	.	8e-/	.	8cc\yy	.	.	.	.	.	.	.
8F\J	.	8f/J	.	8a\Jyy	.	.	.	.	.	.	.
*Xtremolo	*	*	*	*	*	*	*	*	*	*	*
!LO:LB:g=original	!LO:LB:g=original	!	!	!	!	!	!	!	!	!	!
=201	=201	=201	=201	=201	=201	=201	=201	=201	=201	=201	=201
8B-\	8dd 8b-\	8d/L	.	8b-\L	.	8B-\	-men	8B-\	-men	8dd\	-men
!	!LO:TX:t=P:problem=brak 8r	!	!	!	!	!	!	!	!	!	!
8r	8ryy	8B-/	.	8dd\	.	8r	.	8r	.	8r	.
8r	8r	8d/J	.	8ff\J	.	8r	.	8r	.	8r	.
*	*	*	*	*	*	*	*	*	*	*	*ij
4.F 4.FF\	4.ee- 4.cc\	8d/L	.	8ff\L	.	4.F\	A-	4.c\	a-	4.ee-\	a-
.	.	8e-/	.	8gg\	.	.	.	.	.	.	.
.	.	8c/J	.	8aa\J	.	.	.	.	.	.	.
=202	=202	=202	=202	=202	=202	=202	=202	=202	=202	=202	=202
!	!	!	!	!LO:TX:t=P:problem=mixed beam	!	!	!	!	!	!	!
8B-\	8dd 8b-\	8d/L	.	8bb-\L	.	8B-\	-men	8B-\	-men	8dd\	-men
8r	8r	8d/	.	8b-/	.	8r	.	8r	.	8r	.
8r	8r	8B-/J	.	8dd/J	.	8r	.	8r	.	8r	.
4.F 4.FF\	4.ee- 4.cc\	8d/L	.	8ff\L	.	4.F\	A-	4.c\	a-	4.ee-\	a-
.	.	8e-/	.	8gg\	.	.	.	.	.	.	.
.	.	8c/J	.	8aa\J	.	.	.	.	.	.	.
=203	=203	=203	=203	=203	=203	=203	=203	=203	=203	=203	=203
!	!	!LO:TX:t=P:problem=mixed beam	!	!	!	!	!	!	!	!	!
8B- 8BB-\	8dd 8b-\	8d/L	.	8bb-\L	.	8B-\	-men	8B-\	-men	8dd\	-men
8r	8r	8dd\	.	8ff\	.	8r	.	8r	.	8r	.
8r	8r	8dd\J	.	8ff\J	.	8r	.	8r	.	8r	.
4.B- 4.BB-\	4.dd 4.b-\	8dd\L	.	8ff\L	.	4.B-\	A-	4.f\	a-	4.dd\	a-
.	.	8b-\	.	8dd\	.	.	.	.	.	.	.
.	.	8b-\J	.	8dd\J	.	.	.	.	.	.	.
=204	=204	=204	=204	=204	=204	=204	=204	=204	=204	=204	=204
8B- 8BB-\	8dd 8b-\	8b-\L	.	8dd\L	.	8B-\	-men	8f\	-men	8dd\	-men
8r	8r	8f\	.	8b-\	.	8r	.	8r	.	8r	.
8r	8r	8f\J	.	8b-\J	.	8r	.	8r	.	8r	.
4.B- 4.BB-\	4.dd 4.b-\	8f/L	.	8b-\L	.	4.B-\	A-	4.f\	a-	4.dd\	a-
.	.	8d/	.	8f\	.	.	.	.	.	.	.
.	.	8d/J	.	8f\J	.	.	.	.	.	.	.
=205	=205	=205	=205	=205	=205	=205	=205	=205	=205	=205	=205
8B- 8BB-\	8dd 8b-\	8f/L	.	8d/L	.	8B-\	-men	8f\	-men	8dd\	-men
*	*	*	*	*	*	*	*	*	*Xij	*	*Xij
8r	8r	8f/	.	8b- 8d/	.	8r	.	8r	.	8r	.
8r	8r	8f/J	.	8b-J 8d/	.	8r	.	8r	.	8r	.
4.B- 4.BB-\	4.dd 4.b-\	8ddL 8f/	.	8b-/L	.	4.B-\	A-	4.f\	a-	4.dd\	a-
.	.	8dd 8f/	.	8bb- 8b- 8d/	.	.	.	.	.	.	.
.	.	8ddJ 8f/	.	8bb-J 8b- 8d/	.	.	.	.	.	.	.
!	!	!	!	!	!	!	!	!LO:LB:g=original	!	!	!
=206	=206	=206	=206	=206	=206	=206	=206	=206	=206	=206	=206
4B- 4BB-\	4dd 4b-\	4dd 4f/	.	4bb- 4b- 4d/	.	2.B-\	-men	2.f\	-men	4dd\	-men.
8r	8r	8r	.	8r	.	.	.	.	.	8r	.
!	!LO:TX:b:t=Finis	!LO:TX:b:t=Finis.	!	!LO:TX:b:t=Finis.	!	!	!	!	!	!LO:TX:b:t=Finis.	!
!LO:N:vis=2	!LO:N:vis=2	!LO:N:vis=2	!	!LO:N:vis=2	!	!	!	!	!	!	!
4.r	4.r	4.r	.	4.r	.	.	.	.	.	4.r	.
==	==	==;	==	==	==	==	==	==	==	==	==
*-	*-	*-	*-	*-	*-	*-	*-	*-	*-	*-	*-
!!!system-decoration: [g1][g2]{g3}
!!!RDF**dynam: p = "p.", fontstyle="bold-italic"
!!!RDF**dynam: pp = "pp:", fontstyle="bold-italic"
!!!RDF**dynam: f = "for.", fontstyle="bold-italic"
!!!ENC: Katarzyna Serwa
!!!END: 2021-12-16
!!!ENC: Andrzej Gręziak
!!!END: 2021-11-28
